/* XPM */
static char *door_close[] = {
/* columns rows colors chars-per-pixel */
"64 64 93 2 ",
"   c #000100",
".  c #29343F",
"X  c #553322",
"o  c #593624",
"O  c #5E3A23",
"+  c #633D27",
"@  c #643F28",
"#  c #6A3F2A",
"$  c #694327",
"%  c #65412A",
"&  c #6D4229",
"*  c #72452A",
"=  c #7E4F2F",
"-  c #536639",
";  c #576A3C",
":  c #5A6E3E",
">  c #5C703F",
",  c #64773E",
"<  c #5F7341",
"1  c #617643",
"2  c #687E45",
"3  c #697F48",
"4  c #445066",
"5  c #4E5668",
"6  c #555D6F",
"7  c #4D5870",
"8  c #535D74",
"9  c #585F72",
"0  c #5B6275",
"q  c #57627A",
"w  c #5F6679",
"e  c #61657E",
"r  c #626A7D",
"t  c #6A6A7F",
"y  c #814D35",
"u  c #835333",
"i  c #8B5536",
"p  c #8D5738",
"a  c #8A5A39",
"s  c #915A35",
"d  c #945C3A",
"f  c #9B5E3C",
"g  c #9C613D",
"h  c #A0613E",
"j  c #9F6641",
"k  c #A36441",
"l  c #A96842",
"z  c #758E39",
"x  c #77903A",
"c  c #7E993E",
"v  c #6D8143",
"b  c #6F884D",
"n  c #708546",
"m  c #738947",
"M  c #738C4F",
"N  c #7B924D",
"B  c #829B51",
"V  c #8DAB44",
"C  c #94B448",
"Z  c #9BBC4C",
"A  c #87A054",
"S  c #8BA557",
"D  c #8FAA59",
"F  c #92AE5B",
"G  c #94B05C",
"H  c #9DC04D",
"J  c #A1C44F",
"K  c #A6CB51",
"L  c #AACF53",
"P  c #5D6880",
"I  c #636D82",
"U  c #6A7185",
"Y  c #657089",
"T  c #6C758B",
"R  c #69788A",
"E  c #70778B",
"W  c #737A8E",
"Q  c #6E7A92",
"!  c #767D91",
"~  c #787F93",
"^  c #7B8296",
"/  c #7F869A",
"(  c #828297",
")  c #8D8E97",
"_  c #80879B",
"`  c #82899D",
"'  c #868DA1",
"]  c #888FA4",
"[  c #8A91A6",
"{  c #8D95A9",
"}  c #9198AC",
"|  c #959DB1",
" . c #A3AABF",
/* pixels */
"G L L G G G G G G G G G M G L G G L L G G G G G G G G G M G L G G L L G G G G G G G G G M G L G G L L G G G G G G G G G M G L G ",
"G M L M G G G G G G G G G G M G G M L M G G G G G G G G G G M G G M L M G G G G G G G G G G M G G M L M G G G G G G G G G G M G ",
"G G M G G G G G G G G M G G G G G G M G G G G G G G G M G G G G G G M G G G G G G G G M G G G G G G M G G G G G G G G M G G G G ",
"G G G G G L G G G G M G M G G G G G G G G L G G G G M G M G G G G G G G G L G G G G M G M G G G G G G G G L G G G G M G M G G G ",
"G G G G L M L G G G G M M G G G G G G G L M L G G G G M M G G G G G G G L M L G G G G M M G G G G G G G L M L G G G G M M G G G ",
"G L G G L M M M G G G G L G G G G L G G L M M M G G G G L G G G G L G G L M M M G G G G L G G G G L G G L M M M G G G G L G G G ",
"G M G G M M G G M G G G G G G G G M G G M M G G M G G G G G G G G M G G M M G G M G G G G G G G G M G G M M G G M G G G G G G G ",
"M G G G G G M M G G G L G G G G M G G G G G M M G G G L G G G G M G G G G G M M G G G L G G G G M G G G G G M M G G G L G G G G ",
"G G G G G G G M G G M M G G L G G G G G G G G M G G M M G G L G G G G G G G G M G G M M G G L G G G G G G G G M G G M M G G L G ",
"G G G L M G G G G M G M G G M G G G G L M G G G G M G M G G M G G G G L M G G G G M G M G G M G G G G L M G G G G M G M G G M G ",
"G G G M G G G G G G M G G G G G G G G M F F F F F F M F F F F F F F F M F F F F F F M F G G G G G G G M G G G G G G M G G G G G ",
"G G G G G G G M G G G G G G G G G G F F F F F M F F F F F F F F F F F F F F F M F F F F F F G G G G G G G G G M G G G G G G G G ",
"M G G G G G L G G G G G M M G G M F F F F F L F F F F D b b D D b D D D D F K F F F F F M M F G M G G G G G L G G G G G M M G G ",
"M G G G G G M G G G G L G G G G M F F F F F M F D D D J S S S S b S S S D D b D F F F L F F F G M G G G G G M G G G G L G G G G ",
"L G G G L G G G G G G M G G G G L F F F K F D D S S S b S A A A Z A A S H S S S D D F M F F F F L G G G L G G G G G G M G G G G ",
"G M G G M G G G G G G G G G G G F M F F M D S S S A B B B B B B B 2 B B 2 B A S S D D F F F F F G M G G M G G G G G G G G G G G ",
"G L L G G G G G G G G G M G L G F L L F D D S S                                 S S D D M F L F G L L G G G G G G G G G M G L G ",
"G M L M G G G G G G G G G G M G F M K M D S S B   ^ [ } ( ) } } ' ^ / ] W ' I   B S S D F F M F G M L M G G G G G G G G G G M G ",
"G G M G G G G G G G G M G G G G F F M D S S B B   ' | | | { ^ } ' / ~ ' ! / W   B B S b D F F F G G M G G G G G G G G M G G G G ",
"G G G G G L G G G G M G M G G G F F F D S Z B N . / }                     ^ W   N B b S b F F F G G G G G L G G G G M G M G G G ",
"G G G G L M L G G G G M M G G G F F F D H 3 C N } . }   & d + d + i + d   / !   N B B b b F F F G G G G L M L G G G G M M G G G ",
"G L G G L M M M G G G G L G G G F K D S H 2 2 < } .  .  & a @ d + d @ d   ` ~   N N B S J D F F G L G G L M M M G G G G L G G G ",
"G M G G M M G G M G G G G G G G F M D S b 2 N M } . |   & i # f & h # d   _ !   > N B S S D F F G M G G M M G G M G G G G G G G ",
"M G G G G G M M G G G L G G G G M F D S A B 1 : } . |   @ s * d * k * f   { ~   M N B Z S D F F M G G G G G M M G G G L G G G G ",
"G G G G G G G M G G M M G G L G F F D S A B N : . } [   @ d @ d + d @ f   ' ^   M N 2 b S D K F G G G G G G G M G G M M G G L G ",
"G G G L M G G G G M G M G G M G F F D J 3 B N M   ` [   & f # f & d # l   [ ~   M < B 3 S D M F G G G L M G G G G M G M G G M G ",
"G G G M G G G G G G M G G G G G F F D b A B N m   W /   # p + k * d + k   ' `   m N 2 A S D F F G G G M G G G G G G M G G G G G ",
"G G G G G G G M G G G G G G G G F F D S A B N :   ! W   @ u + k & d + f   ^ U   m N B A S D F F G G G G G G G M G G G G G G G G ",
"M G G G G G L G G G G G M M G G M F D S A B V m   ` ^   * u % k & d % g   W r   m N B B b b F F M G G G G G L G G G G G M M G G ",
"M G G G G G M G G G G L G G G G M F D S A B < m   _ !                     W r   m N B Z S D F F M G G G G G M G G G G L G G G G ",
"L G G G L G G G G G G M G G G G L F D S Z B N m   ^ _ { { | ^ / U t I ' T . .   m N B 3 S D F F L G G G L G G G G G G M G G G G ",
"G M G G M G G G G G G G G G G G F M D S 3 B N m   ! ^ { / } r ^ ' e U ! . } } . m N B A S D F F G M G G M G G G G G G G G G G G ",
"G L L G G G G G G G G G M G L G F K K S A B N m   I ! ` W } E ` ` ! r ! . } } . m N B A b D K F G L L G G G G G G G G G M G L G ",
"G M L M G G G G G G G G G G M G F M K b A B N m   I ^ ^ T ` U W W ~ R r Y . .   m N B A S D M F G M L M G G G G G G G G G G M G ",
"G G M G G G G G G G G M G G G G F F b S A B N m   0 I                     W !   m N B b S D F F G G M G G G G G G G G M G G G G ",
"G G G G G L G G G G M G M G G G F F D S A C N m   U ~   # g o g % u @ a   / Y   m N 2 A b D F F G G G G G L G G G G M G M G G G ",
"G G G G L M L G G G G M M G G G F F D S Z 2 V m   w P   $ g o j @ u o u   ! U   m N B 3 b D F F G G G G L M L G G G G M M G G G ",
"G L G G L M M M G G G G L G G G F K D S Z 2 < :   w I   % k o g $ u o u   ! T   m N B A J D F F G L G G L M M M G G G G L G G G ",
"G M G G M M G G M G G G G G G G F M D S 3 2 N m   0 w   & k X g % u + a   W r   : N B A S D F F G M G G M M G G M G G G G G G G ",
"M G G G G G M M G G G L G G G G M F D S A B < : . U r   + l o g O u @ a   U U   m N B Z S D F F M G G G G G M M G G G L G G G G ",
"G G G G G G G M G G M M G G L G F F D S A B N : } . 8   O l X d O u + a   ! `   m N 2 3 S D K F G G G G G G G M G G M M G G L G ",
"G G G L M G G G G M G M G G M G F F D J 3 B N m } . 8   % g X k + = + i   ! /   m < B 3 S D M F G G G L M G G G G M G M G G M G ",
"G G G M G G G G G G M G G G G G F F D b A B N M } . I   % d o k + i * d   ! T   M N 2 A S D F F G G G M G G G G G G M G G G G G ",
"G G G G G G G M G G G G G G G G F F D S A B N : } . 9   % g + g o y + i   I w   M N B A S D F F G G G G G G G M G G G G G G G G ",
"M G G G G G L G G G G G M M G G M F D S A B V M . 0 8                     r Y   M N B A b b F F M G G G G G L G G G G G M M G G ",
"M G G G G G M G G G G L G G G G M F D S S B 1 M   8 7 w 0 Q I I I 0 0 0 U I I   M N B Z S D F F M G G G G G M G G G G L G G G G ",
"L G G G L G G G G G G M G G G G L F D S H B N N   5 4 6 q I T r r r 8 I ! T ^   N N B b S D F F L G G G L G G G G G G M G G G G ",
"G M G G M G G G G G G G G G G G F M F D b B B N                                 N B B S D F F F G M G G M G G G G G G G G G G G ",
"G L L G G G G G G G G G M G L G F L K D S A B N N M n v - 2 z , , z x 3 v n M N N B A S b F L F G L L G G G G G G G G G M G L G ",
"G M L M G G G G G G G G G G M G F M K b S S B B N N M m n v - v v - c ; m M N N B B S S D F M F G M L M G G G G G G G G G G M G ",
"G G M G G G G G G G G M G G G G F F M F D S S B B N N < M M m m M M : M N N N B B S S b F F F F G G M G G G G G G G G M G G G G ",
"G G G G G L G G G G M G M G G G F F F F D J S S B B 2 N 1 N N N N N N N N C B B S S b D M F F F G G G G G L G G G G M G M G G G ",
"G G G G L M L G G G G M M G G G F F F F K b J S S A B 2 2 B B B B B B B Z 3 Z S S D D M M F F F G G G G L M L G G G G M M G G G ",
"G L G G L M M M G G G G L G G G F L F F K M b b S S S S Z A A A B Z A S H b b b D D F F L F F F G L G G L M M M G G G G L G G G ",
"G M G G M M G G M G G G G G G G G M F F M M F F b D D D S S S S S b S S b b D D M F F F F F F G G M G G M M G G M G G G G G G G ",
"M G G G G G M M G G G L G G G G M F F F F F M M F F F K D D D D b D D D D F M M F F F L F F F G M G G G G G M M G G G L G G G G ",
"G G G G G G G M G G M M G G L G G G F F F F F M F F M M F F K F F F F F F F F M F F M M F F L G G G G G G G G M G G M M G G L G ",
"G G G L M G G G G M G M G G M G G G G L M F F F F M F M F F M F F F F L M F F F F M F M G G M G G G G L M G G G G M G M G G M G ",
"G G G M G G G G G G M G G G G G G G G M G G G G G G M G G G G G G G G M G G G G G G M G G G G G G G G M G G G G G G M G G G G G ",
"G G G G G G G M G G G G G G G G G G G G G G G M G G G G G G G G G G G G G G G M G G G G G G G G G G G G G G G M G G G G G G G G ",
"M G G G G G L G G G G G M M G G M G G G G G L G G G G G M M G G M G G G G G L G G G G G M M G G M G G G G G L G G G G G M M G G ",
"M G G G G G M G G G G L G G G G M G G G G G M G G G G L G G G G M G G G G G M G G G G L G G G G M G G G G G M G G G G L G G G G ",
"L G G G L G G G G G G M G G G G L G G G L G G G G G G M G G G G L G G G L G G G G G G M G G G G L G G G L G G G G G G M G G G G ",
"G M G G M G G G G G G G G G G G G M G G M G G G G G G G G G G G G M G G M G G G G G G G G G G G G M G G M G G G G G G G G G G G "
};
