/* XPM */
static char *free_space[] = {
/* columns rows colors chars-per-pixel */
"64 64 3 1 ",
"  c #738C4F",
". c #94B05C",
"X c #AACF53",
/* pixels */
".XX......... .X..XX......... .X..XX......... .X..XX......... .X.",
". X .......... .. X .......... .. X .......... .. X .......... .",
".. ........ ...... ........ ...... ........ ...... ........ ....",
".....X.... . ........X.... . ........X.... . ........X.... . ...",
"....X X....  .......X X....  .......X X....  .......X X....  ...",
".X..X   ....X....X..X   ....X....X..X   ....X....X..X   ....X...",
". ..  .. ........ ..  .. ........ ..  .. ........ ..  .. .......",
" .....  ...X.... .....  ...X.... .....  ...X.... .....  ...X....",
"....... ..  ..X........ ..  ..X........ ..  ..X........ ..  ..X.",
"...X .... . .. ....X .... . .. ....X .... . .. ....X .... . .. .",
"... ...... ........ ...... ........ ...... ........ ...... .....",
"....... ............... ............... ............... ........",
" .....X.....  .. .....X.....  .. .....X.....  .. .....X.....  ..",
" ..... ....X.... ..... ....X.... ..... ....X.... ..... ....X....",
"X...X...... ....X...X...... ....X...X...... ....X...X...... ....",
". .. ............ .. ............ .. ............ .. ...........",
".XX......... .X..XX......... .X..XX......... .X..XX......... .X.",
". X .......... .. X .......... .. X .......... .. X .......... .",
".. ........ ...... ........ ...... ........ ...... ........ ....",
".....X.... . ........X.... . ........X.... . ........X.... . ...",
"....X X....  .......X X....  .......X X....  .......X X....  ...",
".X..X   ....X....X..X   ....X....X..X   ....X....X..X   ....X...",
". ..  .. ........ ..  .. ........ ..  .. ........ ..  .. .......",
" .....  ...X.... .....  ...X.... .....  ...X.... .....  ...X....",
"....... ..  ..X........ ..  ..X........ ..  ..X........ ..  ..X.",
"...X .... . .. ....X .... . .. ....X .... . .. ....X .... . .. .",
"... ...... ........ ...... ........ ...... ........ ...... .....",
"....... ............... ............... ............... ........",
" .....X.....  .. .....X.....  .. .....X.....  .. .....X.....  ..",
" ..... ....X.... ..... ....X.... ..... ....X.... ..... ....X....",
"X...X...... ....X...X...... ....X...X...... ....X...X...... ....",
". .. ............ .. ............ .. ............ .. ...........",
".XX......... .X..XX......... .X..XX......... .X..XX......... .X.",
". X .......... .. X .......... .. X .......... .. X .......... .",
".. ........ ...... ........ ...... ........ ...... ........ ....",
".....X.... . ........X.... . ........X.... . ........X.... . ...",
"....X X....  .......X X....  .......X X....  .......X X....  ...",
".X..X   ....X....X..X   ....X....X..X   ....X....X..X   ....X...",
". ..  .. ........ ..  .. ........ ..  .. ........ ..  .. .......",
" .....  ...X.... .....  ...X.... .....  ...X.... .....  ...X....",
"....... ..  ..X........ ..  ..X........ ..  ..X........ ..  ..X.",
"...X .... . .. ....X .... . .. ....X .... . .. ....X .... . .. .",
"... ...... ........ ...... ........ ...... ........ ...... .....",
"....... ............... ............... ............... ........",
" .....X.....  .. .....X.....  .. .....X.....  .. .....X.....  ..",
" ..... ....X.... ..... ....X.... ..... ....X.... ..... ....X....",
"X...X...... ....X...X...... ....X...X...... ....X...X...... ....",
". .. ............ .. ............ .. ............ .. ...........",
".XX......... .X..XX......... .X..XX......... .X..XX......... .X.",
". X .......... .. X .......... .. X .......... .. X .......... .",
".. ........ ...... ........ ...... ........ ...... ........ ....",
".....X.... . ........X.... . ........X.... . ........X.... . ...",
"....X X....  .......X X....  .......X X....  .......X X....  ...",
".X..X   ....X....X..X   ....X....X..X   ....X....X..X   ....X...",
". ..  .. ........ ..  .. ........ ..  .. ........ ..  .. .......",
" .....  ...X.... .....  ...X.... .....  ...X.... .....  ...X....",
"....... ..  ..X........ ..  ..X........ ..  ..X........ ..  ..X.",
"...X .... . .. ....X .... . .. ....X .... . .. ....X .... . .. .",
"... ...... ........ ...... ........ ...... ........ ...... .....",
"....... ............... ............... ............... ........",
" .....X.....  .. .....X.....  .. .....X.....  .. .....X.....  ..",
" ..... ....X.... ..... ....X.... ..... ....X.... ..... ....X....",
"X...X...... ....X...X...... ....X...X...... ....X...X...... ....",
". .. ............ .. ............ .. ............ .. ..........."
};
