/* XPM */
static char *wall[] = {
/* columns rows colors chars-per-pixel */
"64 64 4 1 ",
"  c #78451C",
". c #8B5A28",
"X c #AF8240",
"o c #CCA353",
/* pixels */
"ooXXooXXooX ooXXooXXooXXooX ooXXooXXooXXooX ooXXooXXooXXooX ooXX",
"XXX.XXXXXXX XXXXXXX.XXXXXXX XXXXXXX.XXXXXXX XXXXXXX.XXXXXXX XXXX",
"XXXXXXXXXXX XXXXXXXXXXXXXXX XXXXXXXXXXXXXXX XXXXXXXXXXXXXXX XXXX",
"                                                                ",
"XXooX ooXXooXXooXXooX ooXXooXXooXXooX ooXXooXXooXXooX ooXXooXXoo",
"XXXXX XXXXXX.XXXXXXXX XXXXXX.XXXXXXXX XXXXXX.XXXXXXXX XXXXXX.XXX",
"XXXXX XXXXXXXXXXXXXXX XXXXXXXXXXXXXXX XXXXXXXXXXXXXXX XXXXXXXXXX",
"                                                                ",
"oXXooXXooXX ooXooXXooXXooXX ooXooXXooXXooXX ooXooXXooXXooXX ooXo",
"XX.XXXXXXXX XXXXXX.XXXXXXXX XXXXXX.XXXXXXXX XXXXXX.XXXXXXXX XXXX",
"XXXXXXXXXXX XXXXXXXXXXXXXXX XXXXXXXXXXXXXXX XXXXXXXXXXXXXXX XXXX",
"                                                                ",
"XXooX ooXXooXXooXXooX ooXXooXXooXXooX ooXXooXXooXXooX ooXXooXXoo",
"XXXXX XX.XXXXXXXXXXXX XX.XXXXXXXXXXXX XX.XXXXXXXXXXXX XX.XXXXXXX",
"XXXXX XXXXXXXXXXXXXXX XXXXXXXXXXXXXXX XXXXXXXXXXXXXXX XXXXXXXXXX",
"                                                                ",
"ooXXooXXooX ooXXooXXooXXooX ooXXooXXooXXooX ooXXooXXooXXooX ooXX",
"XXX.XXXXXXX XXXXXXX.XXXXXXX XXXXXXX.XXXXXXX XXXXXXX.XXXXXXX XXXX",
"XXXXXXXXXXX XXXXXXXXXXXXXXX XXXXXXXXXXXXXXX XXXXXXXXXXXXXXX XXXX",
"                                                                ",
"XXooX ooXXooXXooXXooX ooXXooXXooXXooX ooXXooXXooXXooX ooXXooXXoo",
"XXXXX XXXXXX.XXXXXXXX XXXXXX.XXXXXXXX XXXXXX.XXXXXXXX XXXXXX.XXX",
"XXXXX XXXXXXXXXXXXXXX XXXXXXXXXXXXXXX XXXXXXXXXXXXXXX XXXXXXXXXX",
"                                                                ",
"oXXooXXooXX ooXooXXooXXooXX ooXooXXooXXooXX ooXooXXooXXooXX ooXo",
"XX.XXXXXXXX XXXXXX.XXXXXXXX XXXXXX.XXXXXXXX XXXXXX.XXXXXXXX XXXX",
"XXXXXXXXXXX XXXXXXXXXXXXXXX XXXXXXXXXXXXXXX XXXXXXXXXXXXXXX XXXX",
"                                                                ",
"XXooX ooXXooXXooXXooX ooXXooXXooXXooX ooXXooXXooXXooX ooXXooXXoo",
"XXXXX XX.XXXXXXXXXXXX XX.XXXXXXXXXXXX XX.XXXXXXXXXXXX XX.XXXXXXX",
"XXXXX XXXXXXXXXXXXXXX XXXXXXXXXXXXXXX XXXXXXXXXXXXXXX XXXXXXXXXX",
"                                                                ",
"ooXXooXXooX ooXXooXXooXXooX ooXXooXXooXXooX ooXXooXXooXXooX ooXX",
"XXX.XXXXXXX XXXXXXX.XXXXXXX XXXXXXX.XXXXXXX XXXXXXX.XXXXXXX XXXX",
"XXXXXXXXXXX XXXXXXXXXXXXXXX XXXXXXXXXXXXXXX XXXXXXXXXXXXXXX XXXX",
"                                                                ",
"XXooX ooXXooXXooXXooX ooXXooXXooXXooX ooXXooXXooXXooX ooXXooXXoo",
"XXXXX XXXXXX.XXXXXXXX XXXXXX.XXXXXXXX XXXXXX.XXXXXXXX XXXXXX.XXX",
"XXXXX XXXXXXXXXXXXXXX XXXXXXXXXXXXXXX XXXXXXXXXXXXXXX XXXXXXXXXX",
"                                                                ",
"oXXooXXooXX ooXooXXooXXooXX ooXooXXooXXooXX ooXooXXooXXooXX ooXo",
"XX.XXXXXXXX XXXXXX.XXXXXXXX XXXXXX.XXXXXXXX XXXXXX.XXXXXXXX XXXX",
"XXXXXXXXXXX XXXXXXXXXXXXXXX XXXXXXXXXXXXXXX XXXXXXXXXXXXXXX XXXX",
"                                                                ",
"XXooX ooXXooXXooXXooX ooXXooXXooXXooX ooXXooXXooXXooX ooXXooXXoo",
"XXXXX XX.XXXXXXXXXXXX XX.XXXXXXXXXXXX XX.XXXXXXXXXXXX XX.XXXXXXX",
"XXXXX XXXXXXXXXXXXXXX XXXXXXXXXXXXXXX XXXXXXXXXXXXXXX XXXXXXXXXX",
"                                                                ",
"ooXXooXXooX ooXXooXXooXXooX ooXXooXXooXXooX ooXXooXXooXXooX ooXX",
"XXX.XXXXXXX XXXXXXX.XXXXXXX XXXXXXX.XXXXXXX XXXXXXX.XXXXXXX XXXX",
"XXXXXXXXXXX XXXXXXXXXXXXXXX XXXXXXXXXXXXXXX XXXXXXXXXXXXXXX XXXX",
"                                                                ",
"XXooX ooXXooXXooXXooX ooXXooXXooXXooX ooXXooXXooXXooX ooXXooXXoo",
"XXXXX XXXXXX.XXXXXXXX XXXXXX.XXXXXXXX XXXXXX.XXXXXXXX XXXXXX.XXX",
"XXXXX XXXXXXXXXXXXXXX XXXXXXXXXXXXXXX XXXXXXXXXXXXXXX XXXXXXXXXX",
"                                                                ",
"oXXooXXooXX ooXooXXooXXooXX ooXooXXooXXooXX ooXooXXooXXooXX ooXo",
"XX.XXXXXXXX XXXXXX.XXXXXXXX XXXXXX.XXXXXXXX XXXXXX.XXXXXXXX XXXX",
"XXXXXXXXXXX XXXXXXXXXXXXXXX XXXXXXXXXXXXXXX XXXXXXXXXXXXXXX XXXX",
"                                                                ",
"XXooX ooXXooXXooXXooX ooXXooXXooXXooX ooXXooXXooXXooX ooXXooXXoo",
"XXXXX XX.XXXXXXXXXXXX XX.XXXXXXXXXXXX XX.XXXXXXXXXXXX XX.XXXXXXX",
"XXXXX XXXXXXXXXXXXXXX XXXXXXXXXXXXXXX XXXXXXXXXXXXXXX XXXXXXXXXX",
"                                                                "
};
