/* XPM */
static char *enemy_run_l_7[] = {
/* columns rows colors chars-per-pixel */
"64 64 43 1 ",
"  c black",
". c #222121",
"X c gray21",
"o c #5E2A22",
"O c #576A3C",
"+ c #5A6E3E",
"@ c #565656",
"# c #5D7140",
"$ c #617542",
"% c #677D47",
"& c #687E47",
"* c #697F48",
"= c #7F9B3E",
"- c #6F8445",
"; c #6C844A",
": c #6F884D",
"> c #728747",
", c #738947",
"< c #738C4F",
"1 c #788F4B",
"2 c #7F974F",
"3 c #829E3F",
"4 c #839F40",
"5 c #80984F",
"6 c #819950",
"7 c #85A241",
"8 c #89A643",
"9 c #8DAB45",
"0 c #92B247",
"q c #97B74A",
"w c #97B84A",
"e c #9DBF4C",
"r c #87A154",
"t c #8CA757",
"y c #8EA858",
"u c #8EA958",
"i c #93AF5C",
"p c #94B05C",
"a c #9FC24E",
"s c #A1C44E",
"d c #A3C750",
"f c #A5C951",
"g c #AACF53",
/* pixels */
"pggppppppppp<pgppggppppppppp<pgppggppppppppp<pgppggppppppppp<pgp",
"p<g<pppppppppp<pp<g<pppppppppp<pp<g<pppppppppp<pp<g<pppppppppp<p",
"pp<pppppppp<pppppp<pppppppp<pppppp<pppppppp<pppppp<pppppppp<pppp",
"pppppgpppp<p<ppppppppgpppp<p<ppppppppgpppp<p<ppppppppgpppp<p<ppp",
"ppppg<gpppp<<pppppppg<gpppp<<pppppppg<gpppp<<pppppppg<gpppp<<ppp",
"pgppg<<<ppppgppppgppg<<<ppppgppppgppg<<<ppppgppppgppg<<<ppppgppp",
"p<pp<<pp<pppppppp<pp<<pp<pppppppp<pp<<pp<pppppppp<pp<<pp<ppppppp",
"<ppppp<<pppgpppp<ppppp<<pppgpppp<ppppp<<pppgpppp<ppppp<<pppgpppp",
"ppppppp<pp<<ppgpppppppp<pp<<ppgpppppppp<pp<<ppgpppppppp<pp<<ppgp",
"pppg<pppp<p<pp<ppppg<pppp<p<pp<ppppg<pppp<p<pp<ppppg<pppp<p<pp<p",
"ppp<pppppp<pppppppp<pppppp<pppppppp<pppppp<pppppppp<pppppp<ppppp",
"ppppppp<ppppppppppppppp<ppppppppppppppp<ppppppppppppppp<pppppppp",
"<pppppgppppp<<pp<pppppgppppp<<pp<pppppgppppp<<pp<pppppgppppp<<pp",
"<ppppp<ppppgpppp<ppppp<ppppgpppp<ppppp<ppppgpppp<ppppp<ppppgpppp",
"gpppgpppppp<ppppgpppgpppppp<ppppgpppgpppppp<ppppgpppgpppppp<pppp",
"p<pp<ppppppppppii<ip<pppppppppppp<pp<pppppppppppp<pp<ppppppppppp",
"pggppppppppp<igiiggiippppppp<pgppggppppppppp<pgppggppppppppp<pgp",
"p<g<ppppppppii<i  f<iipppppppp<pp<g<pppppppppp<pp<g<pppppppppp<p",
"pp<pppppppi<iiiu @ uiiipppp<pppppp<pppppppp<pppppp<pppppppp<pppp",
"pppppgpppp<i<iut @. tfiiii<p<ppppppppgpppp<p<ppppppppgpppp<p<ppp",
"ppppg<gpppi<<ut @@.  ;diiii<<ipppiipg<gpppp<<pppppppg<gpppp<<ppp",
"pgppg<<<piiid  @@@X..    uuifiiipgiig<<<iiiigppppgppg<<<ppppgppp",
"p<pp<<pp<iiu @@@@@@XX....   uiiii<ii<<ii<iiiiiipp<pp<<pp<ppppppp",
"<ppppp<<iiua .XX@@@@@XXXX...  uu;uu        diiii<ipppp<<pppgpppp",
"ppppppp<ii;* o.@@@@@@@@@@XXX..     ........  ufiiiipppp<pp<<ppgp",
"pppg<piii;t .X@@@@@@@@@@@@@@XX.....XXXXXXXX..   uiig<pipp<p<pp<p",
"ppp<piiiut @@@@@XXX@@@@@@@@@@@XXXXX@@@@@@@@X. XX ui<ipippp<ppppp",
"pppppii:  @@@@@X...XX@@@@@@@@@@@@@@@@@@@@@@@X. .X uiiip<pppppppp",
"<pppiifu   @@     ...X@@@@@@@@@@@@@@@@@@@@@@X.  X tuiigppppp<<pp",
"<pipii<t6    >>>O- ...X@@@@@@@@@@@@@@@@@@@@@X.  .@ tii<ppppgpppp",
"gpppgiut622#<<118<> ..X@@@@@X@@@@@@XX@@@@@@@X.  .@ tsiipppp<pppp",
"p<pp<iitt65222662$1, .X@@@@@X@@@XXX.XX@@@@@@X.  .X@ ;iiipppppppp",
"pggppiiutt66*retrw02 . @@@@@XXXX......X@@@@@X.  .X@ tuiipppp<pgp",
"p<g<piiiuutttu;uu;e%1  @@@@@X......    @@@@@X. & .@ 6tiipppppp<p",
"pp<pppiiiii<iiiiiu;62< @@@@@X...   ---  @@@@X. & .X@ tuiipp<pppp",
"pppppgpiii<i<iiiiiut69< @@@@    >,<<<4 . @@@@X.  .X@ euiip<p<ppp",
"ppppg<gpppp<<pppiiite$8  @@@ -><<2229# .. @@@@X.  XX@ aiiip<<ppp",
"pgppg<<<ppppgppppgiue% .. @@ ,122q66q$ ...  @@@@XX X@ ;;iippgppp",
"p<pp<<pp<pppppppp<iu; ... @@ 126r;tt*% ....    @@@ .X@ t;iippppp",
"<ppppp<<pppgpppp<iit ..    @@ 6t;uuut6 ... =->- @@  .XX tiigpppp",
"ppppppp<pp<<ppgiiit .. +>- @@ etuiiut6 .. ++<<7> @ -     u<<ppgp",
"pppg<pppp<p<pp<iiu .. 21<+, @ &tiiif;6 . +1$22$< @ 3+226t;i<pp<p",
"ppp<pppppp<pppiiut . 22222# @ 6tiii;t .. 2%66662 @ +2266tu<ipppp",
"ppppppp<ppppppiiut . 26%662 @ 6tuiut .. 256ttt65 @ 2266;tuiipppp",
"<pppppgppppi<<ii;6 . 5ett62 @ 6t;u  .. 226tu<;t6 @ 26tsuuiii<<pp",
"<ppppp<ppppgppii;6  26;ttr @@ 6t; ... $26tufiit6 @ 6tu<iiiigpppp",
"gpppgpppppp<ppiist66qttuut   56ta    226tui<iit6  66siiiiii<pppp",
"p<pp<pppppppppiiu;t6;tuiut65566tt&62$56ttiiiiitt6%6t;iipppippppp",
"pggppppppppp<pgiidsttuiiutr6%ratteq666ttiiip<idtteetuiippppp<pgp",
"p<g<pppppppppp<ii<f:iiiiiutttt;uu;e*ttuiiippii<ut;s;iiippppppp<p",
"pp<pppppppp<pppiii<iiiiiiiu;uuiiiu;uuuiiipp<iiiiiu<iiiipppp<pppp",
"pppppgpppp<p<ppppiiiigpiii<i<iiiiiiiigiipp<p<iiiiiiiigpppp<p<ppp",
"ppppg<gpppp<<pppppppg<gpiii<<iiiiiiig<gippp<<ppiiiipg<gpppp<<ppp",
"pgppg<<<ppppgppppgppg<<<ppppgppppgppg<<<ppppgppppgppg<<<ppppgppp",
"p<pp<<pp<pppppppp<pp<<pp<pppppppp<pp<<pp<pppppppp<pp<<pp<ppppppp",
"<ppppp<<pppgpppp<ppppp<<pppgpppp<ppppp<<pppgpppp<ppppp<<pppgpppp",
"ppppppp<pp<<ppgpppppppp<pp<<ppgpppppppp<pp<<ppgpppppppp<pp<<ppgp",
"pppg<pppp<p<pp<ppppg<pppp<p<pp<ppppg<pppp<p<pp<ppppg<pppp<p<pp<p",
"ppp<pppppp<pppppppp<pppppp<pppppppp<pppppp<pppppppp<pppppp<ppppp",
"ppppppp<ppppppppppppppp<ppppppppppppppp<ppppppppppppppp<pppppppp",
"<pppppgppppp<<pp<pppppgppppp<<pp<pppppgppppp<<pp<pppppgppppp<<pp",
"<ppppp<ppppgpppp<ppppp<ppppgpppp<ppppp<ppppgpppp<ppppp<ppppgpppp",
"gpppgpppppp<ppppgpppgpppppp<ppppgpppgpppppp<ppppgpppgpppppp<pppp",
"p<pp<pppppppppppp<pp<pppppppppppp<pp<pppppppppppp<pp<ppppppppppp"
};
