/* XPM */
static char *enemy_run_l_1[] = {
/* columns rows colors chars-per-pixel */
"64 64 40 1 ",
"  c black",
". c #222121",
"X c gray21",
"o c #5E2A22",
"O c #55673A",
"+ c #576A3C",
"@ c #586C3D",
"# c #565656",
"$ c #5D7140",
"% c #617542",
"& c #667C46",
"* c #6B7F42",
"= c #697F48",
"- c #6F8445",
"; c #6C844A",
": c #6F884D",
"> c #728747",
", c #738947",
"< c #738C4F",
"1 c #788F4B",
"2 c #7F974F",
"3 c #80984F",
"4 c #819950",
"5 c #85A241",
"6 c #89A643",
"7 c #8BA944",
"8 c #91B047",
"9 c #94B448",
"0 c #9DBF4C",
"q c #87A154",
"w c #8CA757",
"e c #8DA858",
"r c #8EA958",
"t c #93AF5C",
"y c #94B05C",
"u c #9FC24E",
"i c #A0C34E",
"p c #A3C750",
"a c #A5C951",
"s c #AACF53",
/* pixels */
"yssyyyyyyyyy<ysyyssyyyyyyyyy<ysyyssyyyyyyyyy<ysyyssyyyyyyyyy<ysy",
"y<s<yyyyyyyyyy<yy<s<yyyyyyyyyy<yy<s<yyyyyyyyyy<yy<s<yyyyyyyyyy<y",
"yy<yyyyyyyy<yyyyyy<yyyyyyyy<yyyyyy<yyyyyyyy<yyyyyy<yyyyyyyy<yyyy",
"yyyyysyyyy<y<yyyyyyyysyyyy<y<yyyyyyyysyyyy<y<yyyyyyyysyyyy<y<yyy",
"yyyys<syyyy<<yyyyyyys<syyyy<<yyyyyyys<syyyy<<yyyyyyys<syyyy<<yyy",
"ysyys<<<yyyysyyyysyys<<<yyyysyyyysyys<<<yyyysyyyysyys<<<yyyysyyy",
"y<yy<<yy<yyyyyyyy<yy<<yy<yyyyyyyy<yy<<yy<yyyyyyyy<yy<<yy<yyyyyyy",
"<yyyyy<<yyysyyyy<yyyyy<<yyysyyyy<yyyyy<<yyysyyyy<yyyyy<<yyysyyyy",
"yyyyyyy<yy<<yysyyyyyyyy<yy<<yysyyyyyyyy<yy<<yysyyyyyyyy<yy<<yysy",
"yyys<yyyy<y<yy<yyyys<yyyy<y<yy<yyyys<yyyy<y<yy<yyyys<yyyy<y<yy<y",
"yyy<yyyyyy<yyyyyyyy<yyyyyy<yyyyyyyy<yyyyyy<yyyyyyyy<yyyyyy<yyyyy",
"yyyyyyy<yyyyyyyyyyyyyyy<yyyyyyyyyyyyyyy<yyyyyyyyyyyyyyy<yyyyyyyy",
"<yyyyysyyyyy<<yy<yyyyysyyyyy<<yy<yyyyysyyyyy<<yy<yyyyysyyyyy<<yy",
"<yyyyy<yyyysyyyy<yyyyy<yyyysyyyy<yyyyy<yyyysyyyy<yyyyy<yyyysyyyy",
"syyysyyyyyy<yyyysyyysyyyyyy<yyyysyyysyyyyyy<yyyysyyysyyyyyy<yyyy",
"y<yy<yyyyyyyyyytt<ty<yyyyyyyyyyyy<yy<yyyyyyyyyyyy<yy<yyyyyyyyyyy",
"yssyyyyyyyyy<tsttssttyyyyyyy<ysyyssyyyyyyyyy<ysyyssyyyyyyyyy<ysy",
"y<s<yyyyyyyytt<t  a<ttyyyyyyyy<yy<s<yyyyyyyyyy<yy<s<yyyyyyyyyy<y",
"yy<yyyyyyyt<tttr # rtttyyyy<yyyyyy<yyyyyyyy<yyyyyy<yyyyyyyy<yyyy",
"yyyyysyyyy<t<trw #. watttt<y<yyyyyyyysyyyy<y<yyyyyyyysyyyy<y<yyy",
"yyyys<syyyt<<rw ##.  ;ptttt<<tyyyttys<syyyy<<yyyyyyys<syyyy<<yyy",
"ysyys<<<ytttp  ###X..    rrtatttystts<<<ttttsyyyysyys<<<yyyysyyy",
"y<yy<<yy<ttr ######XX....   rtttt<tt<<tt<ttttttyy<yy<<yy<yyyyyyy",
"<yyyyy<<ttru .XX#####XXXX...  rr;rr        ptttt<tyyyy<<yyysyyyy",
"yyyyyyy<tt;= o.##########XXX..     ........  rattttyyyy<yy<<yysy",
"yyys<yttt;w .X##############XX.....XXXXXXXX..   rtts<ytyy<y<yy<y",
"yyy<ytttrw #####XXX###########XXXXX########X. XX rt<tytyyy<yyyyy",
"yyyyytt:  #####X...XX#######################X. .X rttty<yyyyyyyy",
"<yyyttar   ##     ...X######################X.  X wrttsyyyyy<<yy",
"<ytytt<w4    >>>+- ...X###############X#####X.  .# wtt<yyyysyyyy",
"syyystrw422$<<116<> ..X############XXXX#####X.  .# wittyyyy<yyyy",
"y<yy<ttww43222442%1, .X######X##XXX...X#####X.  .X# ;tttyyyyyyyy",
"yssyyttrww44=q0wq982 .X######XXX......X#####X.  .X# wrttyyyy<ysy",
"y<s<ytttrrwwwr;rr;0%1 . #####X.....    #####X. - .# 4wttyyyyyy<y",
"yy<yyyttttt<tttttr;42< . ####X..   --- ####X. -- .X# wrttyy<yyyy",
"yyyyysyttt<t<tttttrw47< . ###.  -><<<5> ###X  >> .X# 0rtty<y<yyy",
"yyyys<syyyy<<yyytttr0&7 .. ### ><2228$7< ##X  << .XX# uttty<<yyy",
"ysyys<<<yyyysyyyystti&% ..  ## <29440&&$< ##X <1< .X# ;;ttyysyyy",
"y<yy<<yy<yyyyyyyy<tt;;3 ..  ## 24-ww;;44$< ### 21 ..X# w;ttyyyyy",
"<yyyyy<<yyysyyyy<yytrw& . * ## 2=wrttr;=31 ### 2%1  .XX wttsyyyy",
"yyyyyyy<yy<<yysyyyyttw4 . O ## 4wrttttr;42 ##  2221<     r<<yysy",
"yyys<yyyy<y<yy<yyyts<w4 . - ## 4wrts<ttw4 ##  %44427$224w;t<yy<y",
"yyy<yyyyyy<yyyyyyyt<rw4 . @> # 4wrt<ttrw ## . 24qq4&3344wr<tyyyy",
"yyyyyyy<yyyyyyyyyyttrw4 . << ##  wttttr ##  . 3qwwwwq4q;wrttyyyy",
"<yyyyysyyyyy<<yy<tttw  .. 22$ ### rttru ## . $4w;ttrrwirrttt<<yy",
"<yyyyy<yyyysyyyy<ttr ... 22822    wttr;4   . 24w<ttttt<ttttsyyyy",
"syyysyyyyyy<yyyysttw    224&422294wrarw4    24wratttstttttt<yyyy",
"y<yy<yyyyyyyyyyyt<tw=42234qwq4444;wr<rw4211224wtt<yy<yyyyytyyyyy",
"yssyyyyyyyyy<ysytsaww4444wwr;w0wwuptttww4324&wpttssyyyyyyyyy<ysy",
"y<s<yyyyyyyyyy<yt<a;wwwwwrtttr;rr;a<ttrwwq4wwr<tt<s<yyyyyyyyyy<y",
"yy<yyyyyyyy<yyyyyt<trrrrrtt<tttttt<tttttrrw;rtttyy<yyyyyyyy<yyyy",
"yyyyysyyyy<y<yyyyttttatttt<t<ttttttttstttt<t<ttyyyyyysyyyy<y<yyy",
"yyyys<syyyy<<yyyyytts<sttty<<yyyyyyys<stttt<<tyyyyyys<syyyy<<yyy",
"ysyys<<<yyyysyyyysyys<<<yyyysyyyysyys<<<yyyysyyyysyys<<<yyyysyyy",
"y<yy<<yy<yyyyyyyy<yy<<yy<yyyyyyyy<yy<<ty<yyyyyyyy<yy<<yy<yyyyyyy",
"<yyyyy<<yyysyyyy<yyyyy<<yyysyyyy<yyyyy<<yyysyyyy<yyyyy<<yyysyyyy",
"yyyyyyy<yy<<yysyyyyyyyy<yy<<yysyyyyyyyy<yy<<yysyyyyyyyy<yy<<yysy",
"yyys<yyyy<y<yy<yyyys<yyyy<y<yy<yyyys<yyyy<y<yy<yyyys<yyyy<y<yy<y",
"yyy<yyyyyy<yyyyyyyy<yyyyyy<yyyyyyyy<yyyyyy<yyyyyyyy<yyyyyy<yyyyy",
"yyyyyyy<yyyyyyyyyyyyyyy<yyyyyyyyyyyyyyy<yyyyyyyyyyyyyyy<yyyyyyyy",
"<yyyyysyyyyy<<yy<yyyyysyyyyy<<yy<yyyyysyyyyy<<yy<yyyyysyyyyy<<yy",
"<yyyyy<yyyysyyyy<yyyyy<yyyysyyyy<yyyyy<yyyysyyyy<yyyyy<yyyysyyyy",
"syyysyyyyyy<yyyysyyysyyyyyy<yyyysyyysyyyyyy<yyyysyyysyyyyyy<yyyy",
"y<yy<yyyyyyyyyyyy<yy<yyyyyyyyyyyy<yy<yyyyyyyyyyyy<yy<yyyyyyyyyyy"
};
