/* XPM */
static char *enemy_run_r_6[] = {
/* columns rows colors chars-per-pixel */
"64 64 40 1 ",
"  c black",
". c #222121",
"X c gray21",
"o c #5E2A22",
"O c #57693B",
"+ c #5B6E3E",
"@ c #565656",
"# c #5D7140",
"$ c #627743",
"% c #657C46",
"& c #677E47",
"* c #6B7F42",
"= c #6E8244",
"- c #6B8249",
"; c #6F884D",
": c #718646",
"> c #728847",
", c #738C4F",
"< c #788F4B",
"1 c #7C944D",
"2 c #80984F",
"3 c #859F53",
"4 c #87A442",
"5 c #89A743",
"6 c #8BAA44",
"7 c #90AF46",
"8 c #96B749",
"9 c #97B84A",
"0 c #9BBD4C",
"q c #87A054",
"w c #8BA657",
"e c #8DA858",
"r c #8EA858",
"t c #8EA958",
"y c #92AE5B",
"u c #94B05C",
"i c #A2C54F",
"p c #A3C750",
"a c #A5C951",
"s c #AACF53",
/* pixels */
"ussuuuuuuuuu,usuussuuuuuuuuu,usuussuuuuuuuuu,usuussuuuuuuuuu,usu",
"u,s,uuuuuuuuuu,uu,s,uuuuuuuuuu,uu,s,uuuuuuuuuu,uu,s,uuuuuuuuuu,u",
"uu,uuuuuuuu,uuuuuu,uuuuuuuu,uuuuuu,uuuuuuuu,uuuuuu,uuuuuuuu,uuuu",
"uuuuusuuuu,u,uuuuuuuusuuuu,u,uuuuuuuusuuuu,u,uuuuuuuusuuuu,u,uuu",
"uuuus,suuuu,,uuuuuuus,suuuu,,uuuuuuus,suuuu,,uuuuuuus,suuuu,,uuu",
"usuus,,,uuuusuuuusuus,,,uuuusuuuusuus,,,uuuusuuuusuus,,,uuuusuuu",
"u,uu,,uu,uuuuuuuu,uu,,uu,uuuuuuuu,uu,,uu,uuuuuuuu,uu,,uu,uuuuuuu",
",uuuuu,,uuusuuuu,uuuuu,,uuusuuuu,uuuuu,,uuusuuuu,uuuuu,,uuusuuuu",
"uuuuuuu,uu,,uusuuuuuuuu,uu,,uusuuuuuuuu,uu,,uusuuuuuuuu,uu,,uusu",
"uuus,uuuu,u,uu,uuuus,uuuu,u,uu,uuuus,uuuu,u,uu,uuuus,uuuu,u,uu,u",
"uuu,uuuuuu,uuuuuuuu,uuuuuu,uuuuuuuu,uuuuuu,uuuuuuuu,uuuuuu,uuuuu",
"uuuuuuu,uuuuuuuuuuuuuuu,uuuuuuuuuuuuuuu,uuuuuuuuuuuuuuu,uuuuuuuu",
",uuuuusuuuuu,,uu,uuuuusuuuuu,,uu,uuuuusuuuuu,,uu,uuuuusuuuuu,,uu",
",uuuuu,uuuusuuuu,uuuuu,uuuusuuuu,uuuuu,uuuusuuuu,uuuuu,uuuusuuuu",
"suuusuuuuuu,uuuusuuusuuuuuu,uuuusuuusuuuuuu,uuuusuuusuuuuuu,uuuu",
"u,uu,uuuuuuuuuuuu,uu,uuuuuuuuuuuu,uu,uuuuuuuuyyyy,uu,uuuuuuuuuuu",
"ussuuuuuuuuu,usuussuuuuuuuuu,usuussuuuuuuuuy,ysyyssuuuuuuuuu,usu",
"u,s,uuuuuuuuuu,uu,s,uuuuuuuuuu,uu,s,uuuuuuyyyy  y,s,uuuuuuuuuu,u",
"uu,uuuuuuuu,uuuuuu,uuuuuuuu,uuuuuu,uuuuuuyy,t @ ty,yuuuuuuu,uuuu",
"uuuuusuuuu,u,uuuuuuuusuuuu,u,uuuuuuuusyyyy;w .@ wtyyysuuuu,u,uuu",
"uuuus,suuuu,,uuuuuuus,suuuu,,uuuuuyys,ayytw  .@@ wtys,suuuu,,uuu",
"usuus,,,uuuusuuuusuys,,,yyyysyyuysyya;-    ..X@@@  ta,,,uuuusuuu",
"u,uu,,uu,uuuuuuuu,yy,,yy,yyyyyyyy,yt   ....XX@@@@@@ -,yy,uuuuuuu",
",uuuuu,,uuusuuyy,yyyt        ttt-t  ...XXXX@@@@@XX. wt,,uuusuuuu",
"uuuuuuu,uu,,uysyytt  ........     ..XXX@@@@@@@@@@.o qwy,uu,,uusu",
"uuus,uuuu,u,yy,t   ..XXXXXXXX.....XX@@@@@@@@@@@@@@X. wtyy,u,uu,u",
"uuu,uuuuuu,yyyt XX .X@@@@@@@@XXXXX@@@@@@@@@@@XXX@@@@@ wtyy,uuuuu",
"uuuuuuu,uuyyyt X. .X@@@@@@@@@@@@@@@@@@@@@@@XX...X@@@@@  tyyuuuuu",
",uuuuusuuuyy-- X  .X@@@@@@@@@@@@@@@@@@@@@@X...     @@   tyyy,,uu",
",uuuuu,uuyyaw @.  .X@@@@@@@@@@@@@@@@@@@@@X... =:O::    3wyysuuuu",
"suuusuuuuyy-w @.  .X@@@@@@@XX@@@@@@@@@@@@X.. :,<5<,,5113wty,uuuu",
"u,uu,uuuyyyw @X.  .X@@@@@@XX.XXX@@@X@@@@@X. ><123%11$23wwyyyuuuu",
"ussuuuuuyytw @X.  .X@@@@@X......XXXX@@@@@ . #19qw00333wwtyyu,usu",
"u,s,uuuuyyw3 @. * .X@@@@@    .......X@@@@  <13-tt-i-wwttyyyuuu,u",
"uu,uuuuyytw @X. = .X@@@@ ==O=   ....X@@@@ ,$3wtyyy,yyyyyyyu,uuuu",
"uuuuusuyyt- @X. = .X@@@  >+,+,:=    X@@@ ,$3-tyyyyyyysyyyu,u,uuu",
"uuuus,syyw3 @X. = .X@@ . <1$$11,>= . @@@ 13--yyyuuuus,suuuu,,uuu",
"usuus,,,tw @@X.  XX@@ .. 133033114 . @@ ,13wayyuusuus,,,uuuusuuu",
"u,uu,,yy-q @X. X@@@  ... 2qwwww33$,  @@  3wtyyuuu,uu,,uu,uuuuuuu",
",uuuuy,,w @X.  @@  == .. 3wpyytw-31, @@ . wiyyuu,uuuuu,,uuusuuuu",
"uuuuuyy-     = @ :>>: .. 3--yysytw31 @  .. -yysuuuuuuuu,uu,,uusu",
"uuus,yytw%1#,: @ ,<6#, .. w-yy,yyw37 @ : . -ty,uuuus,uuuu,u,uu,u",
"uuu,uyytw3%11, @ 11%11< .. wtyyyytw% @ : . wtyyuuuu,uuuuuu,uuuuu",
"uuuuuyy;ww3311 @ 133331# ..  tyyytw3 @ O . 3wyyuuuuuuuu,uuuuuuuu",
",uuuuysyttww%% @ 33wwq811 ... ty,yw3 @@   13-,yu,uuuuusuuuuu,,uu",
",uuuuy,yyyyiw3 @@ wttw%311    wy,tw31 @@ 130tyyu,uuuuu,uuuusuuuu",
"suuusuyyyyy,w32   wtayww321%33wyaytw81   13-tyyusuuusuuuuuu,uuuu",
"u,uu,uyuuuyytw323%wt,yyww3333wwyy,tw%21113wtyyyuu,uu,uuuuuuuuuuu",
"ussuuuuuuuyy;w0330ityyyytwwq-wpyysatw3333wwy,ysuussuuuuuuuuu,usu",
"u,s,uuuuuuyyyt-ww-p,yyyyyttttt,yy,s,twwwwwtyyu,uu,s,uuuuuuuuuu,u",
"uu,uuuuuuuu,yyyttt,yyyuyyyy,yyyyyy,yyttttyy,yuuuuu,uuuuuuuu,uuuu",
"uuuuusuuuu,u,yyyyyyyysuuyy,y,yyyyuyyysyyyy,y,uuuuuuuusuuuu,u,uuu",
"uuuus,suuuu,,yyyyyyys,suuuu,,uuuuuuus,syyyy,,uuuuuuus,suuuu,,uuu",
"usuus,,,uuuusuuuusuus,,,uuuusuuuusuus,,,uuuusuuuusuus,,,uuuusuuu",
"u,uu,,uu,uuuuuuuu,uu,,uu,uuuuuuuu,uu,,uu,uuuuuuuu,uu,,uu,uuuuuuu",
",uuuuu,,uuusuuuu,uuuuu,,uuusuuuu,uuuuu,,uuusuuuu,uuuuu,,uuusuuuu",
"uuuuuuu,uu,,uusuuuuuuuu,uu,,uusuuuuuuuu,uu,,uusuuuuuuuu,uu,,uusu",
"uuus,uuuu,u,uu,uuuus,uuuu,u,uu,uuuus,uuuu,u,uu,uuuus,uuuu,u,uu,u",
"uuu,uuuuuu,uuuuuuuu,uuuuuu,uuuuuuuu,uuuuuu,uuuuuuuu,uuuuuu,uuuuu",
"uuuuuuu,uuuuuuuuuuuuuuu,uuuuuuuuuuuuuuu,uuuuuuuuuuuuuuu,uuuuuuuu",
",uuuuusuuuuu,,uu,uuuuusuuuuu,,uu,uuuuusuuuuu,,uu,uuuuusuuuuu,,uu",
",uuuuu,uuuusuuuu,uuuuu,uuuusuuuu,uuuuu,uuuusuuuu,uuuuu,uuuusuuuu",
"suuusuuuuuu,uuuusuuusuuuuuu,uuuusuuusuuuuuu,uuuusuuusuuuuuu,uuuu",
"u,uu,uuuuuuuuuuuu,uu,uuuuuuuuuuuu,uu,uuuuuuuuuuuu,uu,uuuuuuuuuuu"
};
