/* XPM */
static char *enemy_run_r_7[] = {
/* columns rows colors chars-per-pixel */
"64 64 41 1 ",
"  c black",
". c #222121",
"X c gray21",
"o c #5E2A22",
"O c #536439",
"+ c #57693B",
"@ c #5A6E3E",
"# c #565656",
"$ c #5E7240",
"% c #617542",
"& c #667D46",
"* c #6B7F42",
"= c #697F48",
"- c #6E8345",
"; c #6E874C",
": c #6F884D",
"> c #718746",
", c #748A48",
"< c #70884D",
"1 c #738C4F",
"2 c #788E4A",
"3 c #7D944E",
"4 c #80984F",
"5 c #859F53",
"6 c #88A642",
"7 c #8EAD45",
"8 c #91B047",
"9 c #95B549",
"0 c #97B84A",
"q c #9DBF4C",
"w c #87A154",
"e c #8AA456",
"r c #8EA858",
"t c #8EA958",
"y c #93AF5B",
"u c #94B05C",
"i c #9FC24E",
"p c #A2C54F",
"a c #A3C750",
"s c #A6CA51",
"d c #AACF53",
/* pixels */
"udduuuuuuuuu1uduudduuuuuuuuu1uduudduuuuuuuuu1uduudduuuuuuuuu1udu",
"u1d1uuuuuuuuuu1uu1d1uuuuuuuuuu1uu1d1uuuuuuuuuu1uu1d1uuuuuuuuuu1u",
"uu1uuuuuuuu1uuuuuu1uuuuuuuu1uuuuuu1uuuuuuuu1uuuuuu1uuuuuuuu1uuuu",
"uuuuuduuuu1u1uuuuuuuuduuuu1u1uuuuuuuuduuuu1u1uuuuuuuuduuuu1u1uuu",
"uuuud1duuuu11uuuuuuud1duuuu11uuuuuuud1duuuu11uuuuuuud1duuuu11uuu",
"uduud111uuuuduuuuduud111uuuuduuuuduud111uuuuduuuuduud111uuuuduuu",
"u1uu11uu1uuuuuuuu1uu11uu1uuuuuuuu1uu11uu1uuuuuuuu1uu11uu1uuuuuuu",
"1uuuuu11uuuduuuu1uuuuu11uuuduuuu1uuuuu11uuuduuuu1uuuuu11uuuduuuu",
"uuuuuuu1uu11uuduuuuuuuu1uu11uuduuuuuuuu1uu11uuduuuuuuuu1uu11uudu",
"uuud1uuuu1u1uu1uuuud1uuuu1u1uu1uuuud1uuuu1u1uu1uuuud1uuuu1u1uu1u",
"uuu1uuuuuu1uuuuuuuu1uuuuuu1uuuuuuuu1uuuuuu1uuuuuuuu1uuuuuu1uuuuu",
"uuuuuuu1uuuuuuuuuuuuuuu1uuuuuuuuuuuuuuu1uuuuuuuuuuuuuuu1uuuuuuuu",
"1uuuuuduuuuu11uu1uuuuuduuuuu11uu1uuuuuduuuuu11uu1uuuuuduuuuu11uu",
"1uuuuu1uuuuduuuu1uuuuu1uuuuduuuu1uuuuu1uuuuduuuu1uuuuu1uuuuduuuu",
"duuuduuuuuu1uuuuduuuduuuuuu1uuuuduuuduuuuuu1yuuuduuuduuuuuu1uuuu",
"u1uu1uuuuuuuuuuuu1uu1uuuuuuuuuuuu1uu1uuuuuuuyuyyy1uu1uuuuuuuuuuu",
"udduuuuuuuuu1uduudduuuuuuuuu1uduudduuuuuuuuu1ydyyddyuuuuuuuu1udu",
"u1d1uuuuuuuuuu1uu1d1uuuuuuuuuu1uu1d1uuuuuuuyyy1  1d1yuuuuuuuuu1u",
"uu1uuuuuuuu1uuuuuu1uuuuuuuu1uuuuuu1yuuuuuuy1yt # t1yyuuuuuu1uuuu",
"uuuuuduuuu1u1uuuuuuuydyuuu1u1uuuuuuuudyyyy1t; .# etyyduuuu1u1uuu",
"uuuud1duuuu11uuuuuuud1duuuu11uuuuuuyd1dyyyt;  .## ets1duuuu11uuu",
"uduud111uuuuduuuuduud111yyyydyyyudyys1:;    ..X###  a111uuuuduuu",
"u1uu11uu1uuuyuuuu1yy11yy1yyyyyyyy1yy;   ....XX###### ;yy1uuuuuuu",
"1uuuuu11uuuduuuy1yyyyt        tt;tt  ...XXXX#####XX. e:1yuuduuuu",
"uuuuuuu1uu11uudyyytt  ........     ..XXX##########.o we1yy11uudu",
"uuud1uuuu1u1uy1yt   ..XXXXXXXX.....XX##############X. ety1y1uu1u",
"uuu1uuuuuu1uyyyt XX .X########XXXXX###########XXX##### ety1yuuuu",
"uuuuuuu1uuuyyyt X. .X#######################XX...X#####  tyyuuuu",
"1uuuuuduyuuy1;e X  .X######################X...     ##   tyy11uu",
"1uuuuu1uuuydye #.  .X#####################X... -+>>>    5eydyuuu",
"duuuduuuuuy1te #.  .X#######XX######X#####X.. >1622162335et1yuuu",
"u1uu1uuuuyyye #X.  .X######XX.XXX###X#####X. 1233&53%345eeyyyuuu",
"udduuuuuuyyt; #X.  .X#####X......XXXX##### . 385wqqw555eetyy1udu",
"u1d1uuuuuyye5 #. O .X#####    ......X#####  23&et;a;eeettyyyuu1u",
"uu1uuuuuyyt; #X. * .X####  O--   ...X##### @35etyy1yyyyyyyy1uuuu",
"uuuuuduuyy;w #X.  .X#### . >@111>    #### @3&etyyyyyydyyyy1u1uuu",
"uuuud1dyyye #XX  .X#### .. $$33311>- ###  2&=eyyyuuud1duuuu11uuu",
"uduud111ytw #X XX####  ... 395553721 ## .. 5ityyuduud111uuuuduuu",
"u1uu11yy;e #X. ###    .... 45eeew&32 ## ... etyyu1uu11uu1uuuuuuu",
"1uuuuy11e XX.  ## ->-- ... 9ettt;e5 ##    .. eyy1uuuuu11uuuduuuu",
"uuuuuyy;     - # >1111> .. &etsyte5 ## +>1 .. ptyyuuuuu1uu11uudu",
"uuud1yyte&3$1> # 138%321 . &et1yye5 # 111$3 .. tyyyd1uuuu1u1uu1u",
"uuu1uyyte5&331 # 35&5533 .. etyyye5 # 2333%3 . etyy1uuuuuu1uuuuu",
"uuuuuyy:ee5533 # 35eee5&3 .. etyte5 # 3&5553 . etyyuuuu1uuuuuuuu",
"1uuuuydyttee&& # 5etyti533 ..  t;e5 # 85ee54 . 5;yyuuuduuuuu11uu",
"1uuuuy1yyyype5 # 5eyyy;e533 ... ;e5 ## weee03  5;yyuuu1uuuuduuuu",
"duuudyyyyyy1e55  5eydyyte53%    ie54   ette;555epyyuduuuuuu1uuuu",
"u1uu1uuuuuyyte555;ey1yyyee543355e;55&55etyteeweet1yu1uuuuuuuuuuu",
"udduuuuuuuyy:eqweiayyuyyyee5&50wepq555wetyyt;eptydduyuuuuuuu1udu",
"u1d1uuuuuuyyyt;ee;s1yuuyyyteew;et;p;eeetyyyyyt1yy1d1uuuuuuuuuu1u",
"uu1uuuuuuuu1yyytyy1yyuuuyyy:ttttyy1ttttyyyy1yyyyyy1yuuuuuuu1uuuu",
"uuuuuduuuu1u1yyyyyyyuduuuy1y1yyyyyyyysyyyy1u1yyyuuuyuduuuu1u1uuu",
"uuuud1duuuu11uyyyyuud1duuuy11yyyyyyyd1dyyuu11uuuuuuud1duuuu11uuu",
"uduud111uuuuduuuuduud111uuuuduuuuduud111uuuuduuuuduud111uuuuduuu",
"u1uu11uu1uuuuuuuu1uu11uu1uuuuuuuu1uu11uu1uuuuuuuu1uu11uu1uuuuuuu",
"1uuuuu11uuuduuuu1uuuuu11uuuduuuu1uuuuu11uuuduuuu1uuuuu11uuuduuuu",
"uuuuuuu1uu11uuduuuuuuuu1uu11uuduuuuuuuu1uu11uuduuuuuuuu1uu11uudu",
"uuud1uuuu1u1uu1uuuud1uuuu1u1uu1uuuud1uuuu1u1uu1uuuud1uuuu1u1uu1u",
"uuu1uuuuuu1uuuuuuuu1uuuuuu1uuuuuuuu1uuuuuu1uuuuuuuu1uuuuuu1uuuuu",
"uuuuuuu1uuuuuuuuuuuuuuu1uuuuuuuuuuuuuuu1uuuuuuuuuuuuuuu1uuuuuuuu",
"1uuuuuduuuuu11uu1uuuuuduuuuu11uu1uuuuuduuuuu11uu1uuuuuduuuuu11uu",
"1uuuuu1uuuuduuuu1uuuuu1uuuuduuuu1uuuuu1uuuuduuuu1uuuuu1uuuuduuuu",
"duuuduuuuuu1uuuuduuuduuuuuu1uuuuduuuduuuuuu1uuuuduuuduuuuuu1uuuu",
"u1uu1uuuuuuuuuuuu1uu1uuuuuuuuuuuu1uu1uuuuuuuuuuuu1uu1uuuuuuuuuuu"
};
