/* XPM */
static char *enemy_run_l_4[] = {
/* columns rows colors chars-per-pixel */
"64 64 40 1 ",
"  c black",
". c #222121",
"X c gray21",
"o c #5E2A22",
"O c #536439",
"+ c #56693B",
"@ c #5B6E3E",
"# c #5C703F",
"$ c #565656",
"% c #5D7240",
"& c #627743",
"* c #677E47",
"= c #687E47",
"- c #697F48",
"; c #6F8545",
": c #6E874C",
"> c #728747",
", c #738947",
"< c #738C4F",
"1 c #788E4A",
"2 c #7C944D",
"3 c #829E3F",
"4 c #80984F",
"5 c #819950",
"6 c #86A341",
"7 c #8FAE46",
"8 c #91B147",
"9 c #96B749",
"0 c #9DBF4C",
"q c #87A154",
"w c #8CA757",
"e c #8EA858",
"r c #8FAA59",
"t c #93AF5C",
"y c #94B05C",
"u c #9DC04D",
"i c #A0C34E",
"p c #A4C850",
"a c #A7CB51",
"s c #AACF53",
/* pixels */
"yssyyyyyyyyy<ysyyssyyyyyyyyy<ysyyssyyyyyyyyy<ysyyssyyyyyyyyy<ysy",
"y<s<yyyyyyyyyy<yy<s<yyyyyyyyyy<yy<s<yyyyyyyyyy<yy<s<yyyyyyyyyy<y",
"yy<yyyyyyyy<yyyyyy<yyyyyyyy<yyyyyy<yyyyyyyy<yyyyyy<yyyyyyyy<yyyy",
"yyyyysyyyy<y<yyyyyyyysyyyy<y<yyyyyyyysyyyy<y<yyyyyyyysyyyy<y<yyy",
"yyyys<syyyy<<yyyyyyys<syyyy<<yyyyyyys<syyyy<<yyyyyyys<syyyy<<yyy",
"ysyys<<<yyyysyyyysyys<<<yyyysyyyysyys<<<yyyysyyyysyys<<<yyyysyyy",
"y<yy<<yy<yyyyyyyy<yy<<yy<yyyyyyyy<yy<<yy<yyyyyyyy<yy<<yy<yyyyyyy",
"<yyyyy<<yyysyyyy<yyyyy<<yyysyyyy<yyyyy<<yyysyyyy<yyyyy<<yyysyyyy",
"yyyyyyy<yy<<yysyyyyyyyy<yy<<yysyyyyyyyy<yy<<yysyyyyyyyy<yy<<yysy",
"yyys<yyyy<y<yy<yyyys<yyyy<y<yy<yyyys<yyyy<y<yy<yyyys<yyyy<y<yy<y",
"yyy<yyyyyy<yyyyyyyy<yyyyyy<yyyyyyyy<yyyyyy<yyyyyyyy<yyyyyy<yyyyy",
"yyyyyyy<yyyyyyyyyyyyyyy<yyyyyyyyyyyyyyy<yyyyyyyyyyyyyyy<yyyyyyyy",
"<yyyyysyyyyy<<yy<yyyyysyyyyy<<yy<yyyyysyyyyy<<yy<yyyyysyyyyy<<yy",
"<yyyyy<yyyysyyyy<yyyyy<yyyysyyyy<yyyyy<yyyysyyyy<yyyyy<yyyysyyyy",
"syyysyyyyyy<yyyysyyysyyyyyy<yyyysyyysyyyyyy<yyyysyyysyyyyyy<yyyy",
"y<yy<yyyyyyyyyttt<yy<yyyyyyyyyyyy<yy<yyyyyyyyyyyy<yy<yyyyyyyyyyy",
"yssyyyyytytt<tsttsstyyyyyyyy<ysyyssyyyyyyyyy<ysyyssyyyyyyyyy<ysy",
"y<s<yyyytytttt<  <a<tyyyyyyyyy<yy<s<yyyyyyyyyy<yy<s<yyyyyyyyyy<y",
"yy<yyyyytty<ttr $ :tttyyyyy<yyyyyy<tyyyyyyy<yyyyyy<yyyyyyyy<yyyy",
"yyyyysyyyy<t<rw $. wratttt<y<yyyyyyyysyyyy<y<yyyyyyyysyyyy<y<yyy",
"yyyys<syytt<:w $$.  i:atttt<<yyytttys<syyyy<<yyyyyyys<syyyy<<yyy",
"ysyys<<<tttr  $$$X..    rrttsttytstts<<<ttttsyyyysyys<<<yyyysyyy",
"y<yy<<yt<tr $$$$$$XX....   rttttt<tt<<tt<tttttyyy<yy<<yy<yyyyyyy",
"<yyyyy<<trw .XX$$$$$XXXX...  rrr:r        ratttt<yyyyy<<yyysyyyy",
"yyyyyyy<tw- o.$$$$$$$$$$XXX..     ........  rratttyyyty<yy<<yysy",
"yyys<tttr: .X$$$$$$$$$$$$$$XX.....XXXXXXXX..   rttts<yyty<y<yy<y",
"yyy<tttrw $$$$$XXX$$$$$$$$$$$XXXXX$$$$$$$$X. XX rtt<yyyyyy<yyyyy",
"yyyyttr  $$$$$X...XX$$$$$$$$$$$$$$$$$$$$$$$X. .X rtttyy<yyyyyyyy",
"<yyttti   $$     ...X$$$$$$$$$$$$$$$$$$$$$$X.  X wrttysyyyyy<<yy",
"<yyttt:5    >>>>+ ...X$$$$$$$$$$$$$$$$$$$$$X.  .$ wttt<yyyysyyyy",
"syytsrw5221#<11<6> ..X$$$$$$$$$$$$XXX$$$$$$X.  .$ wratyyyyy<yyyy",
"y<yt<tww542225522%, .X$$$$$$$$$XXX...X$$$$$X.  .X$ w<ttyyyyyyyyy",
"yssyttrww555:w0q587 . $$$$$$XXX......X$$$$$X.  .X$ wrtttttty<ysy",
"y<s<tttrrwwwrr:rw*8%  $$$$$X......   X$$$$$X. O .X$ wtttttyyyy<y",
"yy<yytttttt<ttttrw*2< $$$$X....   +;; $$$$X.  = .X$ wrttyyy<yyyy",
"yyyyystttt<t<ttttrw52 $$$$     ;><<<, $$$X. ..  ..X$ urtty<y<yyy",
"yyyys<syyyy<<tytttw57 $$$ .. ;,<22227@ $$X. .... .XX$ ittty<<yyy",
"ysyys<<<yyyystyytarw9 $$$ .. <2250559% $$X    ..  ..XX :tttystyy",
"y<yy<<yy<yyyyyyyy<rw* $$  .. 245w:ww=&1 $X ;;; . +  ... :tttyyyy",
"<yyyyy<<yyysyyyy<trw5 $$ ; .. 5w:ttrw5& $X 3,, . >><     rtsyyyy",
"yyyyyyy<yy<<yysyytrw5 $ ;;+ . 0wttttrq2 $X @1< . <<1222*wr<<yysy",
"yyys<yyyy<y<yy<yttru $$ <@< . *wttta:w5 $ 1%22 . 228*455w:t<yy<y",
"yyy<yyyyyy<yyyyyttr: $ 122% .. wrtt<rw5 $ &22 .. 25*55qwwr<tyyyy",
"yyyyyyy<yyyyyyyttrw5 $ &2522 . wrtttrw5 $ 255 .. 5qwwww:rtttyyyy",
"<yyyyysyytyy<<tt<w  $ 755552 . q:tttw  $ 255* .. 5wrttattttt<<yy",
"<yyyyy<yytysyytt: $$$ *5ww59 . 5:ttr $$$ 25054  &5wttt<ttttsyyyy",
"syyysyyyyyy<yttti    25wwww*  55irrw    25q:q5429wrtsyyyyyy<yyyy",
"y<yy<yyyyyyyytttw-52&5qwrrwq555ww:rw:52255wwwq55q:rt<yyyyyytyyyy",
"yssyyyyyyyyy<tstw09555wrttrw:q0wraaww5555wrr:wuwwaattyyyyyyy<ysy",
"y<s<yyyyyyyyyt<tr:0-wwrttttrww:rt<a:wqwwwrtttt:rt<s<ttyyyyyyyy<y",
"yy<yyyyyyyy<yytttr:wrrttttt<trrttt<trwwrrtt<tttttt<yyyyyyyy<yyyy",
"yyyyysyyyy<y<ytttttttstttt<t<ttttttttatttt<t<ttttyyyysyyyy<y<yyy",
"yyyys<syyyy<<yyttttts<syyyy<<ttyyytts<sttty<<yyyyyyys<syyyy<<yyy",
"ysyys<<<yyyysyyyysyys<<<yyyysyyyysyys<<<yyyysyyyysyys<<<yyyysyyy",
"y<yy<<yy<yyyyyyyy<yy<<yy<yyyyyyyy<yy<<yt<yyyyyyyy<yy<<yy<yyyyyyy",
"<yyyyy<<yyysyyyy<yyyyy<<yyysyyyy<yyyyy<<yyysyyyy<yyyyy<<yyysyyyy",
"yyyyyyy<yy<<yysyyyyyyyy<yy<<yysyyyyyyyy<yy<<yysyyyyyyyy<yy<<yysy",
"yyys<yyyy<y<yy<yyyys<yyyy<y<yy<yyyys<yyyy<y<yy<yyyys<yyyy<y<yy<y",
"yyy<yyyyyy<yyyyyyyy<yyyyyy<yyyyyyyy<yyyyyy<yyyyyyyy<yyyyyy<yyyyy",
"yyyyyyy<yyyyyyyyyyyyyyy<yyyyyyyyyyyyyyy<yyyyyyyyyyyyyyy<yyyyyyyy",
"<yyyyysyyyyy<<yy<yyyyysyyyyy<<yy<yyyyysyyyyy<<yy<yyyyysyyyyy<<yy",
"<yyyyy<yyyysyyyy<yyyyy<yyyysyyyy<yyyyy<yyyysyyyy<yyyyy<yyyysyyyy",
"syyysyyyyyy<yyyysyyysyyyyyy<yyyysyyysyyyyyy<yyyysyyysyyyyyy<yyyy",
"y<yy<yyyyyyyyyyyy<yy<yyyyyyyyyyyy<yy<yyyyyyyyyyyy<yy<yyyyyyyyyyy"
};
