/* XPM */
static char *player_run_b_1[] = {
/* columns rows colors chars-per-pixel */
"64 64 38 1 ",
"  c #3A3737",
". c #5C6F3F",
"X c #5E7240",
"o c #627743",
"O c #657B45",
"+ c #677E47",
"@ c #697F48",
"# c #827C7C",
"$ c #6E874C",
"% c #6F884D",
"& c #738C4F",
"* c #7D954E",
"= c #7F974F",
"- c #80984F",
"; c #839C52",
": c #90AF46",
"> c #96B749",
", c #97B84A",
"< c #9ABC4B",
"1 c #87A054",
"2 c #8CA657",
"3 c #8CA757",
"4 c #8EA858",
"5 c #8FAA59",
"6 c #93AF5C",
"7 c #94B05C",
"8 c #BC8B6D",
"9 c #C49172",
"0 c #CDAE67",
"q c #9EC04D",
"w c #A2C54F",
"e c #A3C750",
"r c #A4C850",
"t c #A5C951",
"y c #AACF53",
"u c #B7B3B2",
"i c #D6B39D",
"p c #EFE9E7",
/* pixels */
"7yy777777777&7y77yy777777777&7y77yy777777777&7y77yy777777777&7y7",
"7&y&7777777777&77&y&7777777777&77&y&7777777777&77&y&7777777777&7",
"77&77777777&777777&77777777&777777&77777777&777777&77777777&7777",
"77777y7777&7&77777777y7777&7&77777777y7777&7&77777777y7777&7&777",
"7777y&y7777&&7777777y&y7777&&7777777y&y7777&&7777777y&y7777&&777",
"7y77y&&&7777y7777y77y&&&7777y7777y77y&&&7777y7777y77y&&&7777y777",
"7&77&&77&77777777&77&&77&77777777&77&&77&77777777&77&&77&7777777",
"&77777&&777y7777&77777&&777y7777&77777&&777y7777&77777&&777y7777",
"7777777&77&&77y77777777&77&&77y77777777&77&&77y77777777&77&&77y7",
"777y&7777&7&77&7777y&7777&7&77&7777y&7777&7&77&7777y&7777&7&77&7",
"777&777777&77777777&777777&77777777&777777&77777777&777777&77777",
"7777777&777777777777777&777777777777777&777777777777777&77777777",
"&77777y77777&&77&77777y77777&&77&77777y77777&&77&77777y77777&&77",
"&77777&7777y7777&77777&7777y7777&77777&7777y7777&77777&7777y7777",
"y777y777777&7777y777y666666&6666y666y666666&6777y777y777777&7777",
"7&77&777777777777&66&666666666666&66&666666666677&77&77777777777",
"7yy777777777&7y77yy666666666&6t66tt666666666&6y67yy777777777&7y7",
"7&y&7777777777&76&y&6666655566&66&t&6656666666&66&y&7777777777&7",
"77&77777777&777766&66665555$225555$55255556&666667&77777777&7777",
"77777y7777&7&77766666t5   $2$22222222q2   $6%66667777y7777&7&777",
"7777y&y7777&&7766666t$w up $@22   22<$ pu 5$&6666677y&y7777&&777",
"7y77y&&&7777y7766y66t$$ ppp ,; upu ;< ppp 25t6666y77y&&&7777y777",
"7&77&&77&77777766&65$$2 p8pu   ###   up8p 2256666&77&&77&7777777",
"&77777&&777y7776&66522@ piup# uppuu #puip 1q5566&67777&&777y7777",
"7777777&77&&77y6666522;O iiip# ppp #piii ;@$25t66677777&77&&77y7",
"777y&7777&7&77&6666e$2;; 9iipu#   #upii9 O;$25%6667y&7777&7&77&7",
"777&777777&77776666$22;;  iiup uuu puii *;O22556667&777777&77777",
"7777777&77777776666521;O # iupupppupui # *;225566677777&77777777",
"&77777y77777&&76&66221> #uu upppppppu uu *;1$$66&67777y77777&&77",
"&77777&7777y7776&6522;O upuu#upppppu#uup# ;<2566&67777&7777y7777",
"y777y777777&7766y652q;; ppuu# upppu #uupu ;@2566y677y777777&7777",
"7&77&777777777666&55$;; ppu#u uuuuu u#upp ;125666&77&77777777777",
"7yy777777777&7y66tt22;; pp up#upppu#pu pp ;;$5t66yy777777777&7y7",
"7&y&7777777777&66&t$2;; #p ppupppppupp p# ;;25&66&y&7777777777&7",
"77&77777777&777666&52;;  p upp 000 ppu p  ;@256666&77777777&7777",
"77777y7777&7&77666622<; p p ppp   ppp p u O1$56666777y7777&7&777",
"7777y&y7777&&7766655q@,-  pu #uu uu# up p ;@$2566677y&y7777&&777",
"7y77y&&&7777y7766t65w$OO*  pp   u   pu   -;2q5666y77y&&&7777y777",
"7&77&&77&77777766&65$$;;o* ppupppppup# *o;;225666&77&&77&7777777",
"&77777&&777y7777&66652@O** #p# upu #u XX*;1q2566&67777&&777y7777",
"7777777&77&&77y76666522O;*X uu#   #uu *o;;$$56t66777777&77&&77y7",
"777y&7777&7&77&7666t%521;O* uuu# #uppp *;@2$56&6677y&7777&7&77&7",
"777&777777&77777766&6522;; pppu#  pppp ;;2$55666677&777777&77777",
"7777777&777777777666652$;; pppp   puuu O122566667777777&77777777",
"&77777y77777&&77&76666w22; uuup .&    >;2256&&66&77777y77777&&77",
"&77777&7777y7777&66666$22;;    *X****;O2225t6666&77777&7777y7777",
"y777y777777&7777y666t65522;O;-**:**;>;12256&6666y777y777777&7777",
"7&77&777777777777&76&665222;;;;;;O;;O222556666667&77&77777777777",
"7yy777777777&7y77yy666655222@;<;;<<222255666&6y77yy777777777&7y7",
"7&y&7777777777&77&y&6666552222$22$q$2256666666&77&y&7777777777&7",
"77&77777777&777777&66666665$222222$55566666&666777&77777777&7777",
"77777y7777&7&77777776y6666&6$55555566t6666&6&66777777y7777&7&777",
"7777y&y7777&&7777777y&y6666&&6666666t&y6666&&7777777y&y7777&&777",
"7y77y&&&7777y7777y77y&&&6666y6666y66y&&&6677y7777y77y&&&7777y777",
"7&77&&77&77777777&77&&76&66666666&66&&67&77777777&77&&77&7777777",
"&77777&&777y7777&77777&&667y7777&76777&&777y7777&77777&&777y7777",
"7777777&77&&77y77777777&77&&77y77776777&77&&77y77777777&77&&77y7",
"777y&7777&7&77&7777y&7777&7&77&7777y&7777&7&77&7777y&7777&7&77&7",
"777&777777&77777777&777777&77777777&777777&77777777&777777&77777",
"7777777&777777777777777&777777777777777&777777777777777&77777777",
"&77777y77777&&77&77777y77777&&77&77777y77777&&77&77777y77777&&77",
"&77777&7777y7777&77777&7777y7777&77777&7777y7777&77777&7777y7777",
"y777y777777&7777y777y777777&7777y777y777777&7777y777y777777&7777",
"7&77&777777777777&77&777777777777&77&777777777777&77&77777777777"
};
