/* XPM */
static char *player_run_t_2[] = {
/* columns rows colors chars-per-pixel */
"64 64 35 1 ",
"  c #3A3737",
". c #5A6E3E",
"X c #617643",
"o c #657C46",
"O c #687F48",
"+ c #697F48",
"@ c #827C7C",
"# c #6E874C",
"$ c #6F884D",
"% c #738947",
"& c #70884D",
"* c #738C4F",
"= c #79904B",
"- c #7F964F",
"; c #7F974F",
": c #80984F",
"> c #869F53",
", c #8BAA44",
"< c #93B348",
"1 c #94B448",
"2 c #9BBC4C",
"3 c #87A054",
"4 c #8CA657",
"5 c #8DA858",
"6 c #8EA858",
"7 c #8EA958",
"8 c #93AF5C",
"9 c #94B05C",
"0 c #9FC14D",
"q c #A1C44F",
"w c #A3C750",
"e c #A5C951",
"r c #AACF53",
"t c #B7B3B2",
"y c #EFE9E7",
/* pixels */
"9rr999999999*9r99rr999999999*9r99rr999999999*9r99rr999999999*9r9",
"9*r*9999999999*99*r*9999999999*99*r*9999999999*99*r*9999999999*9",
"99*99999999*999999*99999999*999999*99999999*999999*99999999*9999",
"99999r9999*9*99999999r9999*9*99999999r9999*9*99999999r9999*9*999",
"9999r*r9999**9999999r*r9999**9999999r*r9999**9999999r*r9999**999",
"9r99r***9999r9999r99r***9999r9999r99r***9999r9999r99r***9999r999",
"9*99**99*99999999*99**99*99999999*99**99*99999999*99**99*9999999",
"*99999**999r9999*99999**999r9999*99999**999r9999*99999**999r9999",
"9999999*99**99r99999999*99**99r98889999*99**99r89999999*99**99r9",
"999r*9999*9*99*9999r*8899*9*99*9888r*9999*9*99*8999r*9999*9*99*9",
"999*999999*99999999*888888*88899888*888888*88998999*999999*99999",
"9999999*999999999988888*888888888888888*888888899999999*99999999",
"*99999r99999**99*88888r88888**88*88888e88888**88*99999r99999**99",
"*99999*9999r9999*88888*8888e8888*88888*8888e8888*99999*9999r9999",
"r999r999999*9999r888e887777#7777w777w777778*8888r999r999999*9999",
"9*99*999999999998*88$77   4444444#44#44   7788888*99*99999999999",
"9rr999999999*9r88re8877 ty 4#424422444 yt 77#8e88rr999999999*9r9",
"9*r*9999999999*88*e*774 tyy >   >   > yyt 4777*88*r*9999999999*9",
"99*99999999*999888*8744 tyyt @yy yy@ tyyt 4#788888*99999999*9999",
"99999r9999*9*9988887704 @yyy@ tt tt @yyy@ #4#78888999r9999*9*999",
"9999r*r9999**9988887q#2> tyyy@ t t @yyyt >3##7888899r*r9999**999",
"9r99r***9999r9988r87q#+o @yyyt     tyyy@ >34q7888r99r***9999r999",
"9*99**99*99999988*87##>>o tyyyt@@@tyyyt o>>447888*99**99*9999999",
"*99999**999r9999*88774+o-  tyytttttyyt  ->>07788*99999**999r9999",
"9999999*99**99r98888743o-   tytttttyt   ->+#78e88999999*99**99r9",
"999r*9999*9*99*9888e#43>-  @yttttttty@  -o3#78*8899r*9999*9*99*9",
"999*999999*99999888*744>:  tttyyyyyttt  ->#47888899*999999*99999",
"9999999*999999998888744o>- ttyyyyyyytt X>>4478889999999*99999999",
"*99999r99999**99*888742>>- tyyyyyyyyyt -:>44$*88*99999r99999**99",
"*99999*9999r9999*88877#>>- @yyyyyyyyy@ ->>4q8888*99999*9999r9999",
"r999r999999*9999r888e743>-  ttyyyyytt  ->>4#8888r999r999999*9999",
"9*99*999999999999*88*743>-  @tyyyyyt@  ->>4788889*99*99999999999",
"9rr999999999*9r98rr8874>>-  ttyyyyytt  ->347#8r89rr999999999*9r9",
"9*r*9999999999*99*r*874>>- tttyyyyyttt ->34778*89*r*9999999999*9",
"99*99999999*999998*8774>> @tttyyyyyttt@ >>4#788899*99999999*9999",
"99999r9999*9*99998887q4>> ttyyyyyyyyytt >>#4$88899999r9999*9*999",
"9999r*r9999**9999888w#2> @tyyyyyyyyyyyt@ >4##8889999r*r9999**999",
"9r99r***9999r9998r88w#+o @yyyyyyyyyyyyy@ >44w8888r99r***9999r999",
"9*99**99*99999998*88##3> tyyyyyyyyyyyyyt >3478888*99**99*9999999",
"*99999**999r9999*88874+o yyyyyt@@@tyyyyy >307888*99999**999r9999",
"9999999*99**99r9888874>o yyyyt tyt yyyyy >+#77e88999999*99**99r9",
"999r*9999*9*99*9888e#4>> yyyy@tyyyt@yyyy o>#78*8899r*9999*9*99*9",
"999*999999*99999888$74>> tyt@ @yyy@ @tyt >+47788899*999999*99999",
"9999999*99999999888774>o- t@@       @@t ->>477888999999*99999999",
"*99999r99999**99*887742>- t@ .*%.%** @t ->>4#$88*99999r99999**99",
"*99999*9999r9999*88874#>> t@ ***.*** @t ->307888*99999*9999r9999",
"r999r999999*9999r887q44> @y@ ---,--- @y@ >4#7888r999r999999*9999",
"9*99*999999999998*87#44> ty@ ----X-- @yt >4478888*99*99999999999",
"9rr999999999*9r98re87443 y@@ -<>:<<> @@y 344#8e88rr999999999*9r9",
"9*r*9999999999*98*r*77443   >>o>>o<o>   344778*88*r*9999999999*9",
"99*99999999*999998*8874443>+>33333+>>>>3444#788899*99999999*9999",
"99999r9999*9*99998888e7444#4#4444444404444#7$88899999r9999*9*999",
"9999r*r9999**9998888e*w7444##4444444q#q4477**8889999r*r9999**999",
"9r99r***9999r9998r88e**#7747q7777e77q###7788e8889r99r***9999r999",
"9*99**99*99999999*88**88*77788888$88*$77*88888889*99**99*9999999",
"*99999**999r9999*98888**888e8888*88888$*888r8889*99999**999r9999",
"9999999*99**99r99988888*88**88r88888888*88**88r99999999*99**99r9",
"999r*9999*9*99*9999r*8888*8*88*8888r*8888*8*88*9999r*9999*9*99*9",
"999*999999*99999999*988888*88888888*888888*89999999*999999*99999",
"9999999*999999999999999*999999999899999*999999999999999*99999999",
"*99999r99999**99*99999r99999**99*99999r99999**99*99999r99999**99",
"*99999*9999r9999*99999*9999r9999*99999*9999r9999*99999*9999r9999",
"r999r999999*9999r999r999999*9999r999r999999*9999r999r999999*9999",
"9*99*999999999999*99*999999999999*99*999999999999*99*99999999999"
};
