/* XPM */
static char *player_run_t_6[] = {
/* columns rows colors chars-per-pixel */
"64 64 30 1 ",
"  c #3A3737",
". c #627743",
"X c #657C46",
"o c #687E47",
"O c #687F48",
"+ c #827C7C",
"@ c #6E864C",
"# c #6F874C",
"$ c #6F884D",
"% c #738C4F",
"& c #788F4B",
"* c #7C944D",
"= c #7F974F",
"- c #80984F",
"; c #869F53",
": c #97B74A",
"> c #97B84A",
", c #9ABC4B",
"< c #87A154",
"1 c #8BA556",
"2 c #8EA858",
"3 c #93AF5C",
"4 c #94B05C",
"5 c #9EC04D",
"6 c #A1C44E",
"7 c #A3C750",
"8 c #A6CA51",
"9 c #AACF53",
"0 c #B7B3B2",
"q c #EFE9E7",
/* pixels */
"499444444444%494499444444444%494499444444444%494499444444444%494",
"4%9%4444444444%44%9%4444444444%44%9%4444444444%44%9%4444444444%4",
"44%44444444%444444%44444444%444444%44444444%444444%44444444%4444",
"4444494444%4%4444444494444%4%4444444494444%4%4444444494444%4%444",
"44449%94444%%44444449%94444%%44444449%94444%%44444449%94444%%444",
"49449%%%4444944449449%%%4444944449449%%%4444944449449%%%44449444",
"4%44%%44%44444444%44%%44%44444444%44%%44%44444444%44%%44%4444444",
"%44444%%44494444%44444%%44494444%44444%%44494444%44444%%44494444",
"4444444%44%%44944444444%44%%44944444444%44%%44944444444%44%%4494",
"4449%4444%4%44%44449%4444%4%44%44449%4444%4%44%44449%4444%4%44%4",
"444%444444%44444444%444444%44444444%444444%44444444%444444%44444",
"4444444%444444444444444%444444444444444%444444444444444%44444444",
"%44444944444%%44%44444944444%%44%44444944444%%44%44444944444%%44",
"%44444%444494444%44444%444494444%44444%444494444%44444%444494444",
"94449444444%444494449444444%444494449444444%444494449444444%4444",
"4%44%444444444444%44%333333333444%43%333333334444%44%44444444444",
"499444444444%494499333333333%393399333333333%394499444444444%494",
"4%9%4444444444%44%9%3333333333%33%9%3333333333%34%9%4444444444%4",
"44%44444444%444433%33333333%333333%33333333%333334%44444444%4444",
"4444494444%4%4443333383222$2%3333333382222@3%3333444494444%4%444",
"44449%94444%%44433338%8   2@@22333227@6   2%%33334449%94444%%444",
"49449%%%4444944339338@@ 0q 1611226216@ q0 22833339449%%%44449444",
"4%44%%44%44444433%33@@1 0qq 11111@11@ qq0 1223333%44%%44%4444444",
"%44444%%44494443%33321@ 0qq0 ;<<@1<< 0qq0 162333%34444%%44494444",
"4444444%44%%44933332211 +qqq+ >;;;; +qqq+ @@22833344444%44%%4494",
"4449%4444%4%44%33338@11; 0qqq+ ;;; +qqq0 X1@22%33349%4444%4%44%4",
"444%444444%44443333@11<; +qqq0     0qqq+ ;@11233334%444444%44444",
"4444444%44444443333211<X; 0qqq0+++0qqq0 *;<112333344444%44444444",
"%44444944444%%44%33211,;-* 0qq00000qq0 **;;1@@33%44444944444%%44",
"%44444%444494444%33211O;*   000000000   *;;51233%44444%444494444",
"94449444444%4444933261;;*  ++0qqqqq0++  *;;@123394449444444%4444",
"4%44%444444444443%32@1;; + q00qqqqq00q + ;;112333%44%44444444444",
"499444444444%494388211;; 00qq0qqqqq0qq00 ;;1@283399444444444%494",
"4%9%4444444444%43%8@11; +0qqqqqqqqqqqqq0+ ;112%33%9%4444444444%4",
"44%44444444%444333$211; +qqqqqqqqqqqqqqq+ ;@123333%44444444%4444",
"4444494444%4%44333321,; 0qqqqqqqqqqqqqqq0 X1@2233344494444%4%444",
"44449%94444%%44333325O: qqqqqqqqqqqqqqqqq ;O@23333449%94444%%444",
"49449%%%4444944338325OX 0q+0qqqqqqqqq0+q0 ;;522339449%%%44449444",
"4%44%%44%44444433%32@O;* 0 +qq0+++0qq+ 0 *;;12333%44%%44%4444444",
"%44444%%44494443%3321<X  +  0q 0q0 q0  +  ;,1233%34444%%44494444",
"4444444%44%%4493333211; 00  ++0qqq0++  00 X@12833344444%44%%4494",
"4449%4444%4%44%33336@1; qq+   +qqq+   +qq ;@12@33349%4444%4%44%4",
"444%444444%44443333@11;;   &%  000  %&   ;O11233334%444444%44444",
"4444444%444444433332211o;-****%   &****X;;1122333344444%44444444",
"%44444944444%%43%3332151;;;*..**.*****:;;111@%33%34444944444%%44",
"%44444%444494444%33322@11;;:;;;*X-;;;;X;11172333%44444%444494444",
"94449444444%444493338221111@;;;;,;;;,<11112@333394449444444%4444",
"4%44%444444444443%33%322211111111@11@111223333333%44%44444444444",
"499444444444%494499333332222@161166112222333%393499444444444%494",
"4%9%4444444444%44%9%3333333322@22@7@2333333333%34%9%4444444444%4",
"44%44444444%444444%33333333%333333$33333333%333344%44444444%4444",
"4444494444%4%4444444393333%3%3333333393333%3%4444444494444%4%444",
"44449%94444%%44444449%93333%%33333339%93344%%44444449%94444%%444",
"49449%%%4444944449449%%%4444944449449%%%4444944449449%%%44449444",
"4%44%%44%44444444%44%%44%44444444%44%%34%44444444%44%%44%4444444",
"%44444%%44494444%44444%%44494444%44444%%44494444%44444%%44494444",
"4444444%44%%44944444444%44%%44944444444%44%%44944444444%44%%4494",
"4449%4444%4%44%44449%4444%4%44%44449%4444%4%44%44449%4444%4%44%4",
"444%444444%44444444%444444%44444444%444444%44444444%444444%44444",
"4444444%444444444444444%444444444444444%444444444444444%44444444",
"%44444944444%%44%44444944444%%44%44444944444%%44%44444944444%%44",
"%44444%444494444%44444%444494444%44444%444494444%44444%444494444",
"94449444444%444494449444444%444494449444444%444494449444444%4444",
"4%44%444444444444%44%444444444444%44%444444444444%44%44444444444"
};
