/* XPM */
static char *player_run_r_4[] = {
/* columns rows colors chars-per-pixel */
"64 64 37 1 ",
"  c #3A3737",
". c #5B6F3F",
"X c #5D7140",
"o c #607442",
"O c #627844",
"+ c #687F48",
"@ c #827C7C",
"# c #6E854B",
"$ c #6F884D",
"% c #728747",
"& c #728847",
"* c #738C4F",
"= c #788E4A",
"- c #7A924C",
"; c #80984F",
": c #849D52",
"> c #8CAA44",
", c #91B147",
"< c #96B749",
"1 c #97B84A",
"2 c #9BBC4C",
"3 c #87A054",
"4 c #8AA456",
"5 c #8DA858",
"6 c #8FAA59",
"7 c #93AF5C",
"8 c #94B05C",
"9 c #BC8B6D",
"0 c #CDAE67",
"q c #9FC14D",
"w c #A1C44E",
"e c #A3C750",
"r c #A7CB51",
"t c #AACF53",
"y c #B7B3B2",
"u c #D6B39D",
"i c #EFE9E7",
/* pixels */
"8tt888888888*8t88tt888888888*8t88tt888888888*8t88tt888888888*8t8",
"8*t*8888888888*88*t*8888888888*88*t*8888888888*88*t*8888888888*8",
"88*88888888*888888*88888888*888888*88888888*888888*88888888*8888",
"88888t8888*8*88888888t8888*8*88888888t8888*8*88888888t8888*8*888",
"8888t*t8888**8888888t*t8888**8888888t*t8888**8888888t*t8888**888",
"8t88t***8888t8888t88t***8888t8888t88t***8888t8888t88t***8888t888",
"8*88**88*88888888*88**88*88888888*88**88*88888888*88**88*8888888",
"*88888**888t8888*88888**888t8888*88888**888t8888*88888**888t8888",
"8888888*88**88t88888888*88**88t88888888*88**88t88888888*88**88t8",
"888t*8888*8*88*8888t*8888*8*88*8888t*8888*8*88*8888t*8888*8*88*8",
"888*888888*88888888*888888*88888888*888888*88888888*888888*88888",
"8888888*888888888888888*888888888888888*888888888888888*88888888",
"*88888t88888**88*88888t88888**88*88888t88888**88*88888t88888**88",
"*88888*8888t8888*88888*8888t8888*88888*8888t8888*88888*8888t8888",
"t888t888888*8888t888t888888*8887t788t888888*8888t888t888888*8888",
"8*88*888888888888*88*888887777777*77*777888888888*88*88888888888",
"8tt888888888*8t88tt888887777*7t77tt777777787*8t88tt888888888*8t8",
"8*t*8888888888*88*t*8887777777*77*r*7777777788*88*t*8888888888*8",
"88*88888888*888888*88877777*777666$76777777*888888*88888888*8888",
"88888t8888*8*88888888t7777*7$66666666r6777*7*88888888t8888*8*888",
"8888t*t8888**8888888t*t7777$#   44  w#e7777**8888888t*t8888**888",
"8t88t***8888t8888t88t***7766w y@ 2 i ###6777t7888t88t***8888t888",
"8*88**88*88888888*88**77*7644 iiy  i@ 44#77777788*88**88*8888888",
"*88888**888t8888*88887**764q4 iii  ii ##467r7778*88888**888t8888",
"8888888*88**88t87877777*66##: iuiy ii@ #44#*77t88888888*88**88t8",
"888t*8888*8*88*8787t*7776#4+: iuui@yiy :4#6$77*7888t*8888*8*88*8",
"888*888888*88888777*777644+::- uuiy iy ::4#66777788*888888*88888",
"8888888*888888887777776#44::-- uuui @   :34467777788888*88888888",
"*88888t88888**77*77776w44:     9uui@yyii :44#$77*78888t88888**88",
"*88888*8888t7777*77764#4  @yiiy 9ui@iiiiy :q4677*77888*8888t8888",
"t888t888888*7877t776w44 yiiiiii yuiiiiiii@ +4467t778t888888*8888",
"8*88*888888887777*66#4 yiiiiiiiy@iiiyi iiy :44677*77*88888888888",
"8tt888888888*7t77rw44 @iiiiiiiii@yiii  yiiy +4w67tt787888888*8t8",
"8*t*8888888877*77#w#: yiiiiiiiiiiiiiiiiiiii@ 4#67*t*7788888888*8",
"88*88888888*777766#3 @iiiiiiiiiiiiyiiiiiiiiy 44677*77778888*8888",
"88888t8888*8*777644: yiiiiiiiiiiii@yiiiii 00 44667777t7888*8*888",
"8888t*t8888**777643 i@iiiiiiiiiiiii@ yiiii@ O4467777t*t8888**888",
"8t88t***8887t7766q: iyiiiiiiiiiyiiiiy @y@  :24467r77t***8888t888",
"8*88**88*87777764#: yyiiiiiiiiyyiiiy@    --::4467*77**88*8888888",
"*88888**887t7776#4:: @iiyiiiiy yyyy@ &.X--:24466*77788**888t8888",
"8888888*88**77r644:: @yiy yy@ @yy@   *=X-:O+44e77777888*88**88t8",
"888t*8888*8*77*6643<O yyy@    yyy  @ =--:O3#46$7777t*8888*8*88*8",
"888*888888*87777644O: @yyii@  yiii@ y -::3#46677777*888888*88888",
"8888888*88887777644::-  iiiy % iiii y :O344667777778888*88888888",
"*88888t88888**77$644::,     ..*      :134466**77*78888t88888**88",
"*88888*8888t7777*6443:O;--->-=--o--;::+4466r7777*88888*8888t8888",
"t888t888888*8777r664q3::::-O----,:::2344667*7777t888t888888*8888",
"8*88*888888887777*66#443:::::::::O:3#446677777778*88*88888888888",
"8tt888888888*8t77rr664444433+32332q444667777*8t88tt888888888*8t8",
"8*t*8888888888*77*r*7664444444#44#w#6677777778*88*t*8888888888*8",
"88*88888888*888777*77776666#666666#66777777*888888*88888888*8888",
"88888t8888*8*88877777r7777*7*77777777r7777*7*88888888t8888*8*888",
"8888t*t8888**8888777t*t7777**7777777t*t7777**8888888t*t8888**888",
"8t88t***8888t8888t87t***7777t7777t77t***7888t8888t88t***8888t888",
"8*88**88*88888888*88**77*77777777*77**77*88888888*88**88*8888888",
"*88888**888t8888*88888**888t8888*88777**888t8888*88888**888t8888",
"8888888*88**88t88888888*88**88t88888888*88**88t88888888*88**88t8",
"888t*8888*8*88*8888t*8888*8*88*8888t*8888*8*88*8888t*8888*8*88*8",
"888*888888*88888888*888888*88888888*888888*88888888*888888*88888",
"8888888*888888888888888*888888888888888*888888888888888*88888888",
"*88888t88888**88*88888t88888**88*88888t88888**88*88888t88888**88",
"*88888*8888t8888*88888*8888t8888*88888*8888t8888*88888*8888t8888",
"t888t888888*8888t888t888888*8888t888t888888*8888t888t888888*8888",
"8*88*888888888888*88*888888888888*88*888888888888*88*88888888888"
};
