/* XPM */
static char *player_run_b_6[] = {
/* columns rows colors chars-per-pixel */
"64 64 36 1 ",
"  c #3A3737",
". c #5E7341",
"X c #617743",
"o c #677D47",
"O c #687F48",
"+ c #827C7C",
"@ c #6A8048",
"# c #6E864C",
"$ c #6F884D",
"% c #70884D",
"& c #738C4F",
"* c #79904B",
"= c #7B924C",
"- c #7F974F",
"; c #80984F",
": c #859E53",
"> c #97B74A",
", c #9CBE4C",
"< c #87A054",
"1 c #8CA657",
"2 c #8DA858",
"3 c #8FAA59",
"4 c #93AF5C",
"5 c #94B05C",
"6 c #BC8B6D",
"7 c #C49172",
"8 c #CDAE67",
"9 c #9FC14D",
"0 c #A2C54F",
"q c #A3C750",
"w c #A5C950",
"e c #A6CA51",
"r c #AACF53",
"t c #B7B3B2",
"y c #D6B39D",
"u c #EFE9E7",
/* pixels */
"5rr555555555&5r55rr555555555&5r55rr555555555&5r55rr555555555&5r5",
"5&r&5555555555&55&r&5555555555&55&r&5555555555&55&r&5555555555&5",
"55&55555555&555555&55555555&555555&55555555&555555&55555555&5555",
"55555r5555&5&55555555r5555&5&55555555r5555&5&55555555r5555&5&555",
"5555r&r5555&&5555555r&r5555&&5555555r&r5555&&5555555r&r5555&&555",
"5r55r&&&5555r5555r55r&&&5555r5555r55r&&&5555r5555r55r&&&5555r555",
"5&55&&55&55555555&55&&55&55555555&55&&55&55555555&55&&55&5555555",
"&55555&&555r5555&55555&&555r5555&55555&&555r5555&55555&&555r5555",
"5555555&55&&55r55555555&55&&55r55555555&55&&55r55555555&55&&55r5",
"555r&5555&5&55&5555r&5555&5&55&5555r&5555&5&55&5555r&5555&5&55&5",
"555&555555&55555555&555555&55555555&555555&55555555&555555&55555",
"5555555&555555555555555&555555555555555&555555555555555&55555555",
"&55555r55555&&55&55555r55555&&55&55555r55555&&55&55555r55555&&55",
"&55555&5555r5555&55555&5555r5555&55555&5555r5555&55555&5555r5555",
"r555r555555&5555r555r555555&5555r555r555555&5555r555r555555&5555",
"5&55&555555555555&55&555555555555&55&555555555555&55&55555555555",
"5rr555555555&5r55rr544455554&4r44rr444555555&5r55rr555555555&5r5",
"5&r&5555555555&55&r&4455544444&44&r&4444555555&55&r&5555555555&5",
"55&55555555&555555&54444444&444444&44444445&555555&55555555&5555",
"55555r5555&5&55555554r4444&4&44444444e4444&4&55555555r5555&5&555",
"5555r&r5555&&5555544r&r4444&$3333333e&e4444&&4455555r&r5555&&555",
"5r55r&&&5555r5555r44r&&&4333011   110##$4444r4445r55r&&&5555r555",
"5&55&&55&55555554&44&&44#31111 tut 1##13#44444444&55&&55&5555555",
"&55555&&555r5555&44444$#111,<: +++ :<1##133e4444&55555&&555r5555",
"5555555&55&&55r54444433   Oo  +tut+  ::   ##34e44555555&55&&55r5",
"555r&5555&5&55&4444e#31 tu   +uuuuu+   ut 1#34&4445r&5555&5&55&5",
"555&555555&55554444&311 uuu +tuuuuut+ uuu #13344445&555555&55555",
"5555555&555555544443311 u6ut uuuuuuu tu6u 1113444455555&55555555",
"&55555r55555&&44&44311, uytu+ uuuuu +utyu :1##44&45555r55555&&55",
"&55555&5555r4444&44311o  yyyu+ tut +uyyy  :,1344&45555&5555r5555",
"r555r555555&4544r4339<:  7yyut+   +tuyy7  :O1334r455r555555&5555",
"5&55&555555555444&33#:: u yytu ttt utyy u ::13344&55&55555555555",
"5rr555555555&5r44ee11:: tu ytutuuututy ut ::#1e44rr555555555&5r5",
"5&r&5555555555&44&e#1::= tu tuuuuuuut ut =::11$44&r&5555555555&5",
"55&55555555&555444#31::  +tt+tuuuuut+tt+  :O113444&55555555&5555",
"55555r5555&5&55444431,: tttt+ tuuut +tttt o<#34444555r5555&5&555",
"5555r&r5555&&55444339O> uut+t ttttt t+tuu :O#3344455r&r5555&&555",
"5r55r&&&5555r5544e439Ooo   tu+tuuut+ut   ::103444r55r&&&5555r555",
"5&55&&55&55555544&43##::X= uutuuuuutuu =X::113444&55&&55&5555555",
"&55555&&555r5554&44331Oo== tuu 888 uut X=::91344&45555&&555r5555",
"5555555&55&&55r54444311o:=. uuu   uuu =X::##33e44555555&55&&55r5",
"555r&5555&5&55&5444e#11<:o t +tt tt+ t =:O1#34&4455r&5555&5&55&5",
"555&555555&55555444&4311:: uu       uu ::<#33444455&555555&55555",
"5555555&555555555444433#<::    &&&    :o<13344445555555&55555555",
"&55555r55555&&55&44443q11<::oX==X===;:,<1134&&44&55555r55555&&55",
"&55555&5555r5555&44444#111<,::==o;::::O1133e4445&55555&5555r5555",
"r555r555555&5555r544r443311#::::>:::,111334&4445r555r555555&5555",
"5&55&555555555555&54&44433111111<#11#113344444555&55&55555555555",
"5rr555555555&5r55rr444444433#101100111344444&4r55rr555555555&5r5",
"5&r&5555555555&55&r&4444444433#33#q#3444444445&55&r&5555555555&5",
"55&55555555&555555&54444444&443343&44444444&455555&55555555&5555",
"55555r5555&5&55555555r4444&4&44444444r4444&4&55555555r5555&5&555",
"5555r&r5555&&5555555r&r4444&&4444444r&r4445&&5555555r&r5555&&555",
"5r55r&&&5555r5555r55r&&&5555r4444r44r&&&5555r5555r55r&&&5555r555",
"5&55&&55&55555555&55&&55&55555555&55&&44&55555555&55&&55&5555555",
"&55555&&555r5555&55555&&555r5555&55554&&555r5555&55555&&555r5555",
"5555555&55&&55r55555555&55&&55r55555555&55&&55r55555555&55&&55r5",
"555r&5555&5&55&5555r&5555&5&55&5555r&5555&5&55&5555r&5555&5&55&5",
"555&555555&55555555&555555&55555555&555555&55555555&555555&55555",
"5555555&555555555555555&555555555555555&555555555555555&55555555",
"&55555r55555&&55&55555r55555&&55&55555r55555&&55&55555r55555&&55",
"&55555&5555r5555&55555&5555r5555&55555&5555r5555&55555&5555r5555",
"r555r555555&5555r555r555555&5555r555r555555&5555r555r555555&5555",
"5&55&555555555555&55&555555555555&55&555555555555&55&55555555555"
};
