/* XPM */
static char *player_run_r_1[] = {
/* columns rows colors chars-per-pixel */
"64 64 36 1 ",
"  c #3A3737",
". c #596D3D",
"X c #617743",
"o c #667D46",
"O c #697F48",
"+ c #827C7C",
"@ c #6E864C",
"# c #6F884D",
"$ c #708546",
"% c #728847",
"& c #738C4F",
"* c #788F4B",
"= c #7F974F",
"- c #80984F",
"; c #859F53",
": c #93B348",
"> c #97B84A",
", c #9DBF4C",
"< c #87A054",
"1 c #8CA657",
"2 c #8CA757",
"3 c #8DA858",
"4 c #8EA858",
"5 c #93AF5C",
"6 c #94B05C",
"7 c #BC8B6D",
"8 c #CDAE67",
"9 c #9FC14D",
"0 c #A2C54F",
"q c #A3C750",
"w c #A5C950",
"e c #A5C951",
"r c #AACF53",
"t c #B7B3B2",
"y c #D6B39D",
"u c #EFE9E7",
/* pixels */
"6rr666666666&6r66rr666666666&6r66rr666666666&6r66rr666666666&6r6",
"6&r&6666666666&66&r&6666666666&66&r&6666666666&66&r&6666666666&6",
"66&66666666&666666&66666666&666666&66666666&666666&66666666&6666",
"66666r6666&6&66666666r6666&6&66666666r6666&6&66666666r6666&6&666",
"6666r&r6666&&6666666r&r6666&&6666666r&r6666&&6666666r&r6666&&666",
"6r66r&&&6666r6666r66r&&&6666r6666r66r&&&6666r6666r66r&&&6666r666",
"6&66&&66&66666666&66&&66&66666666&66&&66&66666666&66&&66&6666666",
"&66666&&666r6666&66666&&666r6666&66666&&666r6666&66666&&666r6666",
"6666666&66&&66r66666666&66&&66r66666666&66&&66r66666666&66&&66r6",
"666r&6666&6&66&6666r&6666&6&66&6666r&6666&6&66&6666r&6666&6&66&6",
"666&666666&66666666&666666&66666665&666666&66666666&666666&66666",
"6666666&666666666666666&666666666555666&666666666666666&66666666",
"&66666r66666&&66&66666r66666&&65&56566r66666&&66&66666r66666&&66",
"&66666&6666r6666&66666&6665r5555&55555&5666r6666&66666&6666r6666",
"r666r666666&6666r666r666555&5555r555r555556&6666r666r666666&6666",
"6&66&666666666666&66&665555555555&55&555555666666&66&66666666666",
"6rr666666666&6r66rr666555555&5e44ee555555555&6r66rr666666666&6r6",
"6&r&6666666666&66&r&6655555544@24@0@4455555556&66&r&6666666666&6",
"66&66666666&666666&66655555#4   22  2445555&566666&66666666&6666",
"66666r6666&6&66666666r5555#4@ t+ < u 92445&5&56666666r6666&6&666",
"6666r&r6666&&6666666r&r5554@@ uut  u+ 92455&&5566666r&r6666&&666",
"6r66r&&&6666r6666r66r&&&5442, uuu  uu @@2455r5556r66r&&&6666r666",
"6&66&&66&66666666&66&&55&422< uyut uu+ 2@24555556&66&&66&6666666",
"&66666&&666r6666&66665&&542,; uyyu+tut o222e5555&66666&&666r6666",
"6666666&66&&66r66666655&54@O;; yyut ut o;2@@45r55666666&66&&66r6",
"666r&6666&6&66&6666r&5554@2O;= yyyu +   ;O2@45&5556r&6666&6&66&6",
"666&666666&66666665&555542@;;= 7yyu+ttuu ;@24455556&666666&66666",
"6666666&666666666655555#42<;;=* 7yu+uuuut ;224555556666&66666666",
"&66666r66666&&56&55555e422;;X   tyuuuuuuu+ <@@45&55666r66666&&66",
"&66666&6666r6556&55555@22<;  uut+uuutu uut ,2245&55566&6666r6666",
"r666r666666&6665r555e422<  +tuuu+tuuu  tuut <244e555r666666&6666",
"6&66&666666666555&55@22< tuuuuuuuuuuuuuuuuu+ 2245&55&66666666666",
"6rr666666666&5r55ee422< tuuuuuuuuutuuuuuuuut 2045er555666666&6r6",
"6&r&6666666665&55&q@2< +uuuuuuuuuu+tuuuuu 88 <@45&r&5566666666&6",
"66&66666666&555554@2< tuuuuuuuuuuuu+ tuuuu+ ;<2455&55556666&6666",
"66666r6666&6&5555422 +uuuuuuuuuuuuuut +t+  -o22455555r5666&6&666",
"6666r&r6665&&555422; tuuuuuuuuuuuuuuut   *=oo<245555r&r6666&&666",
"6r66r&&&6665r555402 u+uuuuuuuuutuuuuuut &==;,2245e55r&&&6666r666",
"6&66&&66&66555544@< utuuuuuuuttttuuuut+ .==;;2245&55&&66&6666666",
"&66666&&666r5554@2; ttuuuuuut+    +tt+ + ==><245&55566&&666r6666",
"6666666&66&&55e422;; +tuuuttt  $  tttt + =oo22q55556666&66&&66r6",
"666r&6666&6&55&422;:X tuutt  $.%%  ttt  + ;O22@5555r&6666&6&66&6",
"666&666666&5555422;o ttt+  &&&&&&& tuuu+ + <2245555&666666&66666",
"6666666&6665555422; ttuu+ ***====== uuuu + 222455556666&66666666",
"&66666r66565&&54@2;  uuut ==XX==X===       2@@55&56666r66666&&66",
"&66666&6655r5554@22;     ==:;;;;o;;-==o;;;<92455&56666&6666r6666",
"r666r666666&5555q22;>;;;;;;o;;<<,;;;:;;;;<2@2455r566r666666&6666",
"6&66&666666655554@22O;;;;;;<<2222@2<O;;;222245555&66&66666666666",
"6rr666666666&5r55q022<<<2222@204209222222224@5e55rr666666666&6r6",
"6&r&6666666655&55&0@2222222444#44@q@2222244455&55&r&6666666666&6",
"66&66666666&655555&44424444#455555@44444445&555556&66666666&6666",
"66666r6666&6&55555555e4455&5&55555555e5555&5&55556666r6666&6&666",
"6666r&r6666&&5555555e&e5555&&5555555r&e5555&&5556666r&r6666&&666",
"6r66r&&&6666r6555r55r&&&5555r5555r55r&&&5555r5566r66r&&&6666r666",
"6&66&&66&66666665&55&&55&55556666&65&&55&55566666&66&&66&6666666",
"&66666&&666r6666&66655&&566r6666&66666&&666r6666&66666&&666r6666",
"6666666&66&&66r66666666&66&&66r66666666&66&&66r66666666&66&&66r6",
"666r&6666&6&66&6666r&6666&6&66&6666r&6666&6&66&6666r&6666&6&66&6",
"666&666666&66666666&666666&66666666&666666&66666666&666666&66666",
"6666666&666666666666666&666666666666666&666666666666666&66666666",
"&66666r66666&&66&66666r66666&&66&66666r66666&&66&66666r66666&&66",
"&66666&6666r6666&66666&6666r6666&66666&6666r6666&66666&6666r6666",
"r666r666666&6666r666r666666&6666r666r666666&6666r666r666666&6666",
"6&66&666666666666&66&666666666666&66&666666666666&66&66666666666"
};
