/* XPM */
static char *player_run_b_7[] = {
/* columns rows colors chars-per-pixel */
"64 64 33 1 ",
"  c #3A3737",
". c #5E7341",
"X c #627844",
"o c #677D47",
"O c #687F48",
"+ c #827C7C",
"@ c #6E864C",
"# c #6F884D",
"$ c #738C4F",
"% c #79904B",
"& c #7A924C",
"* c #80984F",
"= c #859E53",
"- c #97B74A",
"; c #9CBE4C",
": c #87A054",
"> c #8CA657",
", c #8DA858",
"< c #8FAA59",
"1 c #93AF5C",
"2 c #94B05C",
"3 c #BC8B6D",
"4 c #C49172",
"5 c #CDAE67",
"6 c #9FC14D",
"7 c #A2C54F",
"8 c #A3C750",
"9 c #A5C950",
"0 c #A6CA51",
"q c #AACF53",
"w c #B7B3B2",
"e c #D6B39D",
"r c #EFE9E7",
/* pixels */
"2qq222222222$2q22qq222222222$2q22qq222222222$2q22qq222222222$2q2",
"2$q$2222222222$22$q$2222222222$22$q$2222222222$22$q$2222222222$2",
"22$22222222$222222$22222222$222222$22222222$222222$22222222$2222",
"22222q2222$2$22222222q2222$2$22222222q2222$2$22222222q2222$2$222",
"2222q$q2222$$2222222q$q2222$$2222222q$q2222$$2222222q$q2222$$222",
"2q22q$$$2222q2222q22q$$$2222q2222q22q$$$2222q2222q22q$$$2222q222",
"2$22$$22$22222222$22$$22$22222222$22$$22$22222222$22$$22$2222222",
"$22222$$222q2222$22222$$222q2222$22222$$222q2222$22222$$222q2222",
"2222222$22$$22q22222222$22$$22q22222222$22$$22q22222222$22$$22q2",
"222q$2222$2$22$2222q$2222$2$22$2222q$2222$2$22$2222q$2222$2$22$2",
"222$222222$22222222$222222$22222222$222222$22222222$222222$22222",
"2222222$222222222222222$222222222222222$222222222222222$22222222",
"$22222q22222$$22$22222q22222$$22$22222q22222$$22$22222q22222$$22",
"$22222$2222q2222$22222$2222q2222$22222$2222q2222$22222$2222q2222",
"q222q222222$2222q222q222222$2222q222q222222$2222q222q222222$2222",
"2$22$222222222222$22$222222222222$22$222222222222$22$22222222222",
"2qq222222222$2q22qq211122221$1q11qq111222222$2q22qq222222222$2q2",
"2$q$2222222222$22$q$1122211111$11$q$1111222222$22$q$2222222222$2",
"22$22222222$222222$21111111$111111$11111112$222222$22222222$2222",
"22222q2222$2$22222221q1111$1$1111111101111$1$22222222q2222$2$222",
"2222q$q2222$$2222211q$q1111$#<<<<<<<0$01111$$1122222q$q2222$$222",
"2q22q$$$2222q2222q11q$$$1<<<7>>   >>7@@#1111q1112q22q$$$2222q222",
"2$22$$22$22222221$11$$11@<>>>> wrw >@@><@11111111$22$$22$2222222",
"$22222$$222q2222$11111#@>>>;:= +++ =:>@@><<01111$22222$$222q2222",
"2222222$22$$22q211111<<   Oo  +wrw+  ==   @@<1011222222$22$$22q2",
"222q$2222$2$22$11110@<> wr   +rrrrr+   rw >@<1$1112q$2222$2$22$2",
"222$222222$22221111$<>> rrr +wrrrrrw+ rrr @><<11112$222222$22222",
"2222222$22222221111<<>> r3rw rrrrrrr wr3r >>><111122222$22222222",
"$22222q22222$$11$11<>>; rewr+ rrrrr +rwer =>@@11$12222q22222$$22",
"$22222$2222q1111$11<>>o  eeer+ wrw +reee  =;><11$12222$2222q2222",
"q222q222222$1211q1<<6:=  4eerw+   +wree4  =O><<1q122q222222$2222",
"2$22$222222222111$<<@== r eewr www rwee r ==><<11$22$22222222222",
"2qq222222222$2q1100>>== wr ewrwrrrwrwe rw ==@>011qq222222222$2q2",
"2$q$2222222222$11$0@>==& wr wrrrrrrrw rw &==>>#11$q$2222222222$2",
"22$22222222$222111@<>==  +ww+wrrrrrw+ww+  =O>><111$22222222$2222",
"22222q2222$2$221111<>;= wwww+ wrrrw +wwww o:@<1111222q2222$2$222",
"2222q$q2222$$22111<<6O- rrw+w wrrrw w+wrr =O@<<11122q$q2222$$222",
"2q22q$$$2222q221101<6Ooo   wr+rrrrr+rw   *=>7<111q22q$$$2222q222",
"2$22$$22$22222211$1<@@==o& rrw 555 wrr &o==>><111$22$$22$2222222",
"$22222$$222q2221$11<<>Oo&& wrrr   rrrw o&==6><11$12222$$222q2222",
"2222222$22$$22q21111<>>o=&. rrrw+wrrr &o==@@<<011222222$22$$22q2",
"222q$2222$2$22$21110@>>:=o r +w+ +w+ r &=O>@<1$1122q$2222$2$22$2",
"222$222222$22222111$1<>>== rr  www  rr *=>@<<111122$222222$22222",
"2222222$2222222221111<<@:==           =o:><<11112222222$22222222",
"$22222q22222$$22$111118>>:==oo&&.&&&&=-=>><1$$11$22222q22222$$22",
"$22222$2222q2222$11111#<>>=;==&&o&&===O>><<01112$22222$2222q2222",
"q222q222222$2222q111q11<<>>O====-===;>>><<1$1112q222q222222$2222",
"2$22$222222222221$21$111<<>>>:===O:>@>><<11111222$22$22222222222",
"2qq222222222$2q22qq111111<<<@>6>>66>><<<1111$1q22qq222222222$2q2",
"2$q$2222222222$22$q$1111111<<<@<<@7@<<11111112$22$q$2222222222$2",
"22$22222222$222222$21111111$11<<<<@11111111$122222$22222222$2222",
"22222q2222$2$22222222q1111$1$11111111q1111$1$22222222q2222$2$222",
"2222q$q2222$$2222222q$q1111$$1111111q$q1112$$2222222q$q2222$$222",
"2q22q$$$2222q2222q22q$$$2211q1111q11q$$$2222q2222q22q$$$2222q222",
"2$22$$22$22222222$22$$22$22222222$22$$11$22222222$22$$22$2222222",
"$22222$$222q2222$22222$$222q2222$22111$$222q2222$22222$$222q2222",
"2222222$22$$22q22222222$22$$22q22222222$22$$22q22222222$22$$22q2",
"222q$2222$2$22$2222q$2222$2$22$2222q$2222$2$22$2222q$2222$2$22$2",
"222$222222$22222222$222222$22222222$222222$22222222$222222$22222",
"2222222$222222222222222$222222222222222$222222222222222$22222222",
"$22222q22222$$22$22222q22222$$22$22222q22222$$22$22222q22222$$22",
"$22222$2222q2222$22222$2222q2222$22222$2222q2222$22222$2222q2222",
"q222q222222$2222q222q222222$2222q222q222222$2222q222q222222$2222",
"2$22$222222222222$22$222222222222$22$222222222222$22$22222222222"
};
