/* XPM */
static char *player_run_t_4[] = {
/* columns rows colors chars-per-pixel */
"64 64 33 1 ",
"  c #3A3737",
". c #5C7140",
"X c #627743",
"o c #677D47",
"O c #687E47",
"+ c #697F48",
"@ c #827C7C",
"# c #6E854B",
"$ c #6F884D",
"% c #70884D",
"& c #738C4F",
"* c #7D954E",
"= c #7F964F",
"- c #80984F",
"; c #869F53",
": c #8FAE46",
"> c #91B147",
", c #97B84A",
"< c #9BBC4C",
"1 c #87A054",
"2 c #8AA456",
"3 c #8CA757",
"4 c #8DA858",
"5 c #8FAA59",
"6 c #93AF5C",
"7 c #94B05C",
"8 c #9FC24E",
"9 c #A0C34E",
"0 c #A3C750",
"q c #A4C850",
"w c #AACF53",
"e c #B7B3B2",
"r c #EFE9E7",
/* pixels */
"7ww777777777&7w77ww777777777&7w77ww777777777&7w77ww777777777&7w7",
"7&w&7777777777&77&w&7777777777&77&w&7777777777&77&w&7777777777&7",
"77&77777777&777777&77777777&777777&77777777&777777&77777777&7777",
"77777w7777&7&77777777w7777&7&77777777w7777&7&77777777w7777&7&777",
"7777w&w7777&&7777777w&w7777&&7777777w&w7777&&7777777w&w7777&&777",
"7w77w&&&7777w7777w77w&&&7777w7777w77w&&&7777w7777w77w&&&7777w777",
"7&77&&77&77777777&77&&77&77777777&77&&77&77777777&77&&77&7777777",
"&77777&&777w7777&77777&&777w7777&77777&&777w7777&77777&&777w7777",
"7777777&77&&77w77777777&77&&77w77777777&77&&77w77777777&77&&77w7",
"777w&7777&7&77&7777w&7777&7&77&7777w&7777&7&77&7777w&7777&7&77&7",
"777&777777&77777777&777777&77777777&777777&77777777&777777&77777",
"7777777&777777777777777&777777777777777&777777777777777&77777777",
"&77777w77777&&77&77777w77777&&77&77777w77777&&77&77777w77777&&77",
"&77777&7777w7777&77766&6666w6677&77666&6666w6677&77777&7777w7777",
"w777w777777&7777w766w666666&6666w666w666666&6666w777w777777&7777",
"7&77&777777777777&66&666666666666&66&666666666667&77&77777777777",
"7ww777777777&7w76ww666666666&6w66ww666666666&6w66ww777777777&7w7",
"7&w&7777777777&76&w&6665555566&66&q&5555556666&66&w&7777777777&7",
"77&77777777&777766&6665   3#555666#5533   5&666667&77777777&7777",
"77777w7777&7&7766666605 er 3#335535338 re #5&66666777w7777&7&777",
"7777w&w7777&&7766666q#9 err #33333338 rre 3##6666677w&w7777&&777",
"7w77w&&&7777w7766w660## erre ;133<11 erre 3306666w77w&&&7777w777",
"7&77&&77&77777766&65##3 @rrr@ ;;;o; @rrr@ 3355666&77&&77&7777777",
"&77777&&777w7776&66533+O errr@ ;o; @rrre ;385566&67777&&777w7777",
"7777777&77&&77w66665533o @rrre     errr@ ;##55q66677777&77&&77w7",
"777w&7777&7&77&66660#33;; errre@@@errre ;o3#35&6667w&7777&7&77&7",
"777&777777&77777666&333;;* erreeeeerre *-;+35666677&777777&77777",
"7777777&777777776666333o;** ereeeeere *X;;3356666777777&77777777",
"&77777w77777&&66&66653<;;* @reeeeeeer@ *;;13#&66&77777w77777&&77",
"&77777&7777w7666&66653#;;* eeerrrrreee *-;185666&77777&7777w7777",
"w777w777777&7766w666033;;  eerrrrrrree  *;1#5666w777w777777&7777",
"7&77&777777777666&66#33;;  errrrrrrrre  *;1356666&77&77777777777",
"7ww777777777&7w76wq6533; @ @rrrrrrrrr@ @ ;33#6q66ww777777777&7w7",
"7&w&7777777777&76&q&53;; ee eerrrrree ee ;1356&66&w&7777777777&7",
"77&77777777&777766&533; @ere@errrrre@ere@ ;#356667&77777777&7777",
"77777w7777&7&776666538; @rrrrerrrrrerrrr@ o3#56666777w7777&7&777",
"7777w&w7777&&77666659#, errrrrrrrrrrrrrre ;O#5666677w&w7777&&777",
"7w77w&&&7777w7766q658#o rrrrrrrrrrrrrrrrr ;183666w77w&&&7777w777",
"7&77&&77&77777766&53#+; er@rrrrrrrrrrr@re ;;35666&77&&77&7777777",
"&77777&&777w7776&6653;oX e errrrrrrrre e *;<3566&67777&&777w7777",
"7777777&77&&77w666553;;  @ @rrrrrrrrr@ @  o+35q66677777&77&&77w7",
"777w&7777&7&77&66659#1; ee  ere@@@ere  ee ;#35&6667w&7777&7&77&7",
"777&777777&77776666#33; rr@ @@ ere @@ @rr o33566667&777777&77777",
"7777777&77777776666533;o      errre      ;;335666677777&77777777",
"&77777w77777&&76&66553<;;***. @rrr@ &*:*;;33##66&67777w77777&&77",
"&77777&7777w7776&66653#;;;*:**     ***o;;1395666&67777&7777w7777",
"w777w777777&7777w6660533;;;o****:***>;;;133#5666w777w777777&7777",
"7&77&777777777776&66&53333;;;;;--o;;o;;3333566666&77&77777777777",
"7ww777777777&7w76ww666553331+;<;;<,;;3333556&6w66ww777777777&7w7",
"7&w&7777777777&77&w&6666553333#33#<#3335566666&67&w&7777777777&7",
"77&77777777&777776&66666655#533333#35555666&666677&77777777&7777",
"77777w7777&7&77777666w6666&6$55555555q6666&6&66777777w7777&7&777",
"7777w&w7777&&7777777w&w6666&&66666660&w6666&&7777777w&w7777&&777",
"7w77w&&&7777w7777w77w&&&6666w6666w66w&&&6667w7777w77w&&&7777w777",
"7&77&&77&77777777&77&&66&76666666&66&&67&77777777&77&&77&7777777",
"&77777&&777w7777&77777&&667w7766&66777&&777w7777&77777&&777w7777",
"7777777&77&&77w77777777&77&&77w77666777&77&&77w77777777&77&&77w7",
"777w&7777&7&77&7777w&7777&7&77&7766w&7777&7&77&7777w&7777&7&77&7",
"777&777777&77777777&777777&77777776&777777&77777777&777777&77777",
"7777777&777777777777777&777777777777777&777777777777777&77777777",
"&77777w77777&&77&77777w77777&&77&77777w77777&&77&77777w77777&&77",
"&77777&7777w7777&77777&7777w7777&77777&7777w7777&77777&7777w7777",
"w777w777777&7777w777w777777&7777w777w777777&7777w777w777777&7777",
"7&77&777777777777&77&777777777777&77&777777777777&77&77777777777"
};
