/* XPM */
static char *player_run_r_0[] = {
/* columns rows colors chars-per-pixel */
"64 64 34 1 ",
"  c #3A3737",
". c #586C3D",
"X c #5D7140",
"o c #607442",
"O c #667D46",
"+ c #687E47",
"@ c #697F48",
"# c #827C7C",
"$ c #6E874C",
"% c #6F884D",
"& c #738C4F",
"* c #7E964E",
"= c #80984F",
"- c #849D52",
"; c #8DAC45",
": c #96B749",
"> c #97B84A",
", c #9BBC4C",
"< c #87A154",
"1 c #8AA456",
"2 c #8DA858",
"3 c #8EA858",
"4 c #93AF5C",
"5 c #94B05C",
"6 c #BC8B6D",
"7 c #CDAE67",
"8 c #9FC24E",
"9 c #A2C54F",
"0 c #A3C750",
"q c #A6CA51",
"w c #AACF53",
"e c #B7B3B2",
"r c #D6B39D",
"t c #EFE9E7",
/* pixels */
"5ww555555555&5w55ww555555555&5w55ww555555555&5w55ww555555555&5w5",
"5&w&5555555555&55&w&5555555555&55&w&5555555555&55&w&5555555555&5",
"55&55555555&555555&55555555&555555&55555555&555555&55555555&5555",
"55555w5555&5&55555555w5555&5&55555555w5555&5&55555555w5555&5&555",
"5555w&w5555&&5555555w&w5555&&5555555w&w5555&&5555555w&w5555&&555",
"5w55w&&&5555w5555w55w&&&5555w5555w55w&&&5555w5555w55w&&&5555w555",
"5&55&&55&55555555&55&&55&55555555&55&&55&55555555&55&&55&5555555",
"&55555&&555w5555&55555&&555w5555&55555&&555w5555&55555&&555w5555",
"5555555&55&&55w55555555&55&&55w55555555&55&&55w55555555&55&&55w5",
"555w&5555&5&55&5555w&5555&5&55&5555w&5555&5&55&5555w&5555&5&55&5",
"555&555555&55555555&555555&55555555&555555&55555555&555555&55555",
"5555555&555555555555555&555555555555555&555555555555555&55555555",
"&55555w55555&&55&55555w55555&&55&55555w55555&&55&55555w55555&&55",
"&55555&5555w5555&55555&5555w5544&55555&5555w5555&55555&5555w5555",
"w555w555555&5555w555w555544&4444w444w445555&5555w555w555555&5555",
"5&55&555555555555&55&554444444444&44&444455555555&55&55555555555",
"5ww555555555&5w55ww544444444&4q44qq444444454&5w55ww555555555&5w5",
"5&w&5555555555&55&w&4444444444$33%q&4444444455&55&w&5555555555&5",
"55&55555555&555555&55444444%313333$33444444&555555&55555555&5555",
"55555w5555&5&55555555w4444%3   11  1304444&4&55555555w5555&5&555",
"5555w&w5555&&5555555w&w4433$ e# < t 8$03444&&4555555w&w5555&&555",
"5w55w&&&5555w5555w55w&&&4311 tte  t# $$$4444w5555w55w&&&5555w555",
"5&55&&55&55555555&55&&44%311 ttt  tt @11$44444555&55&&55&5555555",
"&55555&&555w5555&55544&&311, trte tt# $$134q4455&55555&&555w5555",
"5555555&55&&55w55544444&31$O trrt#ete -$13%&44w55555555&55&&55w5",
"555w&5555&5&55&5555w&4433$<O= rrte te --1$3&44&4555w&5555&5&55&5",
"555&555555&55555554&444311+-* rrrt #   -<1$34444455&555555&55555",
"5555555&555555555444443$11--* 6rrt#eett -11334444555555&55555555",
"&55555w55555&&44&44444011--*oX 6rt#tttte -11$&44&45555w55555&&55",
"&55555&5555w4444&44443$1<-     erttttttt# <81344&45555&5555w5555",
"w555w555555&5544w4440111  #ette#tttet tte -$1344w445w555555&5555",
"5&55&555555555444&43$11 etttttt#ettt  ette <13344&45&55555555555",
"5ww555555555&4w44qq311 etttttttttttttttttt# $1044ww555555555&5w5",
"5&w&5555555554&44%9$1 #ttttttttttetttttttte 11$44&w&5555555555&5",
"55&55555555&444443$1- etttttttttt#ettttt 77 113444&55555555&5555",
"55555w5555&5&444331< #tttttttttttt# etttt# -$13444454w5555&5&555",
"5555w&w5554&&444311- ettttttttttttte #e#  -O@1334445w&w5555&&555",
"5w55w&&&5554w44438< t#tttttttttttttte   **--81344w45w&&&5555w555",
"5&55&&55&55444433$- tetttttttttetttte &*o--<13344&45&&55&5555555",
"&55555&&555w4443$1- eetttttttteettte# Xo*--81344&44555&&555w5555",
"5555555&55&&44q311-- #ttetttte eeee# &*o--@$33q44445555&55&&55w5",
"555w&5555&5&44&311-: #ete ee# #ee#   **--$1$34&4445w&5555&5&55&5",
"555&555555&5444331<O* eee#    eee  # **--1$34444445&555555&55555",
"5555555&55554444311-- #eett#  ettt# e -O113444444555555&55555555",
"&55555w55554&&44$11--*  ttte . tttt e ><1134&&44&55555w55555&&55",
"&55555&5555w4444%311--O     &&&      -@1134q4444&55555&5555w5555",
"w555w555555&4444q311,--=***X****;**-:-11334&4455w555w555555&5555",
"5&55&555555554444%31$<----******=O--@111344444455&55&55555555555",
"5ww555555555&4w44qq3111<----O-:--,,<11134444&5w55ww555555555&5w5",
"5&w&5555555555&44&q%31111<<<<<@<<$8$1133444445&55&w&5555555555&5",
"55&55555555&554444&44331111$111111$13344444&444555&55555555&5555",
"55555w5555&5&55444444q4333$3$33333333q4444&4&44555555w5555&5&555",
"5555w&w5555&&5554444w&q4444&&4444444q&q4444&&5555555w&w5555&&555",
"5w55w&&&5555w5555w44w&&&4444q4444q44w&&&4445w5555w55w&&&5555w555",
"5&55&&55&55555555&54&&44&44444444&44&&44&55555555&55&&55&5555555",
"&55555&&555w5555&55555&&444w4444&44445&&555w5555&55555&&555w5555",
"5555555&55&&55w55555555&55&&55w55444555&55&&55w55555555&55&&55w5",
"555w&5555&5&55&5555w&5555&5&55&5554w&5555&5&55&5555w&5555&5&55&5",
"555&555555&55555555&555555&55555555&555555&55555555&555555&55555",
"5555555&555555555555555&555555555555555&555555555555555&55555555",
"&55555w55555&&55&55555w55555&&55&55555w55555&&55&55555w55555&&55",
"&55555&5555w5555&55555&5555w5555&55555&5555w5555&55555&5555w5555",
"w555w555555&5555w555w555555&5555w555w555555&5555w555w555555&5555",
"5&55&555555555555&55&555555555555&55&555555555555&55&55555555555"
};
