/* XPM */
static char *enemy_run_r_1[] = {
/* columns rows colors chars-per-pixel */
"64 64 38 1 ",
"  c black",
". c #222121",
"X c gray21",
"o c #5E2A22",
"O c #55673A",
"+ c #56683B",
"@ c #586C3D",
"# c #565656",
"$ c #5F7441",
"% c #627743",
"& c #667D46",
"* c #697F48",
"= c #6E8244",
"- c #6E874C",
"; c #6F884D",
": c #718646",
"> c #738947",
", c #738C4F",
"< c #788E4A",
"1 c #7E964E",
"2 c #80984F",
"3 c #859F53",
"4 c #89A743",
"5 c #8AA843",
"6 c #92B247",
"7 c #95B549",
"8 c #9ABC4B",
"9 c #87A154",
"0 c #8AA456",
"q c #8DA858",
"w c #8EA958",
"e c #93AF5B",
"r c #94B05C",
"t c #A0C34E",
"y c #A3C750",
"u c #A5C950",
"i c #A5C951",
"p c #AACF53",
/* pixels */
"rpprrrrrrrrr,rprrpprrrrrrrrr,rprrpprrrrrrrrr,rprrpprrrrrrrrr,rpr",
"r,p,rrrrrrrrrr,rr,p,rrrrrrrrrr,rr,p,rrrrrrrrrr,rr,p,rrrrrrrrrr,r",
"rr,rrrrrrrr,rrrrrr,rrrrrrrr,rrrrrr,rrrrrrrr,rrrrrr,rrrrrrrr,rrrr",
"rrrrrprrrr,r,rrrrrrrrprrrr,r,rrrrrrrrprrrr,r,rrrrrrrrprrrr,r,rrr",
"rrrrp,prrrr,,rrrrrrrp,prrrr,,rrrrrrrp,prrrr,,rrrrrrrp,prrrr,,rrr",
"rprrp,,,rrrrprrrrprrp,,,rrrrprrrrprrp,,,rrrrprrrrprrp,,,rrrrprrr",
"r,rr,,rr,rrrrrrrr,rr,,rr,rrrrrrrr,rr,,rr,rrrrrrrr,rr,,rr,rrrrrrr",
",rrrrr,,rrrprrrr,rrrrr,,rrrprrrr,rrrrr,,rrrprrrr,rrrrr,,rrrprrrr",
"rrrrrrr,rr,,rrprrrrrrrr,rr,,rrprrrrrrrr,rr,,rrprrrrrrrr,rr,,rrpr",
"rrrp,rrrr,r,rr,rrrrp,rrrr,r,rr,rrrrp,rrrr,r,rr,rrrrp,rrrr,r,rr,r",
"rrr,rrrrrr,rrrrrrrr,rrrrrr,rrrrrrrr,rrrrrr,rrrrrrrr,rrrrrr,rrrrr",
"rrrrrrr,rrrrrrrrrrrrrrr,rrrrrrrrrrrrrrr,rrrrrrrrrrrrrrr,rrrrrrrr",
",rrrrrprrrrr,,rr,rrrrrprrrrr,,rr,rrrrrprrrrr,,rr,rrrrrprrrrr,,rr",
",rrrrr,rrrrprrrr,rrrrr,rrrrprrrr,rrrrr,rrrrprrrr,rrrrr,rrrrprrrr",
"prrrprrrrrr,rrrrprrrprrrrrr,rrrrprrrprrrrrr,errrprrrprrrrrr,rrrr",
"r,rr,rrrrrrrrrrrr,rr,rrrrrrrrrrrr,rr,rrrrrrrereee,rr,rrrrrrrrrrr",
"rpprrrrrrrrr,rprrpprrrrrrrrr,rprrpprrrrrrrrr,epeepperrrrrrrr,rpr",
"r,p,rrrrrrrrrr,rr,p,rrrrrrrrrr,rr,p,rrrrrrreee,  ,p,errrrrrrrr,r",
"rr,rrrrrrrr,rrrrrr,rrrrrrrr,rrrrrr,errrrrre,ew # w,eerrrrrr,rrrr",
"rrrrrprrrr,r,rrrrrrreperrr,r,rrrrrrrrpeeee,w- .# 0weeprrrr,r,rrr",
"rrrrp,prrrr,,rrrrrrrp,prrrr,,rrrrrrep,peeew-  .## 0wi,prrrr,,rrr",
"rprrp,,,rrrrprrrrprrp,,,eeeepeeerpeei,;-    ..X###  y,,,rrrrprrr",
"r,rr,,rr,rrrerrrr,ee,,ee,eeeeeeee,ee-   ....XX###### -ee,rrrrrrr",
",rrrrr,,rrrprrre,eeeew        ww-ww  ...XXXX#####XX. 0;,errprrrr",
"rrrrrrr,rr,,rrpeeeww  ........     ..XXX##########.o 90,ee,,rrpr",
"rrrp,rrrr,r,re,ew   ..XXXXXXXX.....XX##############X. 0we,e,rr,r",
"rrr,rrrrrr,reeew XX .X########XXXXX###########XXX##### 0we,errrr",
"rrrrrrr,rrreeew X. .X#######################XX...X#####  weerrrr",
",rrrrrprerre,-0 X  .X######################X...     ##   wee,,rr",
",rrrrr,rrrepe0 #.  .X#####X###############X... =+:::    30eperrr",
"prrrprrrrre,w0 #.  .X#####XXXX############X.. :,4<<,4<1130w,errr",
"r,rr,rrrreee0 #X.  .X#####X...XXX##X######X. ><11&31%12300eeerrr",
"rpprrrrrreew- #X.  .X#####X......XXX######X. 163988933300wee,rpr",
"r,p,rrrrree03 #. O .X#####    .....X##### . <1&0w-y-000wweeerr,r",
"rr,rrrrreew- #X. =O .X#### +==   ..X#### . @130wee,eeeeeeee,rrrr",
"rrrrrprree-9 #X. ::  X### @,@,,:=  .### . @1&0weeeeeepeeee,r,rrr",
"rrrrp,peee0 #XX. ,,  X## ,<%%111,: ### .. 1&-weeerrrp,prrrr,,rrr",
"rprrp,,,ew9 #X. ,4, X## ,123833314 ##  .. 13teeerprrp,,,rrrrprrr",
"r,rr,,ee-0 #X.. <$ ### ,$33000093% ##  .. 20weerr,rr,,rr,rrrrrrr",
",rrrre,,0 XX.  <%1 ### $230ieew0*1 ## O . 38weee,rrrrr,,rrrprrrr",
"rrrrree-     ,5111  ## %30-,eeiw03 ## = . &-eeprrrrrrrr,rr,,rrpr",
"rrrp,eew0&1$11%3331  ## 3-e,ee,w03 ## = . 3-ee,errrp,rrrr,r,rr,r",
"rrr,reew03&22339931 . ## 0;eeeew03 # :: . &0weeerrr,rrrrrr,rrrrr",
"rrrrree;00939000092 .  ## weeee0  ## ,, . 30weeerrrrrrr,rrrrrrrr",
",rrrrepeww00--ee-031 . ## 0w,,w ### <15 ..  -,ee,rrrrrprrrrr,,rr",
",rrrre,eeeeieeee,031 .   30yee0    111%1 ... wee,rrrrr,rrrrprrrr",
"prrrpreeeee,eeeeiw035    30-ew03711173311    0eeprrrprrrrrr,rrrr",
"r,rr,rrrrreeeeree,03&1<1130wew003&33-093211330eee,rr,rrrrrrrrrrr",
"rpprrrrrrrrr,rpreii03312300e,ey008800w003333*0ieepprrrrrrrrr,rpr",
"r,p,rrrrrrrrrr,re,i-003900weee,ww-t-eeew00000w,ee,p,rrrrrrrrrr,r",
"rr,rrrrrrrr,rrrrre,eww0wwee,eeeeee,eeeeewww-weeere,rrrrrrrr,rrrr",
"rrrrrprrrr,r,rrrrreeeieeee,e,eeeeeeeepeeee,e,eeeeerrrprrrr,r,rrr",
"rrrrp,prrrr,,rrrrrrep,peeee,,rrrrrrrp,peeee,,eerrrrrp,prrrr,,rrr",
"rprrp,,,rrrrprrrrprrp,,,rrrrprrrrprrp,,,rrrrprrrrprrp,,,rrrrprrr",
"r,rr,,rr,rrrrrrrr,rr,,rr,rrrrrrrr,rr,,rr,rrrrrrrr,rr,,rr,rrrrrrr",
",rrrrr,,rrrprrrr,rrrrr,,rrrprrrr,rrrrr,,rrrprrrr,rrrrr,,rrrprrrr",
"rrrrrrr,rr,,rrprrrrrrrr,rr,,rrprrrrrrrr,rr,,rrprrrrrrrr,rr,,rrpr",
"rrrp,rrrr,r,rr,rrrrp,rrrr,r,rr,rrrrp,rrrr,r,rr,rrrrp,rrrr,r,rr,r",
"rrr,rrrrrr,rrrrrrrr,rrrrrr,rrrrrrrr,rrrrrr,rrrrrrrr,rrrrrr,rrrrr",
"rrrrrrr,rrrrrrrrrrrrrrr,rrrrrrrrrrrrrrr,rrrrrrrrrrrrrrr,rrrrrrrr",
",rrrrrprrrrr,,rr,rrrrrprrrrr,,rr,rrrrrprrrrr,,rr,rrrrrprrrrr,,rr",
",rrrrr,rrrrprrrr,rrrrr,rrrrprrrr,rrrrr,rrrrprrrr,rrrrr,rrrrprrrr",
"prrrprrrrrr,rrrrprrrprrrrrr,rrrrprrrprrrrrr,rrrrprrrprrrrrr,rrrr",
"r,rr,rrrrrrrrrrrr,rr,rrrrrrrrrrrr,rr,rrrrrrrrrrrr,rr,rrrrrrrrrrr"
};
