/* XPM */
static char *enemy_run_r_5[] = {
/* columns rows colors chars-per-pixel */
"64 64 37 1 ",
"  c black",
". c #222121",
"X c gray21",
"o c #5E2A22",
"O c #55673A",
"+ c #56683B",
"@ c #586B3C",
"# c #565656",
"$ c #5F7441",
"% c #627743",
"& c #667D46",
"* c #677E47",
"= c #6E8244",
"- c #6E874C",
"; c #6F884D",
": c #718646",
"> c #738947",
", c #738C4F",
"< c #788E4A",
"1 c #7E964E",
"2 c #80984F",
"3 c #859F53",
"4 c #89A743",
"5 c #8AA843",
"6 c #92B247",
"7 c #97B84A",
"8 c #99BB4B",
"9 c #87A154",
"0 c #8AA456",
"q c #8DA858",
"w c #8EA958",
"e c #93AF5B",
"r c #94B05C",
"t c #A2C54F",
"y c #A3C750",
"u c #A6CA51",
"i c #AACF53",
/* pixels */
"riirrrrrrrrr,rirriirrrrrrrrr,rirriirrrrrrrrr,rirriirrrrrrrrr,rir",
"r,i,rrrrrrrrrr,rr,i,rrrrrrrrrr,rr,i,rrrrrrrrrr,rr,i,rrrrrrrrrr,r",
"rr,rrrrrrrr,rrrrrr,rrrrrrrr,rrrrrr,rrrrrrrr,rrrrrr,rrrrrrrr,rrrr",
"rrrrrirrrr,r,rrrrrrrrirrrr,r,rrrrrrrrirrrr,r,rrrrrrrrirrrr,r,rrr",
"rrrri,irrrr,,rrrrrrri,irrrr,,rrrrrrri,irrrr,,rrrrrrri,irrrr,,rrr",
"rirri,,,rrrrirrrrirri,,,rrrrirrrrirri,,,rrrrirrrrirri,,,rrrrirrr",
"r,rr,,rr,rrrrrrrr,rr,,rr,rrrrrrrr,rr,,rr,rrrrrrrr,rr,,rr,rrrrrrr",
",rrrrr,,rrrirrrr,rrrrr,,rrrirrrr,rrrrr,,rrrirrrr,rrrrr,,rrrirrrr",
"rrrrrrr,rr,,rrirrrrrrrr,rr,,rrirrrrrrrr,rr,,rrirrrrrrrr,rr,,rrir",
"rrri,rrrr,r,rr,rrrri,rrrr,r,rr,rrrri,rrrr,r,rr,rrrri,rrrr,r,rr,r",
"rrr,rrrrrr,rrrrrrrr,rrrrrr,rrrrrrrr,rrrrrr,rrrrrrrr,rrrrrr,rrrrr",
"rrrrrrr,rrrrrrrrrrrrrrr,rrrrrrrrrrrrrrr,rrrrrrrrrrrrrrr,rrrrrrrr",
",rrrrrirrrrr,,rr,rrrrrirrrrr,,rr,rrrrrirrrrr,,rr,rrrrrirrrrr,,rr",
",rrrrr,rrrrirrrr,rrrrr,rrrrirrrr,rrrrr,rrrrirrrr,rrrrr,rrrrirrrr",
"irrrirrrrrr,rrrrirrrirrrrrr,rrrrirrrirrrrrr,errrirrrirrrrrr,rrrr",
"r,rr,rrrrrrrrrrrr,rr,rrrrrrrrrrrr,rr,rrrrrrrereee,rr,rrrrrrrrrrr",
"riirrrrrrrrr,rirriirrrrrrrrr,rirriirrrrrrrrr,eieeiierrrrrrrr,rir",
"r,i,rrrrrrrrrr,rr,i,rrrrrrrrrr,rr,i,rrrrrrreee,  ,i,errrrrrrrr,r",
"rr,rrrrrrrr,rrrrrr,rrrrrrrr,rrrrrr,errrrrre,ew # w,eerrrrrr,rrrr",
"rrrrrirrrr,r,rrrrrrreierrr,r,rrrrrrrrieeee,w- .# 0weeirrrr,r,rrr",
"rrrri,irrrr,,rrrrrrri,irrrr,,rrrrrrei,ieeew-  .## 0wu,irrrr,,rrr",
"rirri,,,rrrrirrrrirri,,,eeeeieeerieeu,;-    ..X###  y,,,rrrrirrr",
"r,rr,,rr,rrrerrrr,ee,,ee,eeeeeeee,ee-   ....XX###### -ee,rrrrrrr",
",rrrrr,,rrrirrre,eeeew        ww-ww  ...XXXX#####XX. 0;,errirrrr",
"rrrrrrr,rr,,rrieeeww  ........     ..XXX##########.o 90,ee,,rrir",
"rrri,rrrr,r,re,ew   ..XXXXXXXX.....XX##############X. 0we,e,rr,r",
"rrr,rrrrrr,reeew XX .X########XXXXX###########XXX##### 0we,errrr",
"rrrrrrr,rrreeew X. .X#######################XX...X#####  weerrrr",
",rrrrrirerre,-0 X  .X######################X...     ##   wee,,rr",
",rrrrr,rrreie0 #.  .X#####################X... =+:::    30eierrr",
"irrrirrrrre,w0 #.  .X#######XX############X.. :,4<<,4<1130w,errr",
"r,rr,rrrreee0 #X.  .X######XX.XXX#########X. ><11&31%12300eeerrr",
"riirrrrrreew- #X.  .X#####X......XXXX##### . 163988933300wee,rir",
"r,i,rrrrree03 #. O .X#####X   .......X####  <1&0w-y-000wweeerr,r",
"rr,rrrrreew- #X. =O .X#### +==   ....X#### @130wee,eeeeeeee,rrrr",
"rrrrrirree-9 #X. :: .X### @,@,,:=     ### @1&0weeeeeeieeee,r,rrr",
"rrrri,ieee0 #XX. ,,  X## ><%%111,>= .. ## 1&-weeerrri,irrrr,,rrr",
"rirri,,,ew9 #X. ,4,  X## 113833315, .. ## 13teeerirri,,,rrrrirrr",
"r,rr,,ee-0 #X.. <$ . X# $13000003&1 .. ## 20weerr,rr,,rr,rrrrrrr",
",rrrre,,0 XX.  <%1 . ## 130teeew-31 .. ## 38weee,rrrrr,,rrrirrrr",
"rrrrree-     ,5111 . # $19-,eeie03 ... ## &-eeierrrrrrr,rr,,rrir",
"rrri,eew0&1$11%3331  #  3-w,ee,e03 ...= # 3-ee,errri,rrrr,r,rr,r",
"rrr,reew03&22330031$ # . 0-eeeew  .. := # &0weeerrr,rrrrrr,rrrrr",
"rrrrree;009390000031 # .. 0eeew ... ,,, # 30weeerrrrrrr,rrrrrrrr",
",rrrreieww00--ee;031 ##   0w,,0    1115 ##  -,ee,rrrrrirrrrr,,rr",
",rrrre,eeeeueeee,w031 ### 0tww03&11122%1 ### wee,rrrrr,rrrrirrrr",
"irrrireeeee,eeeeie036<    3-ww00733383321    0eeirrrirrrrrr,rrrr",
"r,rr,rrrrreeeerre,w0&1111390eew00-00-003211330eee,rr,rrrrrrrrrrr",
"riirrrrrrrrr,rireiuw0331330w,euwwttweww03333&0ueeiirrrrrrrrr,rir",
"r,i,rrrrrrrrrr,rr,i,w00990weee,ee,u,eeew00000w,ee,i,rrrrrrrrrr,r",
"rr,rrrrrrrr,rrrrrr,eeww0wwe,eeeeee,eeeeewww-weeere,rrrrrrrr,rrrr",
"rrrrrirrrr,r,rrrrrreeieeee,e,eeeeeeerieeee,e,eeeeerrrirrrr,r,rrr",
"rrrri,irrrr,,rrrrrrri,ieeee,,rrrrrrri,ieeee,,eerrrrri,irrrr,,rrr",
"rirri,,,rrrrirrrrirri,,,rrrrirrrrirri,,,rrrrirrrrirri,,,rrrrirrr",
"r,rr,,rr,rrrrrrrr,rr,,rr,rrrrrrrr,rr,,rr,rrrrrrrr,rr,,rr,rrrrrrr",
",rrrrr,,rrrirrrr,rrrrr,,rrrirrrr,rrrrr,,rrrirrrr,rrrrr,,rrrirrrr",
"rrrrrrr,rr,,rrirrrrrrrr,rr,,rrirrrrrrrr,rr,,rrirrrrrrrr,rr,,rrir",
"rrri,rrrr,r,rr,rrrri,rrrr,r,rr,rrrri,rrrr,r,rr,rrrri,rrrr,r,rr,r",
"rrr,rrrrrr,rrrrrrrr,rrrrrr,rrrrrrrr,rrrrrr,rrrrrrrr,rrrrrr,rrrrr",
"rrrrrrr,rrrrrrrrrrrrrrr,rrrrrrrrrrrrrrr,rrrrrrrrrrrrrrr,rrrrrrrr",
",rrrrrirrrrr,,rr,rrrrrirrrrr,,rr,rrrrrirrrrr,,rr,rrrrrirrrrr,,rr",
",rrrrr,rrrrirrrr,rrrrr,rrrrirrrr,rrrrr,rrrrirrrr,rrrrr,rrrrirrrr",
"irrrirrrrrr,rrrrirrrirrrrrr,rrrrirrrirrrrrr,rrrrirrrirrrrrr,rrrr",
"r,rr,rrrrrrrrrrrr,rr,rrrrrrrrrrrr,rr,rrrrrrrrrrrr,rr,rrrrrrrrrrr"
};
