/* XPM */
static char *enemy_run_r_3[] = {
/* columns rows colors chars-per-pixel */
"64 64 40 1 ",
"  c black",
". c #222121",
"X c gray21",
"o c #5E2A22",
"O c #55673A",
"+ c #55683B",
"@ c #5A6E3E",
"# c #565656",
"$ c #5E7240",
"% c #617542",
"& c #667D46",
"* c #697F48",
"= c #6E8345",
"- c #6E874C",
"; c #6F884D",
": c #718646",
"> c #738947",
", c #70884D",
"< c #738C4F",
"1 c #788F4B",
"2 c #7D944E",
"3 c #80984F",
"4 c #859F53",
"5 c #88A642",
"6 c #8EAD45",
"7 c #92B247",
"8 c #97B74A",
"9 c #97B84A",
"0 c #9DBF4C",
"q c #87A154",
"w c #8AA456",
"e c #8EA858",
"r c #8EA958",
"t c #93AF5B",
"y c #94B05C",
"u c #9FC24E",
"i c #A2C54F",
"p c #A3C750",
"a c #A6CA51",
"s c #AACF53",
/* pixels */
"yssyyyyyyyyy<ysyyssyyyyyyyyy<ysyyssyyyyyyyyy<ysyyssyyyyyyyyy<ysy",
"y<s<yyyyyyyyyy<yy<s<yyyyyyyyyy<yy<s<yyyyyyyyyy<yy<s<yyyyyyyyyy<y",
"yy<yyyyyyyy<yyyyyy<yyyyyyyy<yyyyyy<yyyyyyyy<yyyyyy<yyyyyyyy<yyyy",
"yyyyysyyyy<y<yyyyyyyysyyyy<y<yyyyyyyysyyyy<y<yyyyyyyysyyyy<y<yyy",
"yyyys<syyyy<<yyyyyyys<syyyy<<yyyyyyys<syyyy<<yyyyyyys<syyyy<<yyy",
"ysyys<<<yyyysyyyysyys<<<yyyysyyyysyys<<<yyyysyyyysyys<<<yyyysyyy",
"y<yy<<yy<yyyyyyyy<yy<<yy<yyyyyyyy<yy<<yy<yyyyyyyy<yy<<yy<yyyyyyy",
"<yyyyy<<yyysyyyy<yyyyy<<yyysyyyy<yyyyy<<yyysyyyy<yyyyy<<yyysyyyy",
"yyyyyyy<yy<<yysyyyyyyyy<yy<<yysyyyyyyyy<yy<<yysyyyyyyyy<yy<<yysy",
"yyys<yyyy<y<yy<yyyys<yyyy<y<yy<yyyys<yyyy<y<yy<yyyys<yyyy<y<yy<y",
"yyy<yyyyyy<yyyyyyyy<yyyyyy<yyyyyyyy<yyyyyy<yyyyyyyy<yyyyyy<yyyyy",
"yyyyyyy<yyyyyyyyyyyyyyy<yyyyyyyyyyyyyyy<yyyyyyyyyyyyyyy<yyyyyyyy",
"<yyyyysyyyyy<<yy<yyyyysyyyyy<<yy<yyyyysyyyyy<<yy<yyyyysyyyyy<<yy",
"<yyyyy<yyyysyyyy<yyyyy<yyyysyyyy<yyyyy<yyyysyyyy<yyyyy<yyyysyyyy",
"syyysyyyyyy<yyyysyyysyyyyyy<yyyysyyysyyyyyy<tyyysyyysyyyyyy<yyyy",
"y<yy<yyyyyyyyyyyy<yy<yyyyyyyyyyyy<yy<yyyyyyytyttt<yy<yyyyyyyyyyy",
"yssyyyyyyyyy<ysyyssyyyyyyyyy<ysyyssyyyyyyyyy<tsttsstyyyyyyyy<ysy",
"y<s<yyyyyyyyyy<yy<s<yyyyyyyyyy<yy<s<yyyyyyyttt<  <s<tyyyyyyyyy<y",
"yy<yyyyyyyy<yyyyyy<yyyyyyyy<yyyyyy<tyyyyyyt<tr # r<ttyyyyyy<yyyy",
"yyyyysyyyy<y<yyyyyyytstyyy<y<yyyyyyyystttt<r- .# wrttsyyyy<y<yyy",
"yyyys<syyyy<<yyyyyyys<syyyy<<yyyyyyts<stttr-  .## wra<syyyy<<yyy",
"ysyys<<<yyyysyyyysyys<<<ttttstttystta<;-    ..X###  p<<<yyyysyyy",
"y<yy<<yy<yyytyyyy<tt<<tt<tttttttt<tt-   ....XX###### -tt<yyyyyyy",
"<yyyyy<<yyysyyyt<ttttr        rr-rr  ...XXXX#####XX. w;<tyysyyyy",
"yyyyyyy<yy<<yystttrr  ........     ..XXX##########.o qw<tt<<yysy",
"yyys<yyyy<y<yt<tr   ..XXXXXXXX.....XX##############X. wrt<t<yy<y",
"yyy<yyyyyy<ytttr XX .X########XXXXX###########XXX##### wrt<tyyyy",
"yyyyyyy<yyytttr X. .X#######################XX...X#####  rttyyyy",
"<yyyyysytyyt<-w X  .X######################X...     ##   rtt<<yy",
"<yyyyy<yyytstw #.  .X#####################X... =+:::    4wtstyyy",
"syyysyyyyyt<rw #.  .X#####XXXX############X.. :<511<51224wr<tyyy",
"y<yy<yyyytttw #X.  .X#####X...XXX######### . >122&42%234wwtttyyy",
"yssyyyyyyttr- #X.  .X#####X......XXXX##### . 274q00q444wwrtt<ysy",
"y<s<yyyyyttw4 #.   .X#####X   ......X#####  12&wr-p-wwwrrtttyy<y",
"yy<yyyyyttr- #X.    .X#### O==   ...X##### @24wrtt<tttttttt<yyyy",
"yyyyysyytt-q #X.  .. .X### :@<<>:   X#### @2&wrttttttstttt<y<yyy",
"yyyys<stttw #XX. ... .X### $$222<<:= #### 1&*wtttyyys<syyyy<<yyy",
"ysyys<<<trq #X.  .... .X## 28444261<  #### 4urttysyys<<<yyyysyyy",
"y<yy<<tt-w #X.. ...    .X# 34wwwq&22 .  ### wrtty<yy<<yy<yyyyyyy",
"<yyyyt<<w XX.  ... ===+ X# 8wrrr-w42 ..   ## wtt<yyyyy<<yyysyyyy",
"yyyyytt-     = .. :<<<> X# &wrattw4 .. +:< ## itttyyyyy<yy<<yysy",
"yyys<ttrw&2$<: . <16%22< # &wr<ttrq . <<<$2 ## rttts<yyyy<y<yy<y",
"yyy<yttrw4&22< . 12&4432 ## wrtttw4 . 2222%2 # wrtt<yyyyyy<yyyyy",
"yyyyytt;ww4422 . 24www4&2 ## wrtrw . 22&4442 # wrttyyyy<yyyyyyyy",
"<yyyytstrrww&& . 4wrrru422 ##  w-q . 28qww43 # 4-ttyyysyyyyy<<yy",
"<yyyyt<ttttiw4 . 4wrtt-w422 ### -4 .. &wrrw92  4-ttyyy<yyyysyyyy",
"syyystttttt<w44  4wtsttrw42%    043   qrttw-444wittysyyyyyy<yyyy",
"y<yy<yytyyttrw444-wt<tttww4322444&42&4wrttrwwqwwr<ty<yyyyyyyyyyy",
"yssyyyyyyytt;w0qwupttytttww4&484w0044qwrtttr-wirtssytyyyyyyy<ysy",
"y<s<yyyyyytttr-ww-a<tyytttrwwq-ww-u-wwrttttttr<tt<s<yyyyyyyyyy<y",
"yy<yyyyyyyy<tttrtt<ttyyyttt;rrrrrr-rrrttttt<tttttt<tyyyyyyy<yyyy",
"yyyyysyyyy<y<tttttttysyyyt<t<ttttttttattty<y<tttyyyyysyyyy<y<yyy",
"yyyys<syyyy<<yttttyys<syyyt<<ttttttts<styyy<<yyyyyyys<syyyy<<yyy",
"ysyys<<<yyyysyyyysyys<<<yyyysyyyysyys<<<yyyysyyyysyys<<<yyyysyyy",
"y<yy<<yy<yyyyyyyy<yy<<yy<yyyyyyyy<yy<<yy<yyyyyyyy<yy<<yy<yyyyyyy",
"<yyyyy<<yyysyyyy<yyyyy<<yyysyyyy<yyyyy<<yyysyyyy<yyyyy<<yyysyyyy",
"yyyyyyy<yy<<yysyyyyyyyy<yy<<yysyyyyyyyy<yy<<yysyyyyyyyy<yy<<yysy",
"yyys<yyyy<y<yy<yyyys<yyyy<y<yy<yyyys<yyyy<y<yy<yyyys<yyyy<y<yy<y",
"yyy<yyyyyy<yyyyyyyy<yyyyyy<yyyyyyyy<yyyyyy<yyyyyyyy<yyyyyy<yyyyy",
"yyyyyyy<yyyyyyyyyyyyyyy<yyyyyyyyyyyyyyy<yyyyyyyyyyyyyyy<yyyyyyyy",
"<yyyyysyyyyy<<yy<yyyyysyyyyy<<yy<yyyyysyyyyy<<yy<yyyyysyyyyy<<yy",
"<yyyyy<yyyysyyyy<yyyyy<yyyysyyyy<yyyyy<yyyysyyyy<yyyyy<yyyysyyyy",
"syyysyyyyyy<yyyysyyysyyyyyy<yyyysyyysyyyyyy<yyyysyyysyyyyyy<yyyy",
"y<yy<yyyyyyyyyyyy<yy<yyyyyyyyyyyy<yy<yyyyyyyyyyyy<yy<yyyyyyyyyyy"
};
