/* XPM */
static char *enemy_run_r_0[] = {
/* columns rows colors chars-per-pixel */
"64 64 42 1 ",
"  c black",
". c #222121",
"X c gray21",
"o c #5E2A22",
"O c #536439",
"+ c #576A3C",
"@ c #596D3D",
"# c #5C703F",
"$ c #565656",
"% c #5E7240",
"& c #607442",
"* c #657B45",
"= c #6B7F42",
"- c #687F48",
"; c #7C973D",
": c #6E8244",
"> c #6E874C",
", c #6F884D",
"< c #708546",
"1 c #738947",
"2 c #738C4F",
"3 c #788E4A",
"4 c #7F974F",
"5 c #80984F",
"6 c #849D52",
"7 c #86A341",
"8 c #88A642",
"9 c #8AA843",
"0 c #91B147",
"q c #97B74A",
"w c #99BA4B",
"e c #87A154",
"r c #8AA456",
"t c #8DA858",
"y c #8EA958",
"u c #93AF5B",
"i c #94B05C",
"p c #9FC14D",
"a c #A0C34E",
"s c #A3C750",
"d c #A4C850",
"f c #AACF53",
/* pixels */
"iffiiiiiiiii2ifiiffiiiiiiiii2ifiiffiiiiiiiii2ifiiffiiiiiiiii2ifi",
"i2f2iiiiiiiiii2ii2f2iiiiiiiiii2ii2f2iiiiiiiiii2ii2f2iiiiiiiiii2i",
"ii2iiiiiiii2iiiiii2iiiiiiii2iiiiii2iiiiiiii2iiiiii2iiiiiiii2iiii",
"iiiiifiiii2i2iiiiiiiifiiii2i2iiiiiiiifiiii2i2iiiiiiiifiiii2i2iii",
"iiiif2fiiii22iiiiiiif2fiiii22iiiiiiif2fiiii22iiiiiiif2fiiii22iii",
"ifiif222iiiifiiiifiif222iiiifiiiifiif222iiiifiiiifiif222iiiifiii",
"i2ii22ii2iiiiiiii2ii22ii2iiiiiiii2ii22ii2iiiiiiii2ii22ii2iiiiiii",
"2iiiii22iiifiiii2iiiii22iiifiiii2iiiii22iiifiiii2iiiii22iiifiiii",
"iiiiiii2ii22iifiiiiiiii2ii22iifiiiiiiii2ii22iifiiiiiiii2ii22iifi",
"iiif2iiii2i2ii2iiiif2iiii2i2ii2iiiif2iiii2i2ii2iiiif2iiii2i2ii2i",
"iii2iiiiii2iiiiiiii2iiiiii2iiiiiiii2iiiiii2iiiiiiii2iiiiii2iiiii",
"iiiiiii2iiiiiiiiiiiiiii2iiiiiiiiiiiiiii2iiiiiiiiiiiiiii2iiiiiiii",
"2iiiiifiiiii22ii2iiiiifiiiii22ii2iiiiifiiiii22ii2iiiiifiiiii22ii",
"2iiiii2iiiifiiii2iiiii2iiiifiiii2iiiii2iiiifiiii2iiiii2iiiifiiii",
"fiiifiiiiii2iiiifiiifiiiiii2iiiifiiifiiiiii2uiiifiiifiiiiii2iiii",
"i2ii2iiiiiiiiiiii2ii2iiiiiiiiiiii2ii2iiiiiiiuiuuu2ii2iiiiiiiiiii",
"iffiiiiiiiii2ifiiffiiiiiiiii2ifiiffiiiiiiiii2ufuuffuiiiiiiii2ifi",
"i2f2iiiiiiiiii2ii2f2iiiiiiiiii2ii2f2iiiiiiiuuu2  2f2uiiiiiiiii2i",
"ii2iiiiiiii2iiiiii2iiiiiiii2iiiiii2uiiiiiiu2uy $ y2uuiiiiii2iiii",
"iiiiifiiii2i2iiiiiiiufuiii2i2iiiiiiiifuuuu2y> .$ ryuufiiii2i2iii",
"iiiif2fiiii22iiiiiiif2fiiii22iiiiiiuf2fuuuy>  .$$ ryd2fiiii22iii",
"ifiif222iiiifiiiifiif222uuuufuuuifuud2,>    ..X$$$  s222iiiifiii",
"i2ii22ii2iiiuiiii2uu22uu2uuuuuuuu2uu>   ....XX$$$$$$ >uu2iiiiiii",
"2iiiii22iiifiiiu2uuuuy        yy>yy  ...XXXX$$$$$XX. r,2uiifiiii",
"iiiiiii2ii22iifuuuyy  ........     ..XXX$$$$$$$$$$.o er2uu22iifi",
"iiif2iiii2i2iu2uy   ..XXXXXXXX.....XX$$$$$$$$$$$$$$X. ryu2u2ii2i",
"iii2iiiiii2iuuuy XX .X$$$$$$$$XXXXX$$$$$$$$$$$XXX$$$$$ ryu2uiiii",
"iiiiiii2iiiuuuy X. .X$$$$$$$$$$$$$$$$$$$$$$$XX...X$$$$$  yuuiiii",
"2iiiiifiuiiu2>r X  .X$$$$X$$$$$$$$$$$$$$$$$X...     $$   yuu22ii",
"2iiiii2iiiufur $.  .X$$$$XX$$$$$$$$$$$$$$$X... :+<<<    6rufuiii",
"fiiifiiiiiu2yr $.  .X$$$$XXXXX$$$$$$X$$$$$X.. <2833283446ry2uiii",
"i2ii2iiiiuuur $X.  .X$$$$X....XXX$$$X$$$$$X. 1344*64&456rruuuiii",
"iffiiiuiiuuy> $X.  .X$$$$X.......XXXX$$$$$ . 406ewwe666rryuu2ifi",
"i2f2iiiiuuur $X. O .X$$$$     ......X$$$$$  24*ry>s>rrryyuuuii2i",
"ii2iuiiiuuy> $X. = X$$$$ .. ::   ...X$$$$ . 46ryuu2uuuuuuuu2iiii",
"iiiiifiuuy> $X.   X$$$  .. <@22<:   $$$$$ . *eyuuuuuufuiuu2i2iii",
"iiiif2fuur $XX. XX$   ... 1%%44421: $$$$ . %*ryuuiiif2fiiii22iii",
"ifiif222r XX..  $$ :; ... 34q666492 $$$ .. 4wruuifiif222iiiifiii",
"i2ii22uy ...  : $ <: ... 246rrrr6* $$$  .. 4eyuui2ii22ii2iiiiiii",
"2iiiuu>     2<< $ 11 ... 46pyuyy>6 $$ OO . qryuu2iiiii22iiifiiii",
"iiiuuuy>64&%327 $ 22 .. 35>>uudyr6 $ <<@ . *rydiiiiiiii2ii22iifi",
"iiif2uyr6*5*44% $ 39# . 4*r2uu2yr $$ 222 .. ry2uiiif2iiii2i2ii2i",
"iii2uuyrre-6664 $$ %4 . 46>uuuuye $ 44444 . eyuuiii2iiiiii2iiiii",
"iiiiuuu,yrrrre6 $$ 44 . 5eyuuuur6 $ 456*4 . 6ryuuiiiiii2iiiiiiii",
"2iiiuufuuuuu>>6 $$ 444 ...ru22ur* $ 46w664 .  ru2uiiiifiiiii22ii",
"2iiiiu2uuuufur64  4444 ... suuur* $$ 6>r64 ... y2uiiii2iiiifiiii",
"fiiifiuiiii2uyr60466q64    >uuurw5   rrrr64    rduuifiiiiii2iiii",
"i2ii2uuiiiiuuyre6*6r-664466ruuuyr*56*ryyre64466ru2ui2iiiiiiiiiii",
"iffiiiiiiiiu2udrrparrr6666rr2udyrww6eryuyr66*6wruffiuiiiiiii2ifi",
"i2f2iiiiiiiiuu2uy>d2yyrrrrryuu2uy>p>ryuuuyrrrr>yu2f2iiiiiiiiii2i",
"ii2iiiiiiii2iuuuuu2uuuyyyyy2uuuuuu>yyuuuuuy>yyyuuu2iiiiiiii2iiii",
"iiiiifiiii2i2iiuuuuuufuuuu2u2uuuuuuuufuuuu2u2uuuuuuiifiiii2i2iii",
"iiiif2fiiii22iiiiiiif2fuuuu22iiiuuuuf2fuiuu22uuuuiiif2fiiii22iii",
"ifiif222iiiifiiiifiif222iiiifiiiifiif222iiiifiiiifiif222iiiifiii",
"i2ii22ii2iiiiiiii2ii22ii2iiiiiiii2ii22ii2iiiiiiii2ii22ii2iiiiiii",
"2iiiii22iiifiiii2iiiii22iiifiiii2iiiii22iiifiiii2iiiii22iiifiiii",
"iiiiiii2ii22iifiiiiiiii2ii22iifiiiiiiii2ii22iifiiiiiiii2ii22iifi",
"iiif2iiii2i2ii2iiiif2iiii2i2ii2iiiif2iiii2i2ii2iiiif2iiii2i2ii2i",
"iii2iiiiii2iiiiiiii2iiiiii2iiiiiiii2iiiiii2iiiiiiii2iiiiii2iiiii",
"iiiiiii2iiiiiiiiiiiiiii2iiiiiiiiiiiiiii2iiiiiiiiiiiiiii2iiiiiiii",
"2iiiiifiiiii22ii2iiiiifiiiii22ii2iiiiifiiiii22ii2iiiiifiiiii22ii",
"2iiiii2iiiifiiii2iiiii2iiiifiiii2iiiii2iiiifiiii2iiiii2iiiifiiii",
"fiiifiiiiii2iiiifiiifiiiiii2iiiifiiifiiiiii2iiiifiiifiiiiii2iiii",
"i2ii2iiiiiiiiiiii2ii2iiiiiiiiiiii2ii2iiiiiiiiiiii2ii2iiiiiiiiiii"
};
