/* XPM */
static char *enemy_run_l_6[] = {
/* columns rows colors chars-per-pixel */
"64 64 41 1 ",
"  c black",
". c #222121",
"X c gray21",
"o c #5E2A22",
"O c #576A3C",
"+ c #5C6F3F",
"@ c #565656",
"# c #5D7140",
"$ c #617542",
"% c #667D46",
"& c #6B7F42",
"* c #697F48",
"= c #7D993D",
"- c #6F8445",
"; c #6C844A",
": c #6F884D",
"> c #728747",
", c #738947",
"< c #738C4F",
"1 c #788F4B",
"2 c #7F974F",
"3 c #829E3F",
"4 c #80984F",
"5 c #819950",
"6 c #86A341",
"7 c #89A643",
"8 c #8BAA44",
"9 c #91B047",
"0 c #95B649",
"q c #9DBF4C",
"w c #87A154",
"e c #8CA757",
"r c #8DA858",
"t c #8EA958",
"y c #93AF5C",
"u c #94B05C",
"i c #9FC24E",
"p c #A0C34E",
"a c #A3C750",
"s c #A5C951",
"d c #AACF53",
/* pixels */
"udduuuuuuuuu<uduudduuuuuuuuu<uduudduuuuuuuuu<uduudduuuuuuuuu<udu",
"u<d<uuuuuuuuuu<uu<d<uuuuuuuuuu<uu<d<uuuuuuuuuu<uu<d<uuuuuuuuuu<u",
"uu<uuuuuuuu<uuuuuu<uuuuuuuu<uuuuuu<uuuuuuuu<uuuuuu<uuuuuuuu<uuuu",
"uuuuuduuuu<u<uuuuuuuuduuuu<u<uuuuuuuuduuuu<u<uuuuuuuuduuuu<u<uuu",
"uuuud<duuuu<<uuuuuuud<duuuu<<uuuuuuud<duuuu<<uuuuuuud<duuuu<<uuu",
"uduud<<<uuuuduuuuduud<<<uuuuduuuuduud<<<uuuuduuuuduud<<<uuuuduuu",
"u<uu<<uu<uuuuuuuu<uu<<uu<uuuuuuuu<uu<<uu<uuuuuuuu<uu<<uu<uuuuuuu",
"<uuuuu<<uuuduuuu<uuuuu<<uuuduuuu<uuuuu<<uuuduuuu<uuuuu<<uuuduuuu",
"uuuuuuu<uu<<uuduuuuuuuu<uu<<uuduuuuuuuu<uu<<uuduuuuuuuu<uu<<uudu",
"uuud<uuuu<u<uu<uuuud<uuuu<u<uu<uuuud<uuuu<u<uu<uuuud<uuuu<u<uu<u",
"uuu<uuuuuu<uuuuuuuu<uuuuuu<uuuuuuuu<uuuuuu<uuuuuuuu<uuuuuu<uuuuu",
"uuuuuuu<uuuuuuuuuuuuuuu<uuuuuuuuuuuuuuu<uuuuuuuuuuuuuuu<uuuuuuuu",
"<uuuuuduuuuu<<uu<uuuuuduuuuu<<uu<uuuuuduuuuu<<uu<uuuuuduuuuu<<uu",
"<uuuuu<uuuuduuuu<uuuuu<uuuuduuuu<uuuuu<uuuuduuuu<uuuuu<uuuuduuuu",
"duuuduuuuuu<uuuuduuuduuuuuu<uuuuduuuduuuuuu<uuuuduuuduuuuuu<uuuu",
"u<uu<uuuuuuuuuuyy<yu<uuuuuuuuuuuu<uu<uuuuuuuuuuuu<uu<uuuuuuuuuuu",
"udduuuuuuuuu<ydyyddyyuuuuuuu<uduudduuuuuuuuu<uduudduuuuuuuuu<udu",
"u<d<uuuuuuuuyy<y  s<yyuuuuuuuu<uu<d<uuuuuuuuuu<uu<d<uuuuuuuuuu<u",
"uu<uuuuuuuy<yyyt @ tyyyuuuu<uuuuuu<uuuuuuuu<uuuuuu<uuuuuuuu<uuuu",
"uuuuuduuuu<y<yte @. esyyyy<u<uuuuuuuuduuuu<u<uuuuuuuuduuuu<u<uuu",
"uuuud<duuuy<<te @@.  ;ayyyy<<yuuuyyud<duuuu<<uuuuuuud<duuuu<<uuu",
"uduud<<<uyyya  @@@X..    ttysyyyudyyd<<<yyyyduuuuduud<<<uuuuduuu",
"u<uu<<uu<yyt @@@@@@XX....   tyyyy<yy<<yy<yyyyyyuu<uu<<uu<uuuuuuu",
"<uuuuu<<yyti .XX@@@@@XXXX...  tt;tt        ayyyy<yuuuu<<uuuduuuu",
"uuuuuuu<yy;* o.@@@@@@@@@@XXX..     ........  tsyyyyuuuu<uu<<uudu",
"uuud<uyyy;e .X@@@@@@@@@@@@@@XX.....XXXXXXXX..   tyyd<uyuu<u<uu<u",
"uuu<uyyyte @@@@@XXX@@@@@@@@@@@XXXXX@@@@@@@@X. XX ty<yuyuuu<uuuuu",
"uuuuuyy:  @@@@@X...XX@@@@@@@@@@@@@@@@@@@@@@@X. .X tyyyu<uuuuuuuu",
"<uuuyyst   @@     ...X@@@@@@@@@@@@@@@@@@@@@@X.  X etyyduuuuu<<uu",
"<uyuyy<e5    >>>O- ...X@@@@@@@@@@@@@@@@@@@@@X.  .@ eyy<uuuuduuuu",
"duuudyte522#<<117<> ..X@@@@@@@@@@@@XX@@@@@@@X.  .@ epyyuuuu<uuuu",
"u<uu<yyee54222552$1, .X@@@@@X@@@XXX.XX@@@@@@X.  .X@ ;yyyuuuuuuuu",
"udduuyytee55*wqew092 . @@@@@XXXX......X@@@@@X.  .X@ etyyuuuu<udu",
"u<d<uyyytteeet;tt;q$1  @@@@X.......    @@@@@X. & .@ 5eyyuuuuuu<u",
"uu<uuuyyyyy<yyyyyt;52< @@@@X....   ---- @@@@X. - .X@ etyyuu<uuuu",
"uuuuuduyyy<y<yyyyyte58< @@@X    -><<<6,  @@@X. - .X@ qtyyu<u<uuu",
"uuuud<duuuu<<uuuyyytq%8 @@@ . -,<2229$7 . @@X. - .X@ %pyyuu<<uuu",
"uduud<<<uuuuduuuydyyp%$+ @@ . <22055q%$ .. @@XX  .X@@ ;:yyuuduuu",
"u<uu<<uu<uuuuuuuu<yy;;5  @@  <255;ee;*4 ...  @@@X .X@ wt<yuuuuuu",
"<uuuuu<<uuuduuuu<uyyte . @@ <25e;tyyte% .. =-  @@  .X@ ;yyyduuuu",
"uuuuuuu<uu<<uuduuyyye ..  @ 15qtyyyyte5 .. +,,3 @ -     ty<<uudu",
"uuud<uuuu<u<uu<uuyys; . > @ 25;yyyys;e .. <#21+ @ >6#25et<y<uu<u",
"uuu<uuuuuu<uuuuuuyy;e . > @ 2etyyyy;e .. 1$2222 @ <#255ety<uuuuu",
"uuuuuuu<uuuuuuuuuyye5 . > @ 5etyyyt  .. 2255552 @ 2255e;tyyuuuuu",
"<uuuuuduuuuu<<uu<yye52   @@ %;yy<t ... 225ee;*5 @ 25eeptyyyu<<uu",
"<uuuuu<uuuuduuuu<yyte5# @@ 95eyy<e    $25eeate @@ 5ety<yyyyduuuu",
"duuuduuuuuu<uuuudyyti52   2%etyyse559225wey<te   25esyyyyyu<uuuu",
"u<uu<uuuuuuuuuuuu<yy;e522245etyyy;e5%55eeyyyte554%et<yuuuuuuuuuu",
"udduuuuuuuuu<uduuddyyee5555e;ydyyaiwweetyyyy:eq55qptyyyyuuuu<udu",
"u<d<uuuuuuuuuu<uu<d<yteeeeetyy<yy<s;tttyyyyyyt;ee;s<yyyyuuuuuu<u",
"uu<uuuuuuuu<uuuuuu<yyyytttt<yyyyyy<yyyyyyuy<yyttty<yyuuuuuu<uuuu",
"uuuuuduuuu<u<uuuuuuuydyyyy<y<uuuyyyyydyyuu<y<yyyyyyyuduuuu<u<uuu",
"uuuud<duuuu<<uuuuuuud<dyyyy<<uuuuuuud<duuuu<<yyyyyyud<duuuu<<uuu",
"uduud<<<uuuuduuuuduud<<<uuuuduuuuduud<<<uuuuduuuuduud<<<uuuuduuu",
"u<uu<<uu<uuuuuuuu<uu<<yu<uuuuuuuu<uu<<uu<uuuuuuuu<uu<<uu<uuuuuuu",
"<uuuuu<<uuuduuuu<uuuuu<<uuuduuuu<uuuuu<<uuuduuuu<uuuuu<<uuuduuuu",
"uuuuuuu<uu<<uuduuuuuuuu<uu<<uuduuuuuuuu<uu<<uuduuuuuuuu<uu<<uudu",
"uuud<uuuu<u<uu<uuuud<uuuu<u<uu<uuuud<uuuu<u<uu<uuuud<uuuu<u<uu<u",
"uuu<uuuuuu<uuuuuuuu<uuuuuu<uuuuuuuu<uuuuuu<uuuuuuuu<uuuuuu<uuuuu",
"uuuuuuu<uuuuuuuuuuuuuuu<uuuuuuuuuuuuuuu<uuuuuuuuuuuuuuu<uuuuuuuu",
"<uuuuuduuuuu<<uu<uuuuuduuuuu<<uu<uuuuuduuuuu<<uu<uuuuuduuuuu<<uu",
"<uuuuu<uuuuduuuu<uuuuu<uuuuduuuu<uuuuu<uuuuduuuu<uuuuu<uuuuduuuu",
"duuuduuuuuu<uuuuduuuduuuuuu<uuuuduuuduuuuuu<uuuuduuuduuuuuu<uuuu",
"u<uu<uuuuuuuuuuuu<uu<uuuuuuuuuuuu<uu<uuuuuuuuuuuu<uu<uuuuuuuuuuu"
};
