/* XPM */
static char *enemy_run_l_0[] = {
/* columns rows colors chars-per-pixel */
"64 64 45 1 ",
"  c black",
". c #222121",
"X c gray21",
"o c #5E2A22",
"O c #536439",
"+ c #56693B",
"@ c #586B3C",
"# c #5C703F",
"$ c #565656",
"% c #5D7240",
"& c #607442",
"* c #677D47",
"= c #6B7F42",
"- c #697F48",
"; c #7D993D",
": c #6D8244",
"> c #6E874C",
", c #6F884D",
"< c #728747",
"1 c #738947",
"2 c #738C4F",
"3 c #788E4A",
"4 c #7C944D",
"5 c #7F974F",
"6 c #80984F",
"7 c #819950",
"8 c #86A341",
"9 c #89A643",
"0 c #8FAF46",
"q c #91B047",
"w c #91B147",
"e c #97B74A",
"r c #97B84A",
"t c #9DBF4C",
"y c #87A154",
"u c #8CA757",
"i c #8EA858",
"p c #8FAA59",
"a c #93AF5C",
"s c #94B05C",
"d c #9FC14D",
"f c #A0C34E",
"g c #A4C850",
"h c #A7CB51",
"j c #AACF53",
/* pixels */
"sjjsssssssss2sjssjjsssssssss2sjssjjsssssssss2sjssjjsssssssss2sjs",
"s2j2ssssssssss2ss2j2ssssssssss2ss2j2ssssssssss2ss2j2ssssssssss2s",
"ss2ssssssss2ssssss2ssssssss2ssssss2ssssssss2ssssss2ssssssss2ssss",
"sssssjssss2s2ssssssssjssss2s2ssssssssjssss2s2ssssssssjssss2s2sss",
"ssssj2jssss22sssssssj2jssss22sssssssj2jssss22sssssssj2jssss22sss",
"sjssj222ssssjssssjssj222ssssjssssjssj222ssssjssssjssj222ssssjsss",
"s2ss22ss2ssssssss2ss22ss2ssssssss2ss22ss2ssssssss2ss22ss2sssssss",
"2sssss22sssjssss2sssss22sssjssss2sssss22sssjssss2sssss22sssjssss",
"sssssss2ss22ssjssssssss2ss22ssjssssssss2ss22ssjssssssss2ss22ssjs",
"sssj2ssss2s2ss2ssssj2ssss2s2ss2ssssj2ssss2s2ss2ssssj2ssss2s2ss2s",
"sss2ssssss2ssssssss2ssssss2ssssssss2ssssss2ssssssss2ssssss2sssss",
"sssssss2sssssssssssssss2sssssssssssssss2sssssssssssssss2ssssssss",
"2sssssjsssss22ss2sssssjsssss22ss2sssssjsssss22ss2sssssjsssss22ss",
"2sssss2ssssjssss2sssss2ssssjssss2sssss2ssssjssss2sssss2ssssjssss",
"jsssjssssss2ssssjsssjssssss2ssssjsssjssssss2ssssjsssjssssss2ssss",
"s2ss2sssssssssaaa2ss2ssssssssssss2ss2ssssssssssss2ss2sssssssssss",
"sjjsssssasaa2ajaajjassssssss2sjssjjsssssssss2sjssjjsssssssss2sjs",
"s2j2ssssasaaaa2  2h2asssssssss2ss2j2ssssssssss2ss2j2ssssssssss2s",
"ss2sssssaas2aap $ >aaasssss2ssssss2asssssss2ssssss2ssssssss2ssss",
"sssssjssss2a2pu $. uphaaaa2s2ssssssssjssss2s2ssssssssjssss2s2sss",
"ssssj2jssaa2>u $$.  f>haaaa22sssaaasj2jssss22sssssssj2jssss22sss",
"sjssj222aaap  $$$X..    ppaajaasajaaj222aaaajssssjssj222ssssjsss",
"s2ss22sa2ap $$$$$$XX....   paaaaa2aa22aa2aaaaasss2ss22ss2sssssss",
"2sssss22apu .XX$$$$$XXXX...  ppp>p        phaaaa2sssss22sssjssss",
"sssssss2au- o.$$$$$$$$$$XXX..     ........  pphaaasssas2ss22ssjs",
"sssj2aaap> .X$$$$$$$$$$$$$$XX.....XXXXXXXX..   paaaj2ssas2s2ss2s",
"sss2aaapu $$$$$XXX$$$$$$$$$$$XXXXX$$$$$$$$X. XX paa2ssssss2sssss",
"ssssaap  $$$$$X...XX$$$$$$$$$$$$$$$$$$$$$$$X. .X paaass2ssssssss",
"2ssaaaf   $$     ...X$$$$$$$$$$$$$$$$$X$$$$X.  X upaasjsssss22ss",
"2ssaaa>7    <<<<+ ...X$$$$$$$$$$$$$$$XX$$$$X.  .$ uaaa2ssssjssss",
"jssajpu7443#23328< ..X$$$$$X$$$$$$XXXXX$$$$X.  .$ uphasssss2ssss",
"s2sa2auu764447744%1 .X$$$$$X$$$XXX....X$$$$X.  .X$ u2aasssssssss",
"sjjsaapuu777>uty7w0 . $$$$$XXXX.......X$$$$X.  .X$ upaaaaaas2sjs",
"s2j2aaappuuupp>pu*w%  $$$$$X......     $$$$X. O .X$ uaaaaassss2s",
"ss2ssaaaaaa2aaaapu*4 . $$$$X...   +: .. $$$$X = .X$ upaasss2ssss",
"sssssjaaaa2a2aaaapy4 . $$$$$   :<221< ..  $$$X   .X$ dpaas2s2sss",
"ssssj2jssss22asaapu70 . $$$$ :1244449@ ...   $XX .XX$ faaas22sss",
"sjssj222ssssjassahu70 .. $$$ 2447r77w% ... :; $$  ..XX >aaasjass",
"s2ss22ss2sssssssa2py* ..  $$$ 47u>uu*&2 ... :< $ +  ... >aaassss",
"2sssss22sssjssss2apu7 . :: $$ 7u>papu7& ... 11 $ <<2     pajssss",
"sssssss2ss22ssjssapu7 . <<@ $ eupaaapy6% .. 22 $ 223444*up22ssjs",
"sssj2ssss2s2ss2saapt .. 2#2 $$ upaaj2u74 . #33 $ 44w*677u>a2ss2s",
"sss2ssssss2sssssaap> . 444&3 $ upaa2au74 . 44 $$ 47*77yuup2assss",
"sssssss2sssssssaapu7 . &7764 $ 7uaaaapy* . 44 $$ 7yuuuu>paaassss",
"2sssssjssass22aa2u  . 077774 $ 7>aaaau... 44& $$ 7upaahaaaaa22ss",
"2sssss2ssasjssaa> ... *7uu7 $$ 7>aaap ... 4w44  &7uaaa2aaaajssss",
"jsssjssssss2saaaf    47uuuu   47faaaf    47*7744eupajssssss2ssss",
"s2ss2ssssssssaaau-74&7yuppu7447uu2aa>774477uu777y>pa2ssssssassss",
"sjjsssssssss2ajaute777upapuy*7tuphhauu7777uu>uduuhhaaassssss2sjs",
"s2j2sssssssssa2ap>t-uupaaapuuu>pa2j2puuuuuppaa>pa2j2aassssssss2s",
"ss2ssssssss2ssaaap>uppaaaaa,ppaaaa2aapuuppa2aaaaaa2ssssssss2ssss",
"sssssjssss2s2saaaaaaajaaaa2a2aaaaaaaahaaaa2a2aaaassssjssss2s2sss",
"ssssj2jssss22ssaaaaaj2jasaa22aaasssaj2jaaaa22sssssssj2jssss22sss",
"sjssj222ssssjssssjssj222ssssjssssjssj222ssssjssssjssj222ssssjsss",
"s2ss22ss2ssssssss2ss22ss2ssssssss2ss22ss2ssssssss2ss22ss2sssssss",
"2sssss22sssjssss2sssss22sssjssss2sssss22sssjssss2sssss22sssjssss",
"sssssss2ss22ssjssssssss2ss22ssjssssssss2ss22ssjssssssss2ss22ssjs",
"sssj2ssss2s2ss2ssssj2ssss2s2ss2ssssj2ssss2s2ss2ssssj2ssss2s2ss2s",
"sss2ssssss2ssssssss2ssssss2ssssssss2ssssss2ssssssss2ssssss2sssss",
"sssssss2sssssssssssssss2sssssssssssssss2sssssssssssssss2ssssssss",
"2sssssjsssss22ss2sssssjsssss22ss2sssssjsssss22ss2sssssjsssss22ss",
"2sssss2ssssjssss2sssss2ssssjssss2sssss2ssssjssss2sssss2ssssjssss",
"jsssjssssss2ssssjsssjssssss2ssssjsssjssssss2ssssjsssjssssss2ssss",
"s2ss2ssssssssssss2ss2ssssssssssss2ss2ssssssssssss2ss2sssssssssss"
};
