/* XPM */
static char *enemy_run_l_3[] = {
/* columns rows colors chars-per-pixel */
"64 64 41 1 ",
"  c black",
". c #222121",
"X c gray21",
"o c #5E2A22",
"O c #576A3C",
"+ c #5B6E3E",
"@ c #565656",
"# c #5D7140",
"$ c #617542",
"% c #677D47",
"& c #697F48",
"* c #7F9B3E",
"= c #6F8445",
"- c #6C844A",
"; c #6F884D",
": c #728747",
"> c #738947",
", c #738C4F",
"< c #788F4B",
"1 c #7F974F",
"2 c #819D3F",
"3 c #839F40",
"4 c #80984F",
"5 c #819950",
"6 c #89A643",
"7 c #8DAB45",
"8 c #92B247",
"9 c #97B74A",
"0 c #97B84A",
"q c #9DBF4C",
"w c #87A154",
"e c #8CA757",
"r c #8EA858",
"t c #8EA958",
"y c #93AF5C",
"u c #94B05C",
"i c #9FC24E",
"p c #A1C44E",
"a c #A3C750",
"s c #A5C951",
"d c #AACF53",
/* pixels */
"udduuuuuuuuu,uduudduuuuuuuuu,uduudduuuuuuuuu,uduudduuuuuuuuu,udu",
"u,d,uuuuuuuuuu,uu,d,uuuuuuuuuu,uu,d,uuuuuuuuuu,uu,d,uuuuuuuuuu,u",
"uu,uuuuuuuu,uuuuuu,uuuuuuuu,uuuuuu,uuuuuuuu,uuuuuu,uuuuuuuu,uuuu",
"uuuuuduuuu,u,uuuuuuuuduuuu,u,uuuuuuuuduuuu,u,uuuuuuuuduuuu,u,uuu",
"uuuud,duuuu,,uuuuuuud,duuuu,,uuuuuuud,duuuu,,uuuuuuud,duuuu,,uuu",
"uduud,,,uuuuduuuuduud,,,uuuuduuuuduud,,,uuuuduuuuduud,,,uuuuduuu",
"u,uu,,uu,uuuuuuuu,uu,,uu,uuuuuuuu,uu,,uu,uuuuuuuu,uu,,uu,uuuuuuu",
",uuuuu,,uuuduuuu,uuuuu,,uuuduuuu,uuuuu,,uuuduuuu,uuuuu,,uuuduuuu",
"uuuuuuu,uu,,uuduuuuuuuu,uu,,uuduuuuuuuu,uu,,uuduuuuuuuu,uu,,uudu",
"uuud,uuuu,u,uu,uuuud,uuuu,u,uu,uuuud,uuuu,u,uu,uuuud,uuuu,u,uu,u",
"uuu,uuuuuu,uuuuuuuu,uuuuuu,uuuuuuuu,uuuuuu,uuuuuuuu,uuuuuu,uuuuu",
"uuuuuuu,uuuuuuuuuuuuuuu,uuuuuuuuuuuuuuu,uuuuuuuuuuuuuuu,uuuuuuuu",
",uuuuuduuuuu,,uu,uuuuuduuuuu,,uu,uuuuuduuuuu,,uu,uuuuuduuuuu,,uu",
",uuuuu,uuuuduuuu,uuuuu,uuuuduuuu,uuuuu,uuuuduuuu,uuuuu,uuuuduuuu",
"duuuduuuuuu,uuuuduuuduuuuuu,uuuuduuuduuuuuu,uuuuduuuduuuuuu,uuuu",
"u,uu,uuuuuuuuuuyy,yu,uuuuuuuuuuuu,uu,uuuuuuuuuuuu,uu,uuuuuuuuuuu",
"udduuuuuuuuu,ydyyddyyuuuuuuu,uduudduuuuuuuuu,uduudduuuuuuuuu,udu",
"u,d,uuuuuuuuyy,y  s,yyuuuuuuuu,uu,d,uuuuuuuuuu,uu,d,uuuuuuuuuu,u",
"uu,uuuuuuuy,yyyt @ tyyyuuuu,uuuuuu,uuuuuuuu,uuuuuu,uuuuuuuu,uuuu",
"uuuuuduuuu,y,yte @. esyyyy,u,uuuuuuuuduuuu,u,uuuuuuuuduuuu,u,uuu",
"uuuud,duuuy,,te @@.  -ayyyy,,yuuuyyud,duuuu,,uuuuuuud,duuuu,,uuu",
"uduud,,,uyyya  @@@X..    ttysyyyudyyd,,,yyyyduuuuduud,,,uuuuduuu",
"u,uu,,uu,yyt @@@@@@XX....   tyyyy,yy,,yy,yyyyyyuu,uu,,uu,uuuuuuu",
",uuuuu,,yyti .XX@@@@@XXXX...  tt-tt        ayyyy,yuuuu,,uuuduuuu",
"uuuuuuu,yy-& o.@@@@@@@@@@XXX..     ........  tsyyyyuuuu,uu,,uudu",
"uuud,uyyy-e .X@@@@@@@@@@@@@@XX.....XXXXXXXX..   tyyd,uyuu,u,uu,u",
"uuu,uyyyte @@@@@XXX@@@@@@@@@@@XXXXX@@@@@@@@X. XX ty,yuyuuu,uuuuu",
"uuuuuyy;  @@@@@X...XX@@@@@@@@@@@@@@@@@@@@@@@X. .X tyyyu,uuuuuuuu",
",uuuyyst   @@     ...X@@@@@@@@@@@@@@@@@@@@@@X.  X etyyduuuuu,,uu",
",uyuyy,e5    :::O= ...X@@@@@@@@@@@@@@@@@@@@@X.  .@ eyy,uuuuduuuu",
"duuudyte511#,,<<6,: ..X@@@@@@@@@@@@XXXX@@@@@X.  .@ epyyuuuu,uuuu",
"u,uu,yyee54111551$<> . @@@@@@@@@XXX...X@@@@@X.  .X@ -yyyuuuuuuuu",
"udduuyytee55&wqew081 . @@@@@XXXX......X@@@@@X.  .X@ etyyuuuu,udu",
"u,d,uyyytteeet-tt-q%<  @@@@@X......   X@@@@@X.   .@ 5eyyuuuuuu,u",
"uu,uuuyyyyy,yyyyyt-51, @@@@@X...   === @@@@X.    .X@ etyyuu,uuuu",
"uuuuuduyyy,y,yyyyyte57, @@@@X   :>,,,3 @@@X. ..  .X@ qtyyu,u,uuu",
"uuuud,duuuu,,uuuyyyeq$6 @@@@ =:,,1117# @@@X. ... .XX@ iyyyu,,uuu",
"uduud,,,uuuuduuuudytq% @@@@  ,<119559$ @@X. ....  .X@ --yyuuduuu",
"u,uu,,uu,uuuuuuuu,yt- @@@  . 115w-ee&% @X.    ... ..X@ e-yyuuuuu",
",uuuuu,,uuuduuuu,yye @@   .. 15e-ttte5 @X =*== ...  .XX eyyduuuu",
"uuuuuuu,uu,,uudyyye @@ +:= .. qeyyyte5 @X ++,,3 .. =     t,,uudu",
"uuud,uuuu,u,uu,yyt @@ 1<,+, . &tyyys-5 @ +1$11#, . 2+115e-y,uu,u",
"uuu,uuuuuu,uuuyyte @ 11111# . 5eyyy-e @@ 1%55511 . +1155et,yuuuu",
"uuuuuuu,uuuuuuyyte @ 15%5511 . etyte @@ 155eee51 . 1155-etyyuuuu",
",uuuuuduuuuy,,yy-5 @ 4qeew51 . w-e  @@ 115et--e4 . 15epttyyy,,uu",
",uuuuu,uuuuduuyy-5  15-tte5 .. 5- @@@ $15etsyte5 . 5et,yyyyduuuu",
"duuuduuuuuu,uuyype559eeyytw   45q    115ety,yye5  55pyyyyyy,uuuu",
"u,uu,uuuuuuuuuyyt-ww&etyyte554555%41$45eeyyyyyee5%5e-yyuuuyuuuuu",
"udduuuuuuuuu,udyyapeetyyytew%5qweq9555eeyyyu,yaeeqqetyyuuuuu,udu",
"u,d,uuuuuuuuuu,yy,s;yyyyyyteee-ee-q-eetyyyuuyy,te-p-yyyuuuuuuu,u",
"uu,uuuuuuuu,uuuyyy,yyyyyyyy;tttttt-tttyyyuu,yyyyyt,yyyyuuuu,uuuu",
"uuuuuduuuu,u,uuuuyyyyduuyy,y,yyyyyyyydyyuu,u,yyyyyyyyduuuu,u,uuu",
"uuuud,duuuu,,uuuuuuud,duuyy,,yyyyyyyd,dyuuu,,uuyyyyud,duuuu,,uuu",
"uduud,,,uuuuduuuuduud,,,uuuuduuuuduud,,,uuuuduuuuduud,,,uuuuduuu",
"u,uu,,uu,uuuuuuuu,uu,,uu,uuuuuuuu,uu,,uu,uuuuuuuu,uu,,uu,uuuuuuu",
",uuuuu,,uuuduuuu,uuuuu,,uuuduuuu,uuuuu,,uuuduuuu,uuuuu,,uuuduuuu",
"uuuuuuu,uu,,uuduuuuuuuu,uu,,uuduuuuuuuu,uu,,uuduuuuuuuu,uu,,uudu",
"uuud,uuuu,u,uu,uuuud,uuuu,u,uu,uuuud,uuuu,u,uu,uuuud,uuuu,u,uu,u",
"uuu,uuuuuu,uuuuuuuu,uuuuuu,uuuuuuuu,uuuuuu,uuuuuuuu,uuuuuu,uuuuu",
"uuuuuuu,uuuuuuuuuuuuuuu,uuuuuuuuuuuuuuu,uuuuuuuuuuuuuuu,uuuuuuuu",
",uuuuuduuuuu,,uu,uuuuuduuuuu,,uu,uuuuuduuuuu,,uu,uuuuuduuuuu,,uu",
",uuuuu,uuuuduuuu,uuuuu,uuuuduuuu,uuuuu,uuuuduuuu,uuuuu,uuuuduuuu",
"duuuduuuuuu,uuuuduuuduuuuuu,uuuuduuuduuuuuu,uuuuduuuduuuuuu,uuuu",
"u,uu,uuuuuuuuuuuu,uu,uuuuuuuuuuuu,uu,uuuuuuuuuuuu,uu,uuuuuuuuuuu"
};
