/* XPM */
static char *player_run_l_6[] = {
/* columns rows colors chars-per-pixel */
"64 64 36 1 ",
"  c #3A3737",
". c #5C6F3F",
"X c #5E7341",
"o c #647944",
"O c #687E47",
"+ c #687F48",
"@ c #827C7C",
"# c #6A8048",
"$ c #6F884D",
"% c #728847",
"& c #738C4F",
"* c #79904B",
"= c #7C944D",
"- c #859F53",
"; c #87A542",
": c #90AF46",
"> c #91B047",
", c #97B74A",
"< c #9CBE4C",
"1 c #87A054",
"2 c #8CA657",
"3 c #8DA858",
"4 c #8EA858",
"5 c #8FAA59",
"6 c #93AF5C",
"7 c #94B05C",
"8 c #BC8B6D",
"9 c #CDAE67",
"0 c #9FC14D",
"q c #A1C44E",
"w c #A3C750",
"e c #A5C950",
"r c #AACF53",
"t c #B7B3B2",
"y c #D6B39D",
"u c #EFE9E7",
/* pixels */
"7rr777777777&7r77rr777777777&7r77rr777777777&7r77rr777777777&7r7",
"7&r&7777777777&77&r&7777777777&77&r&7777777777&77&r&7777777777&7",
"77&77777777&777777&77777777&777777&77777777&777777&77777777&7777",
"77777r7777&7&77777777r7777&7&77777777r7777&7&77777777r7777&7&777",
"7777r&r7777&&7777777r&r7777&&7777777r&r7777&&7777777r&r7777&&777",
"7r77r&&&7777r7777r77r&&&7777r7777r77r&&&7777r7777r77r&&&7777r777",
"7&77&&77&77777777&77&&77&77777777&77&&77&77777777&77&&77&7777777",
"&77777&&777r7777&77777&&777r7777&77777&&777r7777&77777&&777r7777",
"7777777&77&&77r77777777&77&&77r77777777&77&&77r77777777&77&&77r7",
"777r&7777&7&77&7777r&7777&7&77&7777r&7777&7&77&7777r&7777&7&77&7",
"777&777777&77777777&777777&77777777&777777&77777777&777777&77777",
"7777777&777777777777777&777777777777777&777777777777777&77777777",
"&77777r77777&&77&77777r77777&&77&77777r77777&&77&77777r77777&&77",
"&77777&7777r7777&77777&7777r7777&77777&7777r7777&77777&7777r7777",
"r777r777777&7777r777r777777&7777r777r777777&7777r777r777777&7777",
"7&77&777777777777&77&777777777777&77&777777777777&77&77777777777",
"7rr777777777&7r77rr767777777&7r77rr777777777&7r77rr777777777&7r7",
"7&r&7777777777&77&r&6677777776&67&r&7777777777&77&r&7777777777&7",
"77&77777777&777777&76666666&666666&66777777&777777&77777777&7777",
"77777r7777&7&77777776r6666&6&66666666r6667&7&77777777r7777&7&777",
"7777r&r7777&&7777777r&r6666&&6666666e&r6666&&7777777r&r7777&&777",
"7r77r&&&7777r7777r76r&&&6666e5555e56e&&&6666r6777r77r&&&7777r777",
"7&77&&77&77777777&66&&66&55522222#55##66&66666677&77&&77&7777777",
"&77777&&777r7777&76666&&552  22   2222##566e6666&77777&&777r7777",
"7777777&77&&77r76666665#22 u - @t -1222#25#$66r66677777&77&&77r7",
"777r&7777&7&77&7666r&6522 @u  tuu      22#2#66&6667r&7777&7&77&7",
"777&777777&77777666&65221 uu  uuu  uut@  2#25666666&777777&77777",
"7777777&777777776666522# @uu tuyu uuuuuut 2225566666777&77777777",
"&77777r77777&&76&66552<- tut@uyyu uuuuuuut  ##56&66677r77777&&77",
"&77777&7777r7766&66522+- tu tuyy tuuuuuuuu@ 1225&66667&7777r7777",
"r777r777777&7666e65201-   @ uyyy uuuuuuuuut@ 225e666r777777&7777",
"7&77&777777776666$52#- uutt@uyy8 uuuuuuuuuut -225&66&77777777777",
"7rr777777777&6r66wq2- tuuuu@uy8 tuuuuuuuuuu@u <25ee667777777&7r7",
"7&r&7777777766&65#0+ @uuuuuuuyt uuuuuuuuuuutu +25$e&6777777777&7",
"77&77777777&666652#- tuu utuuu@tuuuuuuuuuuutt -225&66777777&7777",
"77777r7777&6&665521 tuut  uuut@uuuuuuuuuuuu@ --225666r7777&7&777",
"7777r&r7676&&66522 @uuuuuuuuuuuuutuuuuuutuu@ --22566r&r7777&&777",
"7r77r&&&6666r6652< tuuuuuuuut@uuutttuut tut >--22e66r&&&7777r777",
"7&77&&77&76666622# 99 uuuuut@ tttt  @t @tt@ =-125&66&&77&7777777",
"&77777&&776r6665#2- @uuuut @@  @tt@   @uut :--22#66667&&777r7777",
"7777777&77&&66e522--  @t@   t uuuu %% tuuu o--025666677&77&&77r7",
"777r&7777&7&66&5221,o=   .&       &;.&     o-2#5666r&7777&7&77&7",
"777&777777&66665522O--====X========X=====-o-2225666&666777&77777",
"7777777&777666665221---o==============-o---222566666666&77777777",
"&77777r77776&&66#52221<-----oo--o-----<--122##56&66777r77777&&77",
"&77777&7777r6666$55522#111-<----+11112#2222q5566&66777&7777r7777",
"r777r777777&6666e665w522222#222202220222225#6666r667r777777&7777",
"7&77&777777776666&66&555555555555#55#555556666666&77&77777777777",
"7rr777777777&7r66rr666666665$5e66ee666666666&6r66rr777777777&7r7",
"7&r&7777777777&66&r&6666666666&66&e&6666666666&67&r&7777777777&7",
"77&77777777&777777&66666666&666666&66666666&666777&77777777&7777",
"77777r7777&7&77777776r7666&6&66666666r6666&7&77677777r7777&7&777",
"7777r&r7777&&7777777r&r7777&&7777777r&r6777&&7777777r&r7777&&777",
"7r77r&&&7777r7777r77r&&&7777r7777r77r&&&7777r7777r77r&&&7777r777",
"7&77&&77&77777777&77&&77&77777777&77&&77&77777777&77&&77&7777777",
"&77777&&777r7777&77777&&777r7777&77777&&777r7777&77777&&777r7777",
"7777777&77&&77r77777777&77&&77r77777777&77&&77r77777777&77&&77r7",
"777r&7777&7&77&7777r&7777&7&77&7777r&7777&7&77&7777r&7777&7&77&7",
"777&777777&77777777&777777&77777777&777777&77777777&777777&77777",
"7777777&777777777777777&777777777777777&777777777777777&77777777",
"&77777r77777&&77&77777r77777&&77&77777r77777&&77&77777r77777&&77",
"&77777&7777r7777&77777&7777r7777&77777&7777r7777&77777&7777r7777",
"r777r777777&7777r777r777777&7777r777r777777&7777r777r777777&7777",
"7&77&777777777777&77&777777777777&77&777777777777&77&77777777777"
};
