/* XPM */
static char *player_run_r_7[] = {
/* columns rows colors chars-per-pixel */
"64 64 34 1 ",
"  c #3A3737",
". c #596C3D",
"X c #5C703F",
"o c #607442",
"O c #657C46",
"+ c #687F48",
"@ c #697F48",
"# c #827C7C",
"$ c #6B8249",
"% c #6F884D",
"& c #728847",
"* c #738C4F",
"= c #79904B",
"- c #7D954E",
"; c #80984F",
": c #869F53",
"> c #96B749",
", c #9ABC4B",
"< c #87A054",
"1 c #8CA757",
"2 c #8DA858",
"3 c #8EA858",
"4 c #8FAA59",
"5 c #93AF5C",
"6 c #94B05C",
"7 c #BC8B6D",
"8 c #CDAE67",
"9 c #9FC14D",
"0 c #A0C34E",
"q c #A5C951",
"w c #AACF53",
"e c #B7B3B2",
"r c #D6B39D",
"t c #EFE9E7",
/* pixels */
"6ww666666666*6w66ww666666666*6w66ww666666666*6w66ww666666666*6w6",
"6*w*6666666666*66*w*6666666666*66*w*6666666666*66*w*6666666666*6",
"66*66666666*666666*66666666*666666*66666666*666666*66666666*6666",
"66666w6666*6*66666666w6666*6*66666666w6666*6*66666666w6666*6*666",
"6666w*w6666**6666666w*w6666**6666666w*w6666**6666666w*w6666**666",
"6w66w***6666w6666w66w***6666w6666w66w***6666w6666w66w***6666w666",
"6*66**66*66666666*66**66*66666666*66**66*66666666*66**66*6666666",
"*66666**666w6666*66666**666w6666*66666**666w6666*66666**666w6666",
"6666666*66**66w66666666*66**66w66666666*66**66w66666666*66**66w6",
"666w*6666*6*66*6666w*6666*6*66*6666w*6666*6*66*6666w*6666*6*66*6",
"666*666666*66666666*666666*66666666*666666*66666666*666666*66666",
"6666666*666666666666666*666666666666666*666666666666666*66666666",
"*66666w66666**66*66666w66666**66*66666w66666**66*66666w66666**66",
"*66666*6666w6666*66666*6666w6666*66666*6666w6666*66666*6666w6666",
"w666w666666*6666w666w666666*6666w666w666666*6666w666w666666*6666",
"6*66*666666666666*66*666666666666*66*666666666666*66*66666666666",
"6ww666666666*6w66ww666666666*6w65ww666666666*6w66ww666666666*6w6",
"6*w*6666666666*66*w*5566666666*65*w*6666666666*66*w*6666666666*6",
"66*66666666*666666*65555666*555555*55555566*666666*66666666*6666",
"66666w6666*6*66666665w5555*5*55555555w5555*6*66666666w6666*6*666",
"6666w*w6666**6666666w*w5555**5555555q*w5555**6666666w*w6666**666",
"6w66w***6666w6666w55w***5555q4444q44q***5555w5666w66w***6666w666",
"6*66**66*66666666*55**55%54444111$11$$45*55555666*66**66*6666666",
"*66666**666w6665*55555*%441011   11  1$$555w5566*66666**666w6666",
"6666666*66**66w55555544$11$$<: e# : t 1$44**55w56666666*66**66w6",
"666w*6666*6*66*5555q$4111      tte  t# 11$5*55*5666w*6666*6*66*6",
"666*666666*66555555$111  #ett  ttt  tt <11$55555666*666666*66666",
"6666666*66665555544111 etttttt trte tt# 111455556666666*66666666",
"*66666w66666**55*411  ettttttt trrt#ete :<14%*55*66666w66666**66",
"*66666*6666w5555$11< #tttttttte rrte te ::104555*56666*6666w6666",
"w666w666665*5554011 #ettttttttt rrrt #   :<$1455w556w666666*6666",
"6*66*666555555541$: etttttttttt 7rrt#eett :<14455*55*66666666666",
"6ww666666665*5q41, t#tttttttttte 7rt#tttte :$1055ww555666666*6w6",
"6*w*6666666555%41@ tettttttttttt erttttttt# :1$45*w*5566666666*6",
"66*66666666*55411: eettttttttttte#tttet tte  11445*55556666*6666",
"66666w6666*5*5411:: #tttttttttttt#ettt  ettt# 1145555w5566*6*666",
"6666w*w6555**5411:: #ttettttttettttttttttttte 114555w*w6666**666",
"6w66w***5555w5411,:- ete etteeettt#etttttt 88 114q55w***6666w666",
"6*66**66*65555541$:- #ee# e#  eeee #etttttee :<14*55**66*6666666",
"*66666**665w5554$1::- ett#   #ee#  ## ettee# :11$55556**666w6666",
"6666666*66**55q411::; ttte .& tttt e   #e#  ::,14555556*66**66w6",
"666w*6666*6*55*5411,O     *X**       **   -O::$1455w*5666*6*66*6",
"666*666666*65555411@:::---o--------X------O::114455*555566*66666",
"6666666*6666555544111::O::;------------o::::<1145555555*66666666",
"*66666w66666**55*44111,:::::OO::O:::::>:::<1$$45*55556w66666**66",
"*66666*6666w6555*54411$1111,<:::@:::::@<11194455*55566*6666w6666",
"w666w666666*6555w555q411111$11119111,111114$4455w555w666666*6666",
"6*66*666666666555*55*544444444414$44$444444555555*56*66666666666",
"6ww666666666*6w55ww555555555*5q44qq445555555*5w55ww666666666*6w6",
"6*w*6666666666*65*w*5555555555*55*q*5555555555*55*w*6666666666*6",
"66*66666666*666665*55555555*555555*55555555*555566*66666666*6666",
"66666w6666*6*66666666w5555*5*55555555w5556*6*65566666w6666*6*666",
"6666w*w6666**6666666w*w6666**6666666w*w5666**6666666w*w6666**666",
"6w66w***6666w6666w66w***6666w6666w66w***6666w6666w66w***6666w666",
"6*66**66*66666666*66**66*66666666*66**66*66666666*66**66*6666666",
"*66666**666w6666*66666**666w6666*66666**666w6666*66666**666w6666",
"6666666*66**66w66666666*66**66w66666666*66**66w66666666*66**66w6",
"666w*6666*6*66*6666w*6666*6*66*6666w*6666*6*66*6666w*6666*6*66*6",
"666*666666*66666666*666666*66666666*666666*66666666*666666*66666",
"6666666*666666666666666*666666666666666*666666666666666*66666666",
"*66666w66666**66*66666w66666**66*66666w66666**66*66666w66666**66",
"*66666*6666w6666*66666*6666w6666*66666*6666w6666*66666*6666w6666",
"w666w666666*6666w666w666666*6666w666w666666*6666w666w666666*6666",
"6*66*666666666666*66*666666666666*66*666666666666*66*66666666666"
};
