/* XPM */
static char *player_run_b_3[] = {
/* columns rows colors chars-per-pixel */
"64 64 39 1 ",
"  c #3A3737",
". c #5B6F3F",
"X c #5E7341",
"o c #627743",
"O c #657B45",
"+ c #687E47",
"@ c #687F48",
"# c #827C7C",
"$ c #6E864C",
"% c #6F874C",
"& c #6F884D",
"* c #718746",
"= c #738C4F",
"- c #79904B",
"; c #7C934D",
": c #7F974F",
"> c #80984F",
", c #869F53",
"< c #8FAE46",
"1 c #90AF46",
"2 c #96B749",
"3 c #9ABC4B",
"4 c #87A054",
"5 c #8BA556",
"6 c #8DA858",
"7 c #8EA858",
"8 c #93AF5C",
"9 c #94B05C",
"0 c #BC8B6D",
"q c #C49172",
"w c #CDAE67",
"e c #9FC14D",
"r c #A0C34E",
"t c #A3C750",
"y c #A6CA51",
"u c #AACF53",
"i c #B7B3B2",
"p c #D6B39D",
"a c #EFE9E7",
/* pixels */
"9uu999999999=9u99uu999999999=9u99uu999999999=9u99uu999999999=9u9",
"9=u=9999999999=99=u=9999999999=99=u=9999999999=99=u=9999999999=9",
"99=99999999=999999=99999999=999999=99999999=999999=99999999=9999",
"99999u9999=9=99999999u9999=9=99999999u9999=9=99999999u9999=9=999",
"9999u=u9999==9999999u=u9999==9999999u=u9999==9999999u=u9999==999",
"9u99u===9999u9999u99u===9999u9999u99u===9999u9999u99u===9999u999",
"9=99==99=99999999=99==99=99999999=99==99=99999999=99==99=9999999",
"=99999==999u9999=99999==999u9999=99999==999u9999=99999==999u9999",
"9999999=99==99u99999999=99==99u99999999=99==99u99999999=99==99u9",
"999u=9999=9=99=9999u=9999=9=99=9999u=9999=9=99=9999u=9999=9=99=9",
"999=999999=99999999=999999=99999999=999999=99999999=999999=99999",
"9999999=999999999999999=999999999999999=999999999999999=99999999",
"=99999u99999==99=99999u99999==99=99999u99999==99=99999u99999==99",
"=99999=9999u9999=99999=9999u9999=99999=9999u9999=99999=9999u9999",
"u999u999999=9999u999u999999=9999u999u999999=9999u999u999999=9999",
"9=99=999999999999=99=888888888999=98=888888889999=99=99999999999",
"9uu999999999=9u99uu888888888=8u88uu888888888=8u99uu999999999=9u9",
"9=u=9999999999=99=u=8888888888=88=u=8888888888=89=u=9999999999=9",
"99=99999999=999988=88888888=888888=88888888=888889=99999999=9999",
"99999u9999=9=99988888y8777&7=88888888y7777$8=88889999u9999=9=999",
"9999u=u9999==9998888y=y   7$$7777777t$r   7==8888999u=u9999==999",
"9u99u===9999u9988u88y$$ ia 5r5577r55r$ ai 77y8888u99u===9999u999",
"9=99==99=99999988=88$$5 aaa 55555$55$ aaa 5778888=99==99=9999999",
"=99999==999u9998=88875$ a0ai ,,,$44, ia0a 5r7888=89999==999u9999",
"9999999=99==99u88887755 apia# 2,,,, #aipa $$77y88899999=99==99u9",
"999u=9999=9=99=8888y$55, pppa#     #appp O5$57=8889u=9999=9=99=9",
"999=999999=99998888$554, qppai#   #iappq ,@55788889=999999=99999",
"9999999=99999998888755,O> ppia iii aipp >,,557888899999=99999999",
"=99999u99999==98=887553,;; piaiaaaiaip ;;,,5$$88=89999u99999==99",
"=99999=9999u9999=88755+,;   iaaaaaaai   ;,,e5788=99999=9999u9999",
"u999u999999=9999u887r5,, #ii#iaaaaai#ii# ,,$5788u999u999999=9999",
"9=99=999999999998=87$5,, iii# iaaai #iii ,,557888=99=99999999999",
"9uu999999999=9u88uy755, #ai#i iiiii i#ia# ,5$7y88uu999999999=9u9",
"9=u=9999999999=88=y$55, ia ia#iaaai#ai ai ,557=88=u=9999999999=9",
"99=99999999=999888$754, aa aaiaaaaaiaa aa ,$577888=99999999=9999",
"99999u9999=9=998888753, aa iaa www aai aa O4$77888999u9999=9=999",
"9999u=u9999==9988877e@2 iaa aaa   aaa aai ,+$7888899u=u9999==999",
"9u99u===9999u9988y87e@O #iaa #ii ii# aai# ,,e7888u99u===9999u999",
"9=99==99=99999988=87$@,; iiaa   i   aaii ;,,57888=99==99=9999999",
"=99999==999u9998=8875,Oo  iiaiaaaaaiai#  ;,35788=89999==999u9999",
"9999999=99==99u888775,,o ## a# iai #a # ;;O$57y88899999=99==99u9",
"999u=9999=9=99=8887r$4,  #  iii# #iii ## O,$57=8889u=9999=9=99=9",
"999=999999=99998888$55, ii iaaa   aaai ii O55788889=999999=99999",
"9999999=99999998888755, aa aaaa * aaaa aa ,557888999999=99999999",
"=99999u99999==98=887553,       =.=       ,55$$88=99999u99999==99",
"=99999=9999u9999=88875$,,,;<;;;;X;;;;;o,,,5r7888=99999=9999u9999",
"u999u999999=9999u888t555,,,O;;;;1;;;2;,,,55$7888u999u999999=9999",
"9=99=999999999998=88$75554,,,,,,,O,,O,,4555788888=99=99999999999",
"9uu999999999=9u98uu887755554$43,,33,44555577=8u88uu999999999=9u9",
"9=u=9999999999=98=u=8877755555$55$e$5555778888=89=u=9999999999=9",
"99=99999999=999998=88888777$777777$77777788=888899=99999999=9999",
"99999u9999=9=99998888u8888=8=88888878y8888=8=88899999u9999=9=999",
"9999u=u9999==9999988u=u8888==8888888y=y8888==8899999u=u9999==999",
"9u99u===9999u9999u99u===8888u8888u88u===8888u9999u99u===9999u999",
"9=99==99=99999999=99==88=88888888=88==88=89999999=99==99=9999999",
"=99999==999u9999=99998==999u9999=99999==999u9999=99999==999u9999",
"9999999=99==99u99999999=99==99u99998999=99==99u99999999=99==99u9",
"999u=9999=9=99=9999u=9999=9=99=9999u=9999=9=99=9999u=9999=9=99=9",
"999=999999=99999999=999999=99999999=999999=99999999=999999=99999",
"9999999=999999999999999=999999999999999=999999999999999=99999999",
"=99999u99999==99=99999u99999==99=99999u99999==99=99999u99999==99",
"=99999=9999u9999=99999=9999u9999=99999=9999u9999=99999=9999u9999",
"u999u999999=9999u999u999999=9999u999u999999=9999u999u999999=9999",
"9=99=999999999999=99=999999999999=99=999999999999=99=99999999999"
};
