/* XPM */
static char *player_run_b_2[] = {
/* columns rows colors chars-per-pixel */
"64 64 34 1 ",
"  c #3A3737",
". c #607542",
"X c #657B45",
"o c #687E47",
"O c #697F48",
"+ c #827C7C",
"@ c #6C834A",
"# c #6F884D",
"$ c #738C4F",
"% c #788F4B",
"& c #7F964F",
"* c #80984F",
"= c #859F53",
"- c #8BA944",
"; c #93B348",
": c #97B84A",
"> c #9ABC4B",
", c #87A054",
"< c #8BA556",
"1 c #8DA858",
"2 c #8EA858",
"3 c #93AF5C",
"4 c #94B05C",
"5 c #BC8B6D",
"6 c #C49172",
"7 c #CDAE67",
"8 c #9FC14D",
"9 c #A1C44F",
"0 c #A3C750",
"q c #A6CA51",
"w c #AACF53",
"e c #B7B3B2",
"r c #D6B39D",
"t c #EFE9E7",
/* pixels */
"4ww444444444$4w44ww444444444$4w44ww444444444$4w44ww444444444$4w4",
"4$w$4444444444$44$w$4444444444$44$w$4444444444$44$w$4444444444$4",
"44$44444444$444444$44444444$444444$44444444$444444$44444444$4444",
"44444w4444$4$44444444w4444$4$44444444w4444$4$44444444w4444$4$444",
"4444w$w4444$$4444444w$w4444$$4444444w$w4444$$4444444w$w4444$$444",
"4w44w$$$4444w4444w44w$$$4444w4444w44w$$$4444w4444w44w$$$4444w444",
"4$44$$44$44444444$44$$44$44444444$44$$44$44444444$44$$44$4444444",
"$44444$$444w4444$44444$$444w4444$44444$$444w4444$44444$$444w4444",
"4444444$44$$44w44444444$44$$44w44444444$44$$44w44444444$44$$44w4",
"444w$4444$4$44$4444w$4444$4$44$4444w$4444$4$44$4444w$4444$4$44$4",
"444$444444$44444444$444444$44444334$444444$44444444$444444$44444",
"4444444$444444444444444$443333333333344$444444444444444$44444444",
"$44444w44444$$44$44433w33333$$33$33333w33444$$44$44444w44444$$44",
"$44444$4444w4444$44333$3333w3333$33333$3333w4444$44444$4444w4444",
"w444w444444$4444w333w333333$3333q333q333333$3344w444w444444$4444",
"4$44$444444444443$33$333332222222@22@333333333344$44$44444444444",
"4ww444444444$4w33ww33332222<@<   99<22223333$3w34ww444444444$4w4",
"4$w$4444444444$33$w$3322<<<<< ete >@<<<2233333$34$w$4444444444$4",
"44$44444444$444333$322   <=o  +++  =,<   22$333344$44444444$4444",
"44444w4444$4$433333329 et X= ettee == te <@3$33334444w4444$4$444",
"4444w$w4444$$43333329@ ttt  ettttee  ttt <<@$3333444w$w4444$$444",
"4w44w$$$4444w4333q229@ t5te ettttee et5t <<2q3333w44w$$$4444w444",
"4$44$$44$44444333#2<@@ tret+ tttte +tert ,<<23333$44$$44$4444444",
"$44444$$444w4433$22<<=X rrrt+ ete +trrr ==<92333$44444$$444w4444",
"4444444$44$$44w3322<<== 6rrte+   +etrr6 ==@@23q33444444$44$$44w4",
"444w$4444$4$44$33228@=&  rret eee terr  &X,@23$3344w$4444$4$44$4",
"444$444444$44433332@,= et retettteter t+ =O<2333344$444444$44444",
"4444444$44444433322<== tte ettttttte ete ==<22333444444$44444444",
"$44444w44444$$33$22<== ttte+ettttte+ettt ==<@#33$44444w44444$$44",
"$44444$4444w4433$32<== ette+ ettte +ette ==82333$44444$4444w4444",
"w444w444444$4433q22<>= +tt+e eeeee e+tt+ ==@2333w444w444444$4444",
"4$44$444444444333@2<O=  e et+ettte+te e  ==<23333$44$44444444444",
"4ww444444444$4w33q9<,=& + ttetttttett + &=,<@2q33ww444444444$4w4",
"4$w$4444444444$33$0@<=&   ett 777 tte   &=<<23$33$w$4444444444$4",
"44$44444444$443333@<<==& e ttt   ttt e &==<@233334$44444444$4444",
"44444w4444$4$443332<<>=& te +ee ee+ et &==@<@33344444w4444$4$444",
"4444w$w4444$$44333228O;& tte   e   ett &=,<@#3334444w$w4444$$444",
"4w44w$$$4444w4433q329@XX ettetttttette X=<<2q3334w44w$$$4444w444",
"4$44$$44$44444433$32@@==. et+ ete +t+ &=X<<233334$44$$44$4444444",
"$44444$$444w4444$332<<OX& +tt+   ttt  .X=<<q3334$44444$$444w4444",
"4444444$44$$44w433332<,X&& ett+ +tte &&X,<@$33w44444444$44$$44w4",
"444w$4444$4$44$4333q@<<=*. +tte ett+ &*=<@2$33$4444w$4444$4$44$4",
"444$444444$44444433$2<<==& +tte ett+ &==<<@33344444$444444$44444",
"4444444$44444444433322<O= ettte ettte =O<22333444444444$44444444",
"$44444w44444$$44$333228<= e++ee ee++e :<<233$$44$44444w44444$$44",
"$44444$4444w4444$33332@<= ++++ $ ++++ o<<23q3344$44444$4444w4444",
"w444w444444$4444w333q2<<,=    &%-    =,<<23$3344w444w444444$4444",
"4$44$444444444444$33$22<<===&&&&&.&=X=<<223333444$44$44444444444",
"4ww444444444$4w44ww3332<<,==X=;==;;==<<<2333$3w44ww444444444$4w4",
"4$w$4444444444$44$w$3332<<<,==X==X>@<<<2333333$44$w$4444444444$4",
"44$44444444$444444$333322<<@<<<<<<@<<<22333$333444$44444444$4444",
"44444w4444$4$44444333w3332@2@<<<<<<22q3333$3$34444444w4444$4$444",
"4444w$w4444$$4444443w$w3333#@2222222q$q3333$$4444444w$w4444$$444",
"4w44w$$$4444w4444w43w$$$3333q3333q33q$$$3333w4444w44w$$$4444w444",
"4$44$$44$44444444$33$$33$33333333$33$$33$33444444$44$$44$4444444",
"$44444$$444w4444$43343$$333w3333$33333$$344w4444$44444$$444w4444",
"4444444$44$$44w44444444$44$$33w33333444$44$$44w44444444$44$$44w4",
"444w$4444$4$44$4444w$4444$4$44$4444w$4444$4$44$4444w$4444$4$44$4",
"444$444444$44444444$444444$44444444$444444$44444444$444444$44444",
"4444444$444444444444444$444444444434444$444444444444444$44444444",
"$44444w44444$$44$44444w44444$$44$44444w44444$$44$44444w44444$$44",
"$44444$4444w4444$44444$4444w4444$44444$4444w4444$44444$4444w4444",
"w444w444444$4444w444w444444$4444w444w444444$4444w444w444444$4444",
"4$44$444444444444$44$444444444444$44$444444444444$44$44444444444"
};
