/* XPM */
static char *player_run_b_5[] = {
/* columns rows colors chars-per-pixel */
"64 64 36 1 ",
"  c #3A3737",
". c #5E7341",
"X c #627743",
"o c #657C46",
"O c #697F48",
"+ c #827C7C",
"@ c #6A8048",
"# c #6F874C",
"$ c #6F884D",
"% c #738C4F",
"& c #788E4A",
"* c #7C944D",
"= c #80984F",
"- c #829B51",
"; c #97B74A",
": c #97B84A",
"> c #99BA4B",
", c #87A054",
"< c #8BA556",
"1 c #8DA858",
"2 c #8EA858",
"3 c #8FAA59",
"4 c #93AF5C",
"5 c #94B05C",
"6 c #BC8B6D",
"7 c #C49172",
"8 c #CDAE67",
"9 c #9EC04D",
"0 c #A0C34E",
"q c #A3C750",
"w c #A4C850",
"e c #A7CC52",
"r c #AACF53",
"t c #B7B3B2",
"y c #D6B39D",
"u c #EFE9E7",
/* pixels */
"5rr555555555%5r55rr555555555%5r55rr555555555%5r55rr555555555%5r5",
"5%r%5555555555%55%r%5555555555%55%r%5555555555%55%r%5555555555%5",
"55%55555555%555555%55555555%555555%55555555%555555%55555555%5555",
"55555r5555%5%55555555r5555%5%55555555r5555%5%55555555r5555%5%555",
"5555r%r5555%%5555555r%r5555%%5555555r%r5555%%5555555r%r5555%%555",
"5r55r%%%5555r5555r55r%%%5555r5555r55r%%%5555r5555r55r%%%5555r555",
"5%55%%55%55555555%55%%55%55555555%55%%55%55555555%55%%55%5555555",
"%55555%%555r5555%55555%%555r5555%55555%%555r5555%55555%%555r5555",
"5555555%55%%55r55555555%55%%55r55555555%55%%55r55555555%55%%55r5",
"555r%5555%5%55%5555r%5555%5%55%5555r%5555%5%55%5555r%5555%5%55%5",
"555%555555%55555555%555555%55555555%555555%55555555%555555%55555",
"5555555%555555555555555%555555555555555%555555555555555%55555555",
"%55555r55555%%55%55555r55555%%55%55555r55555%%55%55555r55555%%55",
"%55555%5555r5555%55555%5555r5555%55555%5555r5555%55555%5555r5555",
"r555r555555%5555r555r555555%5555r555r555555%5555r555r555555%5555",
"5%55%555555555555%55%555555555555%55%555555555555%55%55555555555",
"5rr555555555%5r55rr554444444%4r44rr444444444%5r55rr555555555%5r5",
"5%r%5555555555%55%r%4444444444%44%r%4444444445%55%r%5555555555%5",
"55%55555555%555555%44444444%444444%44444444%444555%55555555%5555",
"55555r5555%5%55554444r4444%4%44333444e4444%4%44455555r5555%5%555",
"5555r%r5555%%5554444r%e4433##3333333q#e3444%%4444555r%r5555%%555",
"5r55r%%%5555r5554r44e%%#33<<0<<   <<0###3344e4444r55r%%%5555r555",
"5%55%%55%55555554%44%#3   <<<, tut ,##<   3344444%55%%55%5555555",
"%55555%%555r5554%44433# tu >-- +++ --- ut <q3444%45555%%555r5555",
"5555555%55%%55r444443<< uuu   +tut+   uuu ##33e44455555%55%%55r5",
"555r%5555%5%55%4444e#<< u6ut  tuuut  tu6u <#<3%4445r%5555%5%55%5",
"555%555555%55554444#<<, uytu+ uuuuu +utyu O<<344445%555555%55555",
"5555555%555555544443<<-o yyyu+ uuu +uyyy --,<3444455555%55555555",
"%55555r55555%%54%43<<<:  7yyut+   +tuyy7  -<##44%45555r55555%%55",
"%55555%5555r5554%43<<,o + yytu ttt utyy   -><334%45555%5555r5555",
"r555r555555%4554r4339-- uu ytutuuututy uu -O<334r455r555555%5555",
"5%55%555555555544%3<#-- uut tuuuuuuut tuu --<<344%55%55555555555",
"5rr555555555%5r44ee<<-- tuut+tuuuuut+ttut --#<e44rr555555555%5r5",
"5%r%5555555555%44%e#<--* tut+ tuuut +ttt *--<<$44%r%5555555555%5",
"55%55555555%555444#3<--  +t+t ttttt t+t+  -O<33444%55555555%5555",
"55555r5555%5%5544443<>- tt tu+tuuut+ut tt o,#34444555r5555%5%555",
"5555r%r5555%%55444339#; uu uutuuuuutuu uu -O#3344455r%r5555%%555",
"5r55r%%%5555r5544e430#oo   tuu 888 uut   --<03444r55r%%%5555r555",
"5%55%%55%55555544%43##--X*  uuu   uuu  *X--<<3444%55%%55%5555555",
"%55555%%555r5554%4433<Oo**   +tt tt+   X*-,9<344%45555%%555r5555",
"5555555%55%%55r544443<<o-*. t   t   t *X--##34e44555555%55%%55r5",
"555r%5555%5%55%5444e#<<--o tuut   tuut =-O<#34%4455r%5555%5%55%5",
"555%555555%55555444%43<<-- uuuu % uuuu --<#33444455%555555%55555",
"5555555%555555555444433#<--    &&&    -o<<3344445555555%55555555",
"%55555r55555%%55%44444q<<,--oX**X***=->,<<34%%44%55555r55555%%55",
"%55555%5555r5555%44444$3<<,>---=o=----#<<33e4445%55555%5555r5555",
"r555r555555%5555r444r4433<<#----:---><<<334%4445r555r555555%5555",
"5%55%555555555555%54%44433<<<<<<<#<<#<<3344444555%55%55555555555",
"5rr555555555%5r55rr444444433#<0<<00<3<334444%4r55rr555555555%5r5",
"5%r%5555555555%55%r%4444444433#33#q#3344444445%55%r%5555555555%5",
"55%55555555%555555%54444444%444344%44444444%455555%55555555%5555",
"55555r5555%5%55555555r4444%4%44444444r4444%4%55555555r5555%5%555",
"5555r%r5555%%5555555r%r4444%%4444444r%r4445%%5555555r%r5555%%555",
"5r55r%%%5555r5555r55r%%%5555r4444r44r%%%5555r5555r55r%%%5555r555",
"5%55%%55%55555555%55%%55%55555555%55%%45%55555555%55%%55%5555555",
"%55555%%555r5555%55555%%555r5555%55554%%555r5555%55555%%555r5555",
"5555555%55%%55r55555555%55%%55r55555555%55%%55r55555555%55%%55r5",
"555r%5555%5%55%5555r%5555%5%55%5555r%5555%5%55%5555r%5555%5%55%5",
"555%555555%55555555%555555%55555555%555555%55555555%555555%55555",
"5555555%555555555555555%555555555555555%555555555555555%55555555",
"%55555r55555%%55%55555r55555%%55%55555r55555%%55%55555r55555%%55",
"%55555%5555r5555%55555%5555r5555%55555%5555r5555%55555%5555r5555",
"r555r555555%5555r555r555555%5555r555r555555%5555r555r555555%5555",
"5%55%555555555555%55%555555555555%55%555555555555%55%55555555555"
};
