/* XPM */
static char *player_run_b_0[] = {
/* columns rows colors chars-per-pixel */
"64 64 34 1 ",
"  c #3A3737",
". c #5F7341",
"X c #617542",
"o c #667C46",
"O c #697F48",
"+ c #827C7C",
"@ c #6E874C",
"# c #6F884D",
"$ c #738C4F",
"% c #788E4A",
"& c #7E964E",
"* c #80984F",
"= c #849D52",
"- c #95B549",
"; c #97B84A",
": c #9ABC4B",
"> c #87A054",
", c #8AA456",
"< c #8CA757",
"1 c #8EA858",
"2 c #8FAA59",
"3 c #93AF5C",
"4 c #94B05C",
"5 c #BC8B6D",
"6 c #C49172",
"7 c #CDAE67",
"8 c #9FC24E",
"9 c #A2C54F",
"0 c #A4C850",
"q c #A5C951",
"w c #AACF53",
"e c #B7B3B2",
"r c #D6B39D",
"t c #EFE9E7",
/* pixels */
"4ww444444444$4w44ww444444444$4w44ww444444444$4w44ww444444444$4w4",
"4$w$4444444444$44$w$4444444444$44$w$4444444444$44$w$4444444444$4",
"44$44444444$444444$44444444$444444$44444444$444444$44444444$4444",
"44444w4444$4$44444444w4444$4$44444444w4444$4$44444444w4444$4$444",
"4444w$w4444$$4444444w$w4444$$4444444w$w4444$$4444444w$w4444$$444",
"4w44w$$$4444w4444w44w$$$4444w4444w44w$$$4444w4444w44w$$$4444w444",
"4$44$$44$44444444$44$$44$44444444$44$$44$44444444$44$$44$4444444",
"$44444$$444w4444$44444$$444w4444$44444$$444w4444$44444$$444w4444",
"4444444$44$$44w44444444$44$$44w44444444$44$$44w44444444$44$$44w4",
"444w$4444$4$44$4444w$4444$4$44$4444w$4444$4$44$4444w$4444$4$44$4",
"444$444444$44444444$444444$44444444$444444$44444444$444444$44444",
"4444444$444444444444444$444444444444444$444444444444444$44444444",
"$44444w44444$$44$44444w44444$$44$44444w44444$$44$44444w44444$$44",
"$44444$4444w4444$44444$4444w4444$44444$4444w4444$44444$4444w4444",
"w444w444444$4444w444w333333$3344w443w333333$3444w444w444444$4444",
"4$44$444444444444$33$333333333333$33$333333333344$44$44444444444",
"4ww444444444$4w44ww333333333$3w33ww333333333$3w34ww444444444$4w4",
"4$w$4444444444$43$w$3333333333$33$q$3333333333$33$w$4444444444$4",
"44$44444444$444433$33332222@223333$32222223$333334$44444444$4444",
"44444w4444$4$44433333q2   @<@<<22222<9<   @3#33334444w4444$4$444",
"4444w$w4444$$4433333q@9 et @@<<<<<<<8@ te 2@$3333344w$w4444$$444",
"4w44w$$$4444w4433w33q@@ ttt :><<<:<>: ttt <2q3333w44w$$$4444w444",
"4$44$$44$44444433$33@@< t5te ==   == et5t <<23333$44$$44$4444444",
"$44444$$444w4443$332<<@ tret+  ete  +tert <82233$34444$$444w4444",
"4444444$44$$44w33332<<>o rrrt+ +++ +trrr =@@<2q33344444$44$$44w4",
"444w$4444$4$44$3333q@<== 6rrte+   +etrr6 o=@<2$3334w$4444$4$44$4",
"444$444444$44443333@<<==& rret eee terr &=o<<223334$444444$44444",
"4444444$444444433332<<=o + retettteter + ==<<2233344444$44444444",
"$44444w44444$$33$33<<>;* ee ettttttte ee &=>@@33$34444w44444$$44",
"$44444$4444w3333$33<<>o +tee+ettttte+eet+ =:<233$34444$4444w4444",
"w444w444444$4433w3328>= etee+ ettte +eete =O<233w344w444444$4444",
"4$44$444444444333$32@>= tte+e eeeee e+ett =><2333$44$44444444444",
"4ww444444444$4w33qq2<== tt et+ettte+te tt ==@2q33ww444444444$4w4",
"4$w$4444444444$33$q@<== tt ttetttttett tt ==<2#33$w$4444444444$4",
"44$44444444$444333@<<== et ett 777 tte te =O<22333$44444444$4444",
"44444w4444$4$443332<<:=& tt ttt   ttt tt &o=@22333444w4444$4$444",
"4444w$w4444$$44333228O-  +tt +ee ee+ tt+  =o@<333344w$w4444$$444",
"4w44w$$$4444w4433q228Oo ee+tt   e   tt+ee ==8<333w44w$$$4444w444",
"4$44$$44$44444433$32@@= tt etetttttete tt =><<333$44$$44$4444444",
"$44444$$444w4443$332<<oo    t+ ete +t    ==:<233$34444$$444w4444",
"4444444$44$$44w33332<<=o&&  et+   +te  .&=O@<2q33344444$44$$44w4",
"444w$4444$4$44$3333q@<>=*X% ete+ +ete %&*o>@23$3334w$4444$4$44$4",
"444$444444$44444333$2<<==& tttt   tttt &==@<2333344$444444$44444",
"4444444$44444444333322<@== tttt $ tttt o=><223333444444$44444444",
"$44444w44444$$44$333329<>==    %.%    -=><<2$$33$44444w44444$$44",
"$44444$4444w4444$33332@<<==-&&&&X&&&&=o=<<2q3333$44444$4444w4444",
"w444w444444$4444w333q322<<>o===*-*==-=><<<2$3333w444w444444$4444",
"4$44$444444444444$33$3322<<<=====o==O<<<<23333334$44$44444444444",
"4ww444444444$4w44ww3333322<<@<:<<::<<<<<2333$3w44ww444444444$4w4",
"4$w$4444444444$44$w$3333322<<<@<<@9@<<22333333$44$w$4444444444$4",
"44$44444444$444444$43333333$222222@22333333$333344$44444444$4444",
"44444w4444$4$44444443w3333$3$33332333q3333$3$33444444w4444$4$444",
"4444w$w4444$$4444444w$w3333$$3333333w$w3333$$4444444w$w4444$$444",
"4w44w$$$4444w4444w44w$$$3333w3333w33w$$$3344w4444w44w$$$4444w444",
"4$44$$44$44444444$44$$44$44433333$33$$33$44444444$44$$44$4444444",
"$44444$$444w4444$44444$$444w4444$44444$$444w4444$44444$$444w4444",
"4444444$44$$44w44444444$44$$44w44444444$44$$44w44444444$44$$44w4",
"444w$4444$4$44$4444w$4444$4$44$4444w$4444$4$44$4444w$4444$4$44$4",
"444$444444$44444444$444444$44444444$444444$44444444$444444$44444",
"4444444$444444444444444$444444444444444$444444444444444$44444444",
"$44444w44444$$44$44444w44444$$44$44444w44444$$44$44444w44444$$44",
"$44444$4444w4444$44444$4444w4444$44444$4444w4444$44444$4444w4444",
"w444w444444$4444w444w444444$4444w444w444444$4444w444w444444$4444",
"4$44$444444444444$44$444444444444$44$444444444444$44$44444444444"
};
