/* XPM */
static char *player_run_l_3[] = {
/* columns rows colors chars-per-pixel */
"64 64 35 1 ",
"  c #3A3737",
". c #5B6F3F",
"X c #5D7140",
"o c #627844",
"O c #697F48",
"+ c #827C7C",
"@ c #6E864C",
"# c #6F884D",
"$ c #738947",
"% c #738C4F",
"& c #788E4A",
"* c #7F964F",
"= c #80984F",
"- c #849D52",
"; c #89A743",
": c #92B247",
"> c #94B448",
", c #9BBC4C",
"< c #87A054",
"1 c #8CA757",
"2 c #8DA858",
"3 c #8EA858",
"4 c #8EA958",
"5 c #93AF5C",
"6 c #94B05C",
"7 c #BC8B6D",
"8 c #CDAE67",
"9 c #9DC04D",
"0 c #A3C64F",
"q c #A3C750",
"w c #A7CC52",
"e c #AACF53",
"r c #B7B3B2",
"t c #D6B39D",
"y c #EFE9E7",
/* pixels */
"6ee666666666%6e66ee666666666%6e66ee666666666%6e66ee666666666%6e6",
"6%e%6666666666%66%e%6666666666%66%e%6666666666%66%e%6666666666%6",
"66%66666666%666666%66666666%666666%66666666%666666%66666666%6666",
"66666e6666%6%66666666e6666%6%66666666e6666%6%66666666e6666%6%666",
"6666e%e6666%%6666666e%e6666%%6666666e%e6666%%6666666e%e6666%%666",
"6e66e%%%6666e6666e66e%%%6666e6666e66e%%%6666e6666e66e%%%6666e666",
"6%66%%66%66666666%66%%66%66666666%66%%66%66666666%66%%66%6666666",
"%66666%%666e6666%66666%%666e6666%66666%%666e6666%66666%%666e6666",
"6666666%66%%66e66666666%66%%66e66666666%66%%66e66666666%66%%66e6",
"666e%6666%6%66%6666e%6666%6%66%6666e%6666%6%66%6666e%6666%6%66%6",
"666%666666%66666666%666666%66666666%666666%66666666%666666%66666",
"6666666%666666666666666%666666666666666%666666666666666%66666666",
"%66666e66666%%66%66666e66666%%66%66666e66666%%66%66666e66666%%66",
"%66666%6666e6666%66666%6666e6666%66666%6666e6666%66666%6666e6666",
"e666e666666%6666e666e666666%5556e666e666666%6666e666e666666%6666",
"6%66%666666666666%66%655555555555%55%666666666666%66%66666666666",
"6ee666666666%6e66ee655555555%5e55ee555666666%6e66ee666666666%6e6",
"6%e%6666666666%66%e%5555555555%55%e%5556666666%66%e%6666666666%6",
"66%66666666%666666%55555555#444555%55555666%666666%66666666%6666",
"66666e6666%6%66665555w5544@4@11444555e5566%6%66666666e6666%6%666",
"6666e%e6666%%6666555w%w441  @1   445w%e5666%%6666666e%e6666%%666",
"6e66e%%%6666e6665e55w#@@1 y , +r 044w%%%5666e6666e66e%%%6666e666",
"6%66%%66%66666665%55%@11 +y  ryy @14@%55%66666666%66%%66%6666666",
"%66666%%666e6665%55541@O yy  yyy 11145%%566e6666%66666%%666e6666",
"6666666%66%%66e55554111 +yy ryty -11445%55%%66e56666666%66%%66e6",
"666e%6666%6%66%55540@1- ryr+ytty --9@4555%5%66%5666e%6666%6%66%6",
"666%666666%66555554@1-- ry rytt *--@114555%55665666%666666%66666",
"6666666%666655555411<-   + yttt **--<11@555555666666666%66666666",
"%66666e66666%%55@411- yyrr+ytt7     -1914555%%56%66666e66666%%66",
"%66666%6666e5555@11- ryyyy+yt7 yyyr+  O1145w5555%66666%6666e6666",
"e666e666665%555401- +yyyyyyytr yyyyyyr <114%5555e666e666666%6666",
"6%66%666555555541@- ryy yryyy+ryyyyyyy+ <11455555%66%66666666666",
"6ee666666655%5w41, ryyr  yyyr+yyyyyyyyyr <11@5w55ee666666666%6e6",
"6%e%6666665555@11 +yyyyyyyyyyyyyyyyyyyyy+ 1114%55%e%6666666666%6",
"66%66666665%55411 ryyyyyyyyryyyyyyyyyyyyr -@144555%56666666%6666",
"66666e6666%5%541< 88 yyyyyr+yyyyyyyyyyyy+y -@14455556e6666%6%666",
"6666e%e6555%%541<- +yyyyr +yyyyyyyyyyyyyry oO1145555e%e6666%%666",
"6e66e%%%6555w541<>*  +r+ ryyyyyyyyyyyyyyrr   1145w55e%%%6666e666",
"6%66%%66%65554411o=*X   ryyyyyyyyyyr+yyy+  yr 144%55%%66%6666666",
"%66666%%655e5541@--** + ryyr ryyyr+  +yyyrr r 11@55556%%666e6666",
"6666666%66%%55w11--** + +rr+      $$%  +yyrr -914555556%66%%66e6",
"666e%6666%5%55#41<-: r +rrr $%.%%%&;X% ryyy  -@1455e%5666%6%66%6",
"666%666666%5555411- r +yyyr %&&****o***     -<11455%555566%66666",
"6666666%6665555411- r ryyy ******===***o*=---1144555556%66666666",
"%66666e66655%%54@11-      **oo--o----->-----@@14%55556e66666%%66",
"%66666%6655e5555@11---o***=>----@111<<O---<,1144%55556%6666e6666",
"e666e666665%5555w411,------o-11101119111111@1445w555e666666%6666",
"6%66%666665555555@11@1<--<<111144@44@411111144555%55%66666666666",
"6ee666666666%5e55wq411111111@4w45ww544444444%5w55ee566666666%6e6",
"6%e%6666666665%55%w@4411114444%55%w%5555555555%55%e%6666666666%6",
"66%66666666%655555%55444445%555555%55555555%555555%66666666%6666",
"66666e6666%6%55555555w5555%5%55555555e5555%5%55566666e6666%6%666",
"6666e%e6666%%6555555e%e5555%%5556666e%e5555%%6666666e%e6666%%666",
"6e66e%%%6666e6665e55e%%%5555e5666e66e%%%6666e6666e66e%%%6666e666",
"6%66%%66%66666666%55%%55%56666666%66%%66%66666666%66%%66%6666666",
"%66666%%666e6666%65555%%666e6666%66666%%666e6666%66666%%666e6666",
"6666666%66%%66e66666666%66%%66e66666666%66%%66e66666666%66%%66e6",
"666e%6666%6%66%6666e%6666%6%66%6666e%6666%6%66%6666e%6666%6%66%6",
"666%666666%66666666%666666%66666666%666666%66666666%666666%66666",
"6666666%666666666666666%666666666666666%666666666666666%66666666",
"%66666e66666%%66%66666e66666%%66%66666e66666%%66%66666e66666%%66",
"%66666%6666e6666%66666%6666e6666%66666%6666e6666%66666%6666e6666",
"e666e666666%6666e666e666666%6666e666e666666%6666e666e666666%6666",
"6%66%666666666666%66%666666666666%66%666666666666%66%66666666666"
};
