/* XPM */
static char *player_run_l_0[] = {
/* columns rows colors chars-per-pixel */
"64 64 38 1 ",
"  c #3A3737",
". c #5C6F3F",
"X c #5E7341",
"o c #627743",
"O c #647944",
"+ c #687E47",
"@ c #697F48",
"# c #827C7C",
"$ c #6D854B",
"% c #6F874C",
"& c #6F884D",
"* c #728747",
"= c #738C4F",
"- c #788E4A",
"; c #7E964E",
": c #80984F",
"> c #859E53",
", c #8CAA44",
"< c #97B74A",
"1 c #97B84A",
"2 c #99BA4B",
"3 c #87A054",
"4 c #8CA757",
"5 c #8DA858",
"6 c #8EA858",
"7 c #8FAA59",
"8 c #93AF5C",
"9 c #94B05C",
"0 c #BC8B6D",
"q c #CDAE67",
"w c #9FC14D",
"e c #A1C44E",
"r c #A3C750",
"t c #A7CB51",
"y c #AACF53",
"u c #B7B3B2",
"i c #D6B39D",
"p c #EFE9E7",
/* pixels */
"9yy999999999=9y99yy999999999=9y99yy999999999=9y99yy999999999=9y9",
"9=y=9999999999=99=y=9999999999=99=y=9999999999=99=y=9999999999=9",
"99=99999999=999999=99999999=999999=99999999=999999=99999999=9999",
"99999y9999=9=99999999y9999=9=99999999y9999=9=99999999y9999=9=999",
"9999y=y9999==9999999y=y9999==9999999y=y9999==9999999y=y9999==999",
"9y99y===9999y9999y99y===9999y9999y99y===9999y9999y99y===9999y999",
"9=99==99=99999999=99==99=99999999=99==99=99999999=99==99=9999999",
"=99999==999y9999=99999==999y9999=99999==999y9999=99999==999y9999",
"9999999=99==99y99999999=99==99y99999999=99==99y99999999=99==99y9",
"999y=9999=9=99=9999y=9999=9=99=9999y=9999=9=99=9999y=9999=9=99=9",
"999=999999=99999999=999999=99999999=999999=99999999=999999=99999",
"9999999=999999999999999=999999999999999=999999999999999=99999999",
"=99999y99999==99=99999y99999==99=99999y99999==99=99999y99999==99",
"=99999=9999y9999=99999=9999y9988=99999=9999y9999=99999=9999y9999",
"y999y999999=9999y999y999888=8888y888y899999=9999y999y999999=9999",
"9=99=999999999999=99=988888888888=88=888999999999=99=99999999999",
"9yy999999999=9y99yy998888888=8t88tt888888889=9y99yy999999999=9y9",
"9=y=9999999999=99=y=8888888877$77=t=8888889999=99=y=9999999999=9",
"99=99999999=999999=88888887$747777$78888889=999999=99999999=9999",
"99999y9999=9=99999988t8887$4  44   77t8888=9=99999999y9999=9=999",
"9999y=y9999==9999988y=t7744 p 3 #u 4e&t8888==9999999y=y9999==999",
"9y99y===9999y9999y88y==$44 #p  upp 4e$$=8889y9999y99y===9999y999",
"9=99==99=99999999=88==74$3 pp  ppp 4$$78=88999999=99==99=9999999",
"=99999==999y9999=88887$$4 #pp upip 344$&888y9999=99999==999y9999",
"9999999=99==99y98888774$> upu#piip >447$88==99y89999999=99==99y9",
"999y=9999=9=99=8888t$44>> up upii :1$4778=8=99=8999y=9999=9=99=9",
"999=999999=99988888$443>   # piii ;O>44788=88998999=999999=99999",
"9999999=99999988887744> ppuu#pii0 ;>>44$788888999999999=99999999",
"=99999y99999==88=8744> upppp#pi0 -;;>>247888==89=99999y99999==99",
"=99999=9999y8888=7443 #pppppppiu     >@4478t8888=99999=9999y9999",
"y999y999999=8888t7442 upp puppp#uppu#  3447$8888y999y999999=9999",
"9=99=999999888887$4> uppu  pppu#ppppppu 444788888=99=99999999999",
"9yy999999999=8t87e2 #ppppppppppppppppppu 447$8t88yy999999999=9y9",
"9=y=9999999988=87$2 uppppppppupppppppppp# 4477=88=y=9999999999=9",
"99=99999999=888874@ qq pppppu#ppppppppppu >$478888=99999999=9999",
"99999y9999=9=888744> #ppppu #pppppppppppp# 3$77888899y9999=9=999",
"9999y=y9998==887744><  #u# upppppppppppppu O$4788889y=y9999==999",
"9y99y===9988y8887e4><oX   upppppppppppppp#p 24478y89y===9999y999",
"9=99==99=99888887$43OO;-. uppppupppppppppup >4478=89==99=9999999",
"=99999==998y8888=744>>Oo- #upppuuppppppppuu >447=88999==999y9999",
"9999999=99==88y887443>>o;= #uuuu uppppupp# O>4e78889999=99==99y9",
"999y=9999=9=98=8887e$3>>;X   #uu# #uu upu# O>4$7888y=9999=9=99=9",
"999=999999=99888888$44>>;; #  uuu    #uuu O>3477888=999999=99999",
"9999999=999999888888744O> u #pppu  #ppuu# >>44788889899=99999999",
"=99999y99999==98=88874w3> u pppp * uppp  ;>>$$78=88999y99999==99",
"=99999=9999y9999=88877$4>>      .==     ;>>24778=88999=9999y9999",
"y999y999999=9999y888t7744>>O;;;;,;;;,;;:>>>$4778y889y999999=9999",
"9=99=999999999999=88=87444>>>>:;;o;;o>>>>34447888=99=99999999999",
"9yy999999999=9y99yy88887443>+><>><<>>>>34444$8t88yy999999999=9y9",
"9=y=9999999999=99=y=8887744444@33+2@3444447788=88=y=9999999999=9",
"99=99999999=999999=88888877$444444$44444778=888889=99999999=9999",
"99999y9999=9=99999988y8888&7$77774777r7788=8=88899999y9999=9=999",
"9999y=y9999==9999998y=y8888==8888888t=t8888==8899999y=y9999==999",
"9y99y===9999y9999y99y===8888t8888t88t===8888y8999y99y===9999y999",
"9=99==99=99999999=89==88=88888888=88==88=88899999=99==99=9999999",
"=99999==999y9999=98898==888y8888=88888==999y9999=99999==999y9999",
"9999999=99==99y99999999=99==99y98888999=99==99y99999999=99==99y9",
"999y=9999=9=99=9999y=9999=9=99=9888y=9999=9=99=9999y=9999=9=99=9",
"999=999999=99999999=999999=99999998=999999=99999999=999999=99999",
"9999999=999999999999999=999999999998999=999999999999999=99999999",
"=99999y99999==99=99999y99999==99=99999y99999==99=99999y99999==99",
"=99999=9999y9999=99999=9999y9999=99999=9999y9999=99999=9999y9999",
"y999y999999=9999y999y999999=9999y999y999999=9999y999y999999=9999",
"9=99=999999999999=99=999999999999=99=999999999999=99=99999999999"
};
