/* XPM */
static char *enemy_run_r_4[] = {
/* columns rows colors chars-per-pixel */
"64 64 41 1 ",
"  c black",
". c #222121",
"X c gray21",
"o c #5E2A22",
"O c #536439",
"+ c #55683B",
"@ c #5A6E3E",
"# c #565656",
"$ c #5E7240",
"% c #607442",
"& c #657B45",
"* c #6B7F42",
"= c #687F48",
"- c #6E8244",
"; c #6E874C",
": c #6F884D",
"> c #708546",
", c #728847",
"< c #738C4F",
"1 c #788E4A",
"2 c #7F974F",
"3 c #80984F",
"4 c #849D52",
"5 c #86A341",
"6 c #88A642",
"7 c #8FAE46",
"8 c #92B247",
"9 c #95B649",
"0 c #97B84A",
"q c #9DBF4C",
"w c #87A154",
"e c #8AA456",
"r c #8DA858",
"t c #8EA958",
"y c #93AF5B",
"u c #94B05C",
"i c #9FC14D",
"p c #A1C44E",
"a c #A3C750",
"s c #A4C850",
"d c #AACF53",
/* pixels */
"udduuuuuuuuu<uduudduuuuuuuuu<uduudduuuuuuuuu<uduudduuuuuuuuu<udu",
"u<d<uuuuuuuuuu<uu<d<uuuuuuuuuu<uu<d<uuuuuuuuuu<uu<d<uuuuuuuuuu<u",
"uu<uuuuuuuu<uuuuuu<uuuuuuuu<uuuuuu<uuuuuuuu<uuuuuu<uuuuuuuu<uuuu",
"uuuuuduuuu<u<uuuuuuuuduuuu<u<uuuuuuuuduuuu<u<uuuuuuuuduuuu<u<uuu",
"uuuud<duuuu<<uuuuuuud<duuuu<<uuuuuuud<duuuu<<uuuuuuud<duuuu<<uuu",
"uduud<<<uuuuduuuuduud<<<uuuuduuuuduud<<<uuuuduuuuduud<<<uuuuduuu",
"u<uu<<uu<uuuuuuuu<uu<<uu<uuuuuuuu<uu<<uu<uuuuuuuu<uu<<uu<uuuuuuu",
"<uuuuu<<uuuduuuu<uuuuu<<uuuduuuu<uuuuu<<uuuduuuu<uuuuu<<uuuduuuu",
"uuuuuuu<uu<<uuduuuuuuuu<uu<<uuduuuuuuuu<uu<<uuduuuuuuuu<uu<<uudu",
"uuud<uuuu<u<uu<uuuud<uuuu<u<uu<uuuud<uuuu<u<uu<uuuud<uuuu<u<uu<u",
"uuu<uuuuuu<uuuuuuuu<uuuuuu<uuuuuuuu<uuuuuu<uuuuuuuu<uuuuuu<uuuuu",
"uuuuuuu<uuuuuuuuuuuuuuu<uuuuuuuuuuuuuuu<uuuuuuuuuuuuuuu<uuuuuuuu",
"<uuuuuduuuuu<<uu<uuuuuduuuuu<<uu<uuuuuduuuuu<<uu<uuuuuduuuuu<<uu",
"<uuuuu<uuuuduuuu<uuuuu<uuuuduuuu<uuuuu<uuuuduuuu<uuuuu<uuuuduuuu",
"duuuduuuuuu<uuuuduuuduuuuuu<uuuuduuuduuuuuu<yuuuduuuduuuuuu<uuuu",
"u<uu<uuuuuuuuuuuu<uu<uuuuuuuuuuuu<uu<uuuuuuuyuyyy<uu<uuuuuuuuuuu",
"udduuuuuuuuu<uduudduuuuuuuuu<uduudduuuuuuuuu<ydyyddyuuuuuuuu<udu",
"u<d<uuuuuuuuuu<uu<d<uuuuuuuuuu<uu<d<uuuuuuuyyy<  <d<yuuuuuuuuu<u",
"uu<uuuuuuuu<uuuuuu<uuuuuuuu<uuuuuu<yuuuuuuy<yt # t<yyuuuuuu<uuuu",
"uuuuuduuuu<u<uuuuuuuydyuuu<u<uuuuuuuudyyyy<t; .# etyyduuuu<u<uuu",
"uuuud<duuuu<<uuuuuuud<duuuu<<uuuuuuyd<dyyyt;  .## ets<duuuu<<uuu",
"uduud<<<uuuuduuuuduud<<<yyyydyyyudyys<:;    ..X###  a<<<uuuuduuu",
"u<uu<<uu<uuuyuuuu<yy<<yy<yyyyyyyy<yy;   ....XX###### ;yy<uuuuuuu",
"<uuuuu<<uuuduuuy<yyyyt        tt;tt  ...XXXX#####XX. e:<yuuduuuu",
"uuuuuuu<uu<<uudyyytt  ........     ..XXX##########.o we<yy<<uudu",
"uuud<uuuu<u<uy<yt   ..XXXXXXXX.....XX##############X. ety<y<uu<u",
"uuu<uuuuuu<uyyyt XX .X########XXXXX###########XXX##### ety<yuuuu",
"uuuuuuu<uuuyyyt X. .X#######################XX...X#####  tyyuuuu",
"<uuuuuduyuuy<;e X  .X######################X...     ##   tyy<<uu",
"<uuuuu<uuuydye #.  .X#####################X... -+>>>    4eydyuuu",
"duuuduuuuuy<te #.  .X######XXX############X.. ><611<61224et<yuuu",
"u<uu<uuuuyyye #X.  .X#####X...XXX#########X. ,122&42%234eeyyyuuu",
"udduuuyuuyyt; #X.  .X#####X......XXX###### . 284wqqw444eetyy<udu",
"u<d<uuuuyyye #X. O .X#####X   ......X#####  12&et;a;eeettyyyuu<u",
"uu<uyuuuyyt; #X. *  .X#### +--   ....X#### @24etyy<yyyyyyyy<uuuu",
"uuuuuduyyt; #X..  .. .X### ,@<<>-     #### 2&etyyyyyydyyyy<u<uuu",
"uuuud<dyye #XX. .... .X## <$%222<,- .. ### %&eyyyuuud<duuuu<<uuu",
"uduud<<<e XX..  ..    X## 23044427< .. ### 3qtyyuduud<<<uuuuduuu",
"u<uu<<yt ...  - . --+ X# 124eeee4&2 ..  ## 4etyuu<uu<<uu<uuuuuuu",
"<uuuyy;     <>> . ,,> X# 24ityyt;4 .. O ## 9etyu<uuuuu<<uuuduuuu",
"uuuyyyt;42%$1<5 . <1< X# 2=;yydye4 . >-+ # &etduuuuuuuu<uu<<uudu",
"uuud<yte4&3&22$ . 27$1 # &e;yy<ye4 . <<< ## et<yuuud<uuuu<u<uu<u",
"uuu<yyteew=4442 .. &22 # 4;tyyyte .. 2221 # wtyyuuu<uuuuuu<uuuuu",
"uuuuyyy:teeeew4 .. 442 # 4etyyyte . 224&2 # 4etyyuuuuuu<uuuuuuuu",
"<uuuyydyyyyy;;4 .. 4447 #  e<<ye= . 24q442 #  ey<yuuuuduuuuu<<uu",
"<uuuuy<yyyydye42  3444& ### tyye= . 44;e42 ### t<yuuuu<uuuuduuuu",
"duuuduyuuuu<yte4834wqw42    etteq4  0eeee42    esyyuduuuuuu<uuuu",
"u<uu<yyuuuuyytew4&we;e442244ettte&44;ettew42244ey<yu<uuuuuuuuuuu",
"udduuuuuuuuy<yseeipttte4444e;tsteqqwetyyte44&4qeydduyuuuuuuu<udu",
"u<d<uuuuuuuuyy<yt;s<yyteeeeety<yt;p;tyyyyteeee;ty<d<uuuuuuuuuu<u",
"uu<uuuuuuuu<uyyyyy<yyyytttt;yyyyyy:yyyyyyyt;tttyyy<yuuuuuuu<uuuu",
"uuuuuduuuu<u<uuyyyyyydyyyy<y<yyyyyyyydyyyy<y<yyyyyyyuduuuu<u<uuu",
"uuuud<duuuu<<uuuuuuud<dyyyy<<yuuuyyyd<dyuyy<<yyyyuuud<duuuu<<uuu",
"uduud<<<uuuuduuuuduud<<<uuuuduuuuduud<<<uuuuduuuuduud<<<uuuuduuu",
"u<uu<<uu<uuuuuuuu<uu<<uu<uuuuuuuu<uu<<uu<uuuuuuuu<uu<<uu<uuuuuuu",
"<uuuuu<<uuuduuuu<uuuuu<<uuuduuuu<uuuuu<<uuuduuuu<uuuuu<<uuuduuuu",
"uuuuuuu<uu<<uuduuuuuuuu<uu<<uuduuuuuuuu<uu<<uuduuuuuuuu<uu<<uudu",
"uuud<uuuu<u<uu<uuuud<uuuu<u<uu<uuuud<uuuu<u<uu<uuuud<uuuu<u<uu<u",
"uuu<uuuuuu<uuuuuuuu<uuuuuu<uuuuuuuu<uuuuuu<uuuuuuuu<uuuuuu<uuuuu",
"uuuuuuu<uuuuuuuuuuuuuuu<uuuuuuuuuuuuuuu<uuuuuuuuuuuuuuu<uuuuuuuu",
"<uuuuuduuuuu<<uu<uuuuuduuuuu<<uu<uuuuuduuuuu<<uu<uuuuuduuuuu<<uu",
"<uuuuu<uuuuduuuu<uuuuu<uuuuduuuu<uuuuu<uuuuduuuu<uuuuu<uuuuduuuu",
"duuuduuuuuu<uuuuduuuduuuuuu<uuuuduuuduuuuuu<uuuuduuuduuuuuu<uuuu",
"u<uu<uuuuuuuuuuuu<uu<uuuuuuuuuuuu<uu<uuuuuuuuuuuu<uu<uuuuuuuuuuu"
};
