/* XPM */
static char *enemy_run_l_2[] = {
/* columns rows colors chars-per-pixel */
"64 64 40 1 ",
"  c black",
". c #222121",
"X c gray21",
"o c #5E2A22",
"O c #576A3C",
"+ c #5B6E3E",
"@ c #565656",
"# c #5D7140",
"$ c #617542",
"% c #667D46",
"& c #6B7F42",
"* c #697F48",
"= c #7B963C",
"- c #6F8445",
"; c #6C844A",
": c #6F884D",
"> c #728747",
", c #738947",
"< c #738C4F",
"1 c #788F4B",
"2 c #7F974F",
"3 c #80984F",
"4 c #819950",
"5 c #85A241",
"6 c #89A643",
"7 c #8DAB45",
"8 c #91B047",
"9 c #97B74A",
"0 c #9DBF4C",
"q c #87A154",
"w c #8CA757",
"e c #8DA858",
"r c #8EA958",
"t c #93AF5C",
"y c #94B05C",
"u c #9FC24E",
"i c #A1C44E",
"p c #A3C750",
"a c #A5C951",
"s c #AACF53",
/* pixels */
"yssyyyyyyyyy<ysyyssyyyyyyyyy<ysyyssyyyyyyyyy<ysyyssyyyyyyyyy<ysy",
"y<s<yyyyyyyyyy<yy<s<yyyyyyyyyy<yy<s<yyyyyyyyyy<yy<s<yyyyyyyyyy<y",
"yy<yyyyyyyy<yyyyyy<yyyyyyyy<yyyyyy<yyyyyyyy<yyyyyy<yyyyyyyy<yyyy",
"yyyyysyyyy<y<yyyyyyyysyyyy<y<yyyyyyyysyyyy<y<yyyyyyyysyyyy<y<yyy",
"yyyys<syyyy<<yyyyyyys<syyyy<<yyyyyyys<syyyy<<yyyyyyys<syyyy<<yyy",
"ysyys<<<yyyysyyyysyys<<<yyyysyyyysyys<<<yyyysyyyysyys<<<yyyysyyy",
"y<yy<<yy<yyyyyyyy<yy<<yy<yyyyyyyy<yy<<yy<yyyyyyyy<yy<<yy<yyyyyyy",
"<yyyyy<<yyysyyyy<yyyyy<<yyysyyyy<yyyyy<<yyysyyyy<yyyyy<<yyysyyyy",
"yyyyyyy<yy<<yysyyyyyyyy<yy<<yysyyyyyyyy<yy<<yysyyyyyyyy<yy<<yysy",
"yyys<yyyy<y<yy<yyyys<yyyy<y<yy<yyyys<yyyy<y<yy<yyyys<yyyy<y<yy<y",
"yyy<yyyyyy<yyyyyyyy<yyyyyy<yyyyyyyy<yyyyyy<yyyyyyyy<yyyyyy<yyyyy",
"yyyyyyy<yyyyyyyyyyyyyyy<yyyyyyyyyyyyyyy<yyyyyyyyyyyyyyy<yyyyyyyy",
"<yyyyysyyyyy<<yy<yyyyysyyyyy<<yy<yyyyysyyyyy<<yy<yyyyysyyyyy<<yy",
"<yyyyy<yyyysyyyy<yyyyy<yyyysyyyy<yyyyy<yyyysyyyy<yyyyy<yyyysyyyy",
"syyysyyyyyy<yyyysyyysyyyyyy<yyyysyyysyyyyyy<yyyysyyysyyyyyy<yyyy",
"y<yy<yyyyyyyyyytt<ty<yyyyyyyyyyyy<yy<yyyyyyyyyyyy<yy<yyyyyyyyyyy",
"yssyyyyyyyyy<tsttssttyyyyyyy<ysyyssyyyyyyyyy<ysyyssyyyyyyyyy<ysy",
"y<s<yyyyyyyytt<t  a<ttyyyyyyyy<yy<s<yyyyyyyyyy<yy<s<yyyyyyyyyy<y",
"yy<yyyyyyyt<tttr @ rtttyyyy<yyyyyy<yyyyyyyy<yyyyyy<yyyyyyyy<yyyy",
"yyyyysyyyy<t<trw @. watttt<y<yyyyyyyysyyyy<y<yyyyyyyysyyyy<y<yyy",
"yyyys<syyyt<<rw @@.  ;ptttt<<tyyyttys<syyyy<<yyyyyyys<syyyy<<yyy",
"ysyys<<<ytttp  @@@X..    rrtatttystts<<<ttttsyyyysyys<<<yyyysyyy",
"y<yy<<yy<ttr @@@@@@XX....   rtttt<tt<<tt<ttttttyy<yy<<yy<yyyyyyy",
"<yyyyy<<ttru .XX@@@@@XXXX...  rr;rr        ptttt<tyyyy<<yyysyyyy",
"yyyyyyy<tt;* o.@@@@@@@@@@XXX..     ........  rattttyyyy<yy<<yysy",
"yyys<yttt;w .X@@@@@@@@@@@@@@XX.....XXXXXXXX..   rtts<ytyy<y<yy<y",
"yyy<ytttrw @@@@@XXX@@@@@@@@@@@XXXXX@@@@@@@@X. XX rt<tytyyy<yyyyy",
"yyyyytt:  @@@@@X...XX@@@@@@@@@@@@@@@@@@@@@@@X. .X rttty<yyyyyyyy",
"<yyyttar   @@     ...X@@@@@@@@@@@@@@@@@@@@@@X.  X wrttsyyyyy<<yy",
"<ytytt<w4    >>>O- ...X@@@@@@@@@@@@@@@@X@@@@X.  .@ wtt<yyyysyyyy",
"syyystrw422#<<116<> ..X@@@@@@@@@@@@XXXX@@@@@X.  .@ wittyyyy<yyyy",
"y<yy<ttww43222442$1, . @@@@@X@@@XXX...X@@@@@X.  .X@ ;tttyyyyyyyy",
"yssyyttrww44*q0wq982 . @@@@@XXXX......X@@@@@X.  .X@ wrttyyyy<ysy",
"y<s<ytttrrwwwr;rr;0$1  @@@@@X......   X@@@@@X. & .@ 4wttyyyyyy<y",
"yy<yyyttttt<tttttr;42<  @@@@X...   --- @@@@X.  - .X@ wrttyy<yyyy",
"yyyyysyttt<t<tttttrw47<   @@@   -><<<3 @@@X. . - .X@ 0rtty<y<yyy",
"yyyys<syyyy<<yyytttr0%7<  @@@ -,<2227#5 @@X. . - .X@ %ittyy<<yyy",
"ysyys<<<yyyysyyyystti*%# @@@@ <229449%# @@X ...  .X@@ ;:ttyysyyy",
"y<yy<<yy<yyyyyyyy<tt;;4 @@@  <244;ww;%2 @@X .... ..X@ qr<tyyyyyy",
"<yyyyy<<yyysyyyy<yttrw @@   <24w;rttrw% @@ = ....  .X@ ;tttsyyyy",
"yyyyyyy<yy<<yysyytttr @@  . 140rttttrw4 @@ O-  .. -     rt<<yysy",
"yyys<yyyy<y<yy<yytta; @ > . 24;tttta;w @@ <+<<+ . >5#24wr<t<yy<y",
"yyy<yyyyyy<yyyyyytt;w @ > . 2wrtttt;w @@ <#222< . <#244wrt<yyyyy",
"yyyyyyy<yyyyyyyyyttw4 @ > . 4wrtttr  @@ 2244432 . 2244w;rttyyyyy",
"<yyyyysyyyyy<<yy<ttw42   .. %;tt<r @@@ 224qw;%2 . 24wwirttty<<yy",
"<yyyyy<yyyysyyyy<ttrw4# .. 84wtt<w    $24wwiwq .. 4wrt<ttttsyyyy",
"syyysyyyyyy<yyyysttru42   2%wrttaw448234wwr<rq   24wattttty<yyyy",
"y<yy<yyyyyyyyyyyy<tt;w422234wrttt;w4%44wwtttrw423%wr<tyyyyyyyyyy",
"yssyyyyyyyyy<ysyyssttww4444w;tsttpuwqwwrtttt:w0440irttttyyyy<ysy",
"y<s<yyyyyyyyyy<yy<s<trwwwwwrtt<tt<p;rrrttttttr;ww;a<ttttyyyyyy<y",
"yy<yyyyyyyy<yyyyyy<ttttrrrr<tttttt<ttttttyt<ttrrrt<ttyyyyyy<yyyy",
"yyyyysyyyy<y<yyyyyyytstttt<t<yyytttttsttyy<t<tttttttysyyyy<y<yyy",
"yyyys<syyyy<<yyyyyyys<stttt<<yyyyyyys<syyyy<<ttttttys<syyyy<<yyy",
"ysyys<<<yyyysyyyysyys<<<yyyysyyyysyys<<<yyyysyyyysyys<<<yyyysyyy",
"y<yy<<yy<yyyyyyyy<yy<<ty<yyyyyyyy<yy<<yy<yyyyyyyy<yy<<yy<yyyyyyy",
"<yyyyy<<yyysyyyy<yyyyy<<yyysyyyy<yyyyy<<yyysyyyy<yyyyy<<yyysyyyy",
"yyyyyyy<yy<<yysyyyyyyyy<yy<<yysyyyyyyyy<yy<<yysyyyyyyyy<yy<<yysy",
"yyys<yyyy<y<yy<yyyys<yyyy<y<yy<yyyys<yyyy<y<yy<yyyys<yyyy<y<yy<y",
"yyy<yyyyyy<yyyyyyyy<yyyyyy<yyyyyyyy<yyyyyy<yyyyyyyy<yyyyyy<yyyyy",
"yyyyyyy<yyyyyyyyyyyyyyy<yyyyyyyyyyyyyyy<yyyyyyyyyyyyyyy<yyyyyyyy",
"<yyyyysyyyyy<<yy<yyyyysyyyyy<<yy<yyyyysyyyyy<<yy<yyyyysyyyyy<<yy",
"<yyyyy<yyyysyyyy<yyyyy<yyyysyyyy<yyyyy<yyyysyyyy<yyyyy<yyyysyyyy",
"syyysyyyyyy<yyyysyyysyyyyyy<yyyysyyysyyyyyy<yyyysyyysyyyyyy<yyyy",
"y<yy<yyyyyyyyyyyy<yy<yyyyyyyyyyyy<yy<yyyyyyyyyyyy<yy<yyyyyyyyyyy"
};
