/* XPM */
static char *enemy_run_r_2[] = {
/* columns rows colors chars-per-pixel */
"64 64 39 1 ",
"  c black",
". c #222121",
"X c gray21",
"o c #5E2A22",
"O c #56683B",
"+ c #5B6E3E",
"@ c #565656",
"# c #5D7140",
"$ c #617542",
"% c #657C46",
"& c #677E47",
"* c #6B7F42",
"= c #6E8244",
"- c #6B8249",
"; c #6F884D",
": c #718646",
"> c #738947",
", c #738C4F",
"< c #788F4B",
"1 c #7C944D",
"2 c #80984F",
"3 c #859F53",
"4 c #87A442",
"5 c #89A743",
"6 c #90AF46",
"7 c #96B749",
"8 c #97B84A",
"9 c #9BBD4C",
"0 c #87A054",
"q c #8BA657",
"w c #8DA858",
"e c #8EA858",
"r c #8EA958",
"t c #92AE5B",
"y c #94B05C",
"u c #A2C54F",
"i c #A3C750",
"p c #A5C951",
"a c #AACF53",
/* pixels */
"yaayyyyyyyyy,yayyaayyyyyyyyy,yayyaayyyyyyyyy,yayyaayyyyyyyyy,yay",
"y,a,yyyyyyyyyy,yy,a,yyyyyyyyyy,yy,a,yyyyyyyyyy,yy,a,yyyyyyyyyy,y",
"yy,yyyyyyyy,yyyyyy,yyyyyyyy,yyyyyy,yyyyyyyy,yyyyyy,yyyyyyyy,yyyy",
"yyyyyayyyy,y,yyyyyyyyayyyy,y,yyyyyyyyayyyy,y,yyyyyyyyayyyy,y,yyy",
"yyyya,ayyyy,,yyyyyyya,ayyyy,,yyyyyyya,ayyyy,,yyyyyyya,ayyyy,,yyy",
"yayya,,,yyyyayyyyayya,,,yyyyayyyyayya,,,yyyyayyyyayya,,,yyyyayyy",
"y,yy,,yy,yyyyyyyy,yy,,yy,yyyyyyyy,yy,,yy,yyyyyyyy,yy,,yy,yyyyyyy",
",yyyyy,,yyyayyyy,yyyyy,,yyyayyyy,yyyyy,,yyyayyyy,yyyyy,,yyyayyyy",
"yyyyyyy,yy,,yyayyyyyyyy,yy,,yyayyyyyyyy,yy,,yyayyyyyyyy,yy,,yyay",
"yyya,yyyy,y,yy,yyyya,yyyy,y,yy,yyyya,yyyy,y,yy,yyyya,yyyy,y,yy,y",
"yyy,yyyyyy,yyyyyyyy,yyyyyy,yyyyyyyy,yyyyyy,yyyyyyyy,yyyyyy,yyyyy",
"yyyyyyy,yyyyyyyyyyyyyyy,yyyyyyyyyyyyyyy,yyyyyyyyyyyyyyy,yyyyyyyy",
",yyyyyayyyyy,,yy,yyyyyayyyyy,,yy,yyyyyayyyyy,,yy,yyyyyayyyyy,,yy",
",yyyyy,yyyyayyyy,yyyyy,yyyyayyyy,yyyyy,yyyyayyyy,yyyyy,yyyyayyyy",
"ayyyayyyyyy,yyyyayyyayyyyyy,yyyyayyyayyyyyy,yyyyayyyayyyyyy,yyyy",
"y,yy,yyyyyyyyyyyy,yy,yyyyyyyyyyyy,yy,yyyyyyyytttt,yy,yyyyyyyyyyy",
"yaayyyyyyyyy,yayyaayyyyyyyyy,yayyaayyyyyyyyt,tattaayyyyyyyyy,yay",
"y,a,yyyyyyyyyy,yy,a,yyyyyyyyyy,yy,a,yyyyyytttt  t,a,yyyyyyyyyy,y",
"yy,yyyyyyyy,yyyyyy,yyyyyyyy,yyyyyy,yyyyyytt,r @ rt,tyyyyyyy,yyyy",
"yyyyyayyyy,y,yyyyyyyyayyyy,y,yyyyyyyyatttt;q .@ qrtttayyyy,y,yyy",
"yyyya,ayyyy,,yyyyyyya,ayyyy,,yyyyytta,pttrq  .@@ qrta,ayyyy,,yyy",
"yayya,,,yyyyayyyyayta,,,ttttattytattp;-    ..X@@@  rp,,,yyyyayyy",
"y,yy,,yy,yyyyyyyy,tt,,tt,tttttttt,tr   ....XX@@@@@@ -,tt,yyyyyyy",
",yyyyy,,yyyayytt,tttr        rrr-r  ...XXXX@@@@@XX. qr,,yyyayyyy",
"yyyyyyy,yy,,ytattrr  ........     ..XXX@@@@@@@@@@.o 0qt,yy,,yyay",
"yyya,yyyy,y,tt,r   ..XXXXXXXX.....XX@@@@@@@@@@@@@@X. qrtt,y,yy,y",
"yyy,yyyyyy,tttr XX .X@@@@@@@@XXXXX@@@@@@@@@@@XXX@@@@@ qrtt,yyyyy",
"yyyyyyy,yytttr X. .X@@@@@@@@@@@@@@@@@@@@@@@XX...X@@@@@  rttyyyyy",
",yyyyyayyytt-- X  .X@@@@@@@@@@@@@@@@@@@@@@X...     @@   rttt,,yy",
",yyyyy,yyttpq @.  .X@@@@X@@@@@@@@@@@@@@@@X... =:O::    3qttayyyy",
"ayyyayyyytt-q @.  .X@@@@@XXXX@@@@@@@@@@@@X.. :,<5<,,5113qrt,yyyy",
"y,yy,yyytttq @X.  .X@@@@@X...XXX@@@X@@@@@ . ><123%11$23qqtttyyyy",
"yaayyyyyttrq @X.  .X@@@@@X......XXXX@@@@@ . #180q99333qqrtty,yay",
"y,a,yyyyttq3 @. * .X@@@@@X   ......X@@@@@  <13-rr-u-qqrrtttyyy,y",
"yy,yyyyttrq @X. =  .X@@@@ =O=   ...X@@@@  ,$3qrttt,ttttttty,yyyy",
"yyyyyayttr- @X. = . .X@@@ +,+,:=   @@@   ,$3-rtttttttattty,y,yyy",
"yyyya,attq3 @X. = . .X@@ ,1$$1<,>= @@@  ,13--tttyyyya,ayyyy,,yyy",
"yayya,,,rq @@X.  ... X@@ 113933114 @@@@ <13qpttyyayya,,,yyyyayyy",
"y,yy,,tt-0 @X.. .... X@@ 13qqqq33$,  @@@ 3qrttyyy,yy,,yy,yyyyyyy",
",yyyyt,,q @X.  .... = @@ 2quttrq-31,   @@ qittyy,yyyyy,,yyyayyyy",
"yyyyytt-     = ..  == @@ 3--ttatrq31 .  @@ -ttayyyyyyyy,yy,,yyay",
"yyya,ttrq%1#,: . :,4+, @@ q-tt,ttq36 . : @ -rt,yyyya,yyyy,y,yy,y",
"yyy,yttrq3%11, . ,<$11, @@ qrttttrq% . : @ qrttyyyy,yyyyyy,yyyyy",
"yyyyytt;qq3311 . 123321# @@  rtttrq3 . O @ 3qttyyyyyyyy,yyyyyyyy",
",yyyytatrrqq%% . 13qq3711 @@@ rt,tq3 ..   13-,ty,yyyyyayyyyy,,yy",
",yyyyt,ttttuq3 .. 0qrq%311    qt,rq31 .. 139rtty,yyyyy,yyyyayyyy",
"ayyyayttttt,q32   qrprqq321%33qtptrq71   13-rttyayyyayyyyyy,yyyy",
"y,yy,ytyyyttrq323%qr,ttqq3333qqtt,rq%21113qrtttyy,yy,yyyyyyyyyyy",
"yaayyyyyyytt;q9339urttttrqq0-qittaprq3333qqt,tayyaayyyyyyyyy,yay",
"y,a,yyyyyytttr-qq-i,tttttrrrrr,tt,a,rqqqqqrtty,yy,a,yyyyyyyyyy,y",
"yy,yyyyyyyy,tttrrr,tttytttt,tttttt,ttrrrrtt,tyyyyy,yyyyyyyy,yyyy",
"yyyyyayyyy,y,ttttttttayytt,t,ttttytttatttt,t,yyyyyyyyayyyy,y,yyy",
"yyyya,ayyyy,,ttttttta,ayyyy,,yyyyyyya,atttt,,yyyyyyya,ayyyy,,yyy",
"yayya,,,yyyyayyyyayya,,,yyyyayyyyayya,,,yyyyayyyyayya,,,yyyyayyy",
"y,yy,,yy,yyyyyyyy,yy,,yy,yyyyyyyy,yy,,yy,yyyyyyyy,yy,,yy,yyyyyyy",
",yyyyy,,yyyayyyy,yyyyy,,yyyayyyy,yyyyy,,yyyayyyy,yyyyy,,yyyayyyy",
"yyyyyyy,yy,,yyayyyyyyyy,yy,,yyayyyyyyyy,yy,,yyayyyyyyyy,yy,,yyay",
"yyya,yyyy,y,yy,yyyya,yyyy,y,yy,yyyya,yyyy,y,yy,yyyya,yyyy,y,yy,y",
"yyy,yyyyyy,yyyyyyyy,yyyyyy,yyyyyyyy,yyyyyy,yyyyyyyy,yyyyyy,yyyyy",
"yyyyyyy,yyyyyyyyyyyyyyy,yyyyyyyyyyyyyyy,yyyyyyyyyyyyyyy,yyyyyyyy",
",yyyyyayyyyy,,yy,yyyyyayyyyy,,yy,yyyyyayyyyy,,yy,yyyyyayyyyy,,yy",
",yyyyy,yyyyayyyy,yyyyy,yyyyayyyy,yyyyy,yyyyayyyy,yyyyy,yyyyayyyy",
"ayyyayyyyyy,yyyyayyyayyyyyy,yyyyayyyayyyyyy,yyyyayyyayyyyyy,yyyy",
"y,yy,yyyyyyyyyyyy,yy,yyyyyyyyyyyy,yy,yyyyyyyyyyyy,yy,yyyyyyyyyyy"
};
