/* XPM */
static char *enemy_run_l_5[] = {
/* columns rows colors chars-per-pixel */
"64 64 38 1 ",
"  c black",
". c #222121",
"X c gray21",
"o c #5E2A22",
"O c #576A3C",
"+ c #565656",
"@ c #5D7140",
"# c #617542",
"$ c #657A45",
"% c #697F48",
"& c #6F8445",
"* c #6C844A",
"= c #6F884D",
"- c #728747",
"; c #738947",
": c #738C4F",
"> c #788F4B",
", c #7F974F",
"< c #80984F",
"1 c #819950",
"2 c #85A241",
"3 c #89A643",
"4 c #8BA944",
"5 c #90AF46",
"6 c #92B247",
"7 c #93B348",
"8 c #97B84A",
"9 c #9DBF4C",
"0 c #87A154",
"q c #8CA757",
"w c #8EA958",
"e c #93AF5C",
"r c #94B05C",
"t c #9FC24E",
"y c #A3C64F",
"u c #A3C750",
"i c #A5C951",
"p c #AACF53",
/* pixels */
"rpprrrrrrrrr:rprrpprrrrrrrrr:rprrpprrrrrrrrr:rprrpprrrrrrrrr:rpr",
"r:p:rrrrrrrrrr:rr:p:rrrrrrrrrr:rr:p:rrrrrrrrrr:rr:p:rrrrrrrrrr:r",
"rr:rrrrrrrr:rrrrrr:rrrrrrrr:rrrrrr:rrrrrrrr:rrrrrr:rrrrrrrr:rrrr",
"rrrrrprrrr:r:rrrrrrrrprrrr:r:rrrrrrrrprrrr:r:rrrrrrrrprrrr:r:rrr",
"rrrrp:prrrr::rrrrrrrp:prrrr::rrrrrrrp:prrrr::rrrrrrrp:prrrr::rrr",
"rprrp:::rrrrprrrrprrp:::rrrrprrrrprrp:::rrrrprrrrprrp:::rrrrprrr",
"r:rr::rr:rrrrrrrr:rr::rr:rrrrrrrr:rr::rr:rrrrrrrr:rr::rr:rrrrrrr",
":rrrrr::rrrprrrr:rrrrr::rrrprrrr:rrrrr::rrrprrrr:rrrrr::rrrprrrr",
"rrrrrrr:rr::rrprrrrrrrr:rr::rrprrrrrrrr:rr::rrprrrrrrrr:rr::rrpr",
"rrrp:rrrr:r:rr:rrrrp:rrrr:r:rr:rrrrp:rrrr:r:rr:rrrrp:rrrr:r:rr:r",
"rrr:rrrrrr:rrrrrrrr:rrrrrr:rrrrrrrr:rrrrrr:rrrrrrrr:rrrrrr:rrrrr",
"rrrrrrr:rrrrrrrrrrrrrrr:rrrrrrrrrrrrrrr:rrrrrrrrrrrrrrr:rrrrrrrr",
":rrrrrprrrrr::rr:rrrrrprrrrr::rr:rrrrrprrrrr::rr:rrrrrprrrrr::rr",
":rrrrr:rrrrprrrr:rrrrr:rrrrprrrr:rrrrr:rrrrprrrr:rrrrr:rrrrprrrr",
"prrrprrrrrr:rrrrprrrprrrrrr:rrrrprrrprrrrrr:rrrrprrrprrrrrr:rrrr",
"r:rr:rrrrrrrrrree:er:rrrrrrrrrrrr:rr:rrrrrrrrrrrr:rr:rrrrrrrrrrr",
"rpprrrrrrrrr:epeeppeerrrrrrr:rprrpprrrrrrrrr:rprrpprrrrrrrrr:rpr",
"r:p:rrrrrrrree:e  i:eerrrrrrrr:rr:p:rrrrrrrrrr:rr:p:rrrrrrrrrr:r",
"rr:rrrrrrre:eeew + weeerrrr:rrrrrr:rrrrrrrr:rrrrrr:rrrrrrrr:rrrr",
"rrrrrprrrr:e:ewq +. qieeee:r:rrrrrrrrprrrr:r:rrrrrrrrprrrr:r:rrr",
"rrrrp:prrre::wq ++.  *ueeee::errreerp:prrrr::rrrrrrrp:prrrr::rrr",
"rprrp:::reeeu  +++X..    wweieeerpeep:::eeeeprrrrprrp:::rrrrprrr",
"r:rr::rr:eew ++++++XX....   weeee:ee::ee:eeeeeerr:rr::rr:rrrrrrr",
":rrrrr::eewt .XX+++++XXXX...  ww*ww        ueeee:errrr::rrrprrrr",
"rrrrrrr:ee*% o.++++++++++XXX..     ........  wieeeerrrr:rr::rrpr",
"rrrp:reee*q .X++++++++++++++XX.....XXXXXXXX..   weep:rerr:r:rr:r",
"rrr:reeewq +++++XXX+++++++++++XXXXX++++++++X. XX we:ererrr:rrrrr",
"rrrrree=  +++++X...XX+++++++++++++++++++++++X. .X weeer:rrrrrrrr",
":rrreeiw   ++     ...X++++++++++++++++++++++X.  X qweeprrrrr::rr",
":reree:q1    ---O& ...X+++++++++++++++++++++X.  .+ qee:rrrrprrrr",
"prrrpewq1,,@::>>3:- ..X++++++++++++XX+++++++X.  .+ qyeerrrr:rrrr",
"r:rr:eeqq1<,,,11,#>; .X+++++++++XXX.XX++++++X.  .X+ *eeerrrrrrrr",
"rpprreewqq11%09q076, . +++++XXXX......X+++++X.  .X+ qweerrrr:rpr",
"r:p:reeewwqqqw*ww*9#>  ++++X.......   X+++++X. & .+ 1qeerrrrrr:r",
"rr:rrreeeee:eeeeew*1,: ++++X....   &&& ++++X. && .X+ qweerr:rrrr",
"rrrrrpreee:e:eeeeewq14: +++     &-:::2- +++X. -- .X+ 9weer:r:rrr",
"rrrrp:prrrr::rrreeew9$4 ++ .. &;:,,,5#3; ++X  :: .XX+ teeer::rrr",
"rprrp:::rrrrprrrrpeey$# ++ .. :,,7119$$@ ++X  :>: .X+ **eerrprrr",
"r:rr::rr:rrrrrrrr:ee**< ++ .. ,<1*qq**1,@ +X . ,> ..X+ q*eerrrrr",
":rrrrr::rrrprrrr:rrewq$ ++ .. ,1*weeew*$, ++ . ,#>  .XX qeeprrrr",
"rrrrrrr:rr::rrprrrreeq1 ++ ... 1qeeeeew%,: + . ,,,>:     w::rrpr",
"rrrp:rrrr:r:rr:rrrep:q1 + &... 1qeep:ewq1  +  #111,4@,,1q*e:rr:r",
"rrr:rrrrrr:rrrrrrre:wq1 + O- ..  qe:eewq . + >,1qq1$<<11qw:errrr",
"rrrrrrr:rrrrrrrrrreewq1 + ::: ... weeeq .. + ,1qqqqq010*qweerrrr",
":rrrrrprrrrr::rr:eeeq  ++ ,,@@    qeew9   ++ #1q=eewwqywweee::rr",
":rrrrr:rrrrprrrr:eew +++ ,,7<,,,$1qwww% +++ ,1qw:eeeee:eeeeprrrr",
"prrrprrrrrr:rrrrpeeq    ,<1%11118qqwiq0    @,1qepeeepeeeeee:rrrr",
"r:rr:rrrrrrrrrrre:eq%1,,<1qqqqq0q*we:q01,,,,1qwee:er:rrrrrerrrrr",
"rpprrrrrrrrr:rprepiqq1111qww:wywwiieewq11,11*wieepprrrrrrrrr:rpr",
"r:p:rrrrrrrrrr:re:i*qqqqqweeee:ee:i:eewq00qqwe:er:p:rrrrrrrrrr:r",
"rr:rrrrrrrr:rrrrre:ewwwwwee:eeeeee:eeeewwqw=eeerrr:rrrrrrrr:rrrr",
"rrrrrprrrr:r:rrrreeeeieeee:r:rrrereeepeeee:e:errrrrrrprrrr:r:rrr",
"rrrrp:prrrr::rrrrreep:peeer::rrrrrrrp:peeee::rrrrrrrp:prrrr::rrr",
"rprrp:::rrrrprrrrprrp:::rrrrprrrrprrp:::rrrrprrrrprrp:::rrrrprrr",
"r:rr::rr:rrrrrrrr:rr::rr:rrrrrrrr:rr::er:rrrrrrrr:rr::rr:rrrrrrr",
":rrrrr::rrrprrrr:rrrrr::rrrprrrr:rrrrr::rrrprrrr:rrrrr::rrrprrrr",
"rrrrrrr:rr::rrprrrrrrrr:rr::rrprrrrrrrr:rr::rrprrrrrrrr:rr::rrpr",
"rrrp:rrrr:r:rr:rrrrp:rrrr:r:rr:rrrrp:rrrr:r:rr:rrrrp:rrrr:r:rr:r",
"rrr:rrrrrr:rrrrrrrr:rrrrrr:rrrrrrrr:rrrrrr:rrrrrrrr:rrrrrr:rrrrr",
"rrrrrrr:rrrrrrrrrrrrrrr:rrrrrrrrrrrrrrr:rrrrrrrrrrrrrrr:rrrrrrrr",
":rrrrrprrrrr::rr:rrrrrprrrrr::rr:rrrrrprrrrr::rr:rrrrrprrrrr::rr",
":rrrrr:rrrrprrrr:rrrrr:rrrrprrrr:rrrrr:rrrrprrrr:rrrrr:rrrrprrrr",
"prrrprrrrrr:rrrrprrrprrrrrr:rrrrprrrprrrrrr:rrrrprrrprrrrrr:rrrr",
"r:rr:rrrrrrrrrrrr:rr:rrrrrrrrrrrr:rr:rrrrrrrrrrrr:rr:rrrrrrrrrrr"
};
