/* XPM */
static char *player_run_r_3[] = {
/* columns rows colors chars-per-pixel */
"64 64 37 1 ",
"  c #3A3737",
". c #5A6D3E",
"X c #5C7140",
"o c #607442",
"O c #677D47",
"+ c #687E47",
"@ c #687F48",
"# c #827C7C",
"$ c #6E864C",
"% c #6F884D",
"& c #738947",
"* c #738C4F",
"= c #788E4A",
"- c #7C944D",
"; c #7F974F",
": c #80984F",
"> c #849D52",
", c #8FAE46",
"< c #92B247",
"1 c #96B749",
"2 c #97B84A",
"3 c #9CBE4C",
"4 c #87A054",
"5 c #8CA657",
"6 c #8EA858",
"7 c #93AF5C",
"8 c #94B05C",
"9 c #BC8B6D",
"0 c #CDAE67",
"q c #9FC14D",
"w c #A3C64F",
"e c #A3C750",
"r c #A4C850",
"t c #AACF53",
"y c #B7B3B2",
"u c #D6B39D",
"i c #EFE9E7",
/* pixels */
"8tt888888888*8t88tt888888888*8t88tt888888888*8t88tt888888888*8t8",
"8*t*8888888888*88*t*8888888888*88*t*8888888888*88*t*8888888888*8",
"88*88888888*888888*88888888*888888*88888888*888888*88888888*8888",
"88888t8888*8*88888888t8888*8*88888888t8888*8*88888888t8888*8*888",
"8888t*t8888**8888888t*t8888**8888888t*t8888**8888888t*t8888**888",
"8t88t***8888t8888t88t***8888t8888t88t***8888t8888t88t***8888t888",
"8*88**88*88888888*88**88*88888888*88**88*88888888*88**88*8888888",
"*88888**888t8888*88888**888t8888*88888**888t8888*88888**888t8888",
"8888888*88**88t88888888*88**88t88888888*88**88t88888888*88**88t8",
"888t*8888*8*88*8888t*8888*8*88*8888t*8888*8*88*8888t*8888*8*88*8",
"888*888888*88888888*888888*88888888*888888*88888888*888888*88888",
"8888888*888888888888888*888888888888888*888888888888888*88888888",
"*88888t88888**88*88888t88888**88*88888t88888**88*88888t88888**88",
"*88888*8888t8888*88888*8888t8888*88888*8888t8888*88888*8888t8888",
"t888t888888*8888t888t888888*8888t778t888888*8888t888t888888*8888",
"8*88*888888888888*88*888888777777*77*777788888888*88*88888888888",
"8tt888888888*8t88tt888888777*7t77tt777777777*8t88tt888888888*8t8",
"8*t*8888888888*88*t*8888777777*77*r*7777777788*88*t*8888888888*8",
"88*88888888*888888*88887777*777766%67777777*788888*88888888*8888",
"88888t8888*8*88888888t8777*7*66666666e6777*7*78888888t8888*8*888",
"8888t*t8888**8888888t*t7777*%6   55  $w6777**7788888t*t8888**888",
"8t88t***8888t8888t88t***7776w5 y# 4 i $$6677t7778t88t***8888t888",
"8*88**88*88888888*88**77*77655 iiy  i# 5$67777778*88**88*8888888",
"*88888**888t8888*88888**776w55 iii  ii $556r7777*88888**888t8888",
"8888888*88**88t88888777*76$$5> iuiy ii# 55$$77t78888888*88**88t8",
"888t*8888*8*88*8888t*7777$5$>> iuui#yiy >$5$67*7788t*8888*8*88*8",
"888*888888*88888887*777765$4>>- uuiy iy >>$56677778*888888*88888",
"8888888*888888888777776$555>>-- uuui #   >>556777778888*88888888",
"*88888t88888**77*77777r555>     9uui#yyii >5$$67*77888t88888**88",
"*88888*8888t7777*77766$55  #yiii 9ui#iiiiy 35567*77788*8888t8888",
"t888t888888*8877t777e555 yiiiiii yuiiiiiii# 4556r777t888888*8888",
"8*88*888888888777*76$54 #iiiiiiiy#iiiyi iiy >5567*77*88888888888",
"8tt888888888*7t77re554 yiiiiiiiii#yiii  yiiy 4q66rt777888888*8t8",
"8*t*8888888877*77$w$5 #iiiiiiiiiiiiiiiiiiiii# $56*r*7788888888*8",
"88*88888888*777766$5> yiiiiiiiiiiiiyiiiiiiiiy 5567*77888888*8888",
"88888t8888*7*777655> i#iiiiiiiiiiii#yiiiii 00 4567777t8888*8*888",
"8888t*t8887**776554> iyiiiiiiiiiiiii# yiiii# >456777t*t8888**888",
"8t88t***8877t77653   yyiiiiiiiiiiiiiiy #y#  <>456r77t***8888t888",
"8*88**88*87777655 yi  #iii#yiiiiiiiiiiy   =-:>556*77**88*8888888",
"*88888**887t7765$ y yyiii#  #yiiiy yiiy # -,>>55$77778**888t8888",
"8888888*88**77e55> yyii#  ..*      #yy# # Xo>>q56777788*88**88t8",
"888t*8888*7*77$55>  iiiy .*.=*X***& yyy# y O>4$6677t*8888*8*88*8",
"888*888888*7776554>     --o------=* yiii# y >556777*788888*88888",
"8888888*8877776655>>>:-O---:::------ iiiy y >5567777778*88888888",
"*88888t88777**76$55>>>1>>>>>OO>>O>---      >$$66*77788t88888**88",
"*88888*8877t7776$5554>@>>4435554+>>::-O-->>35567*77888*8888t8888",
"t888t888887*7777r655q555555$5555q5>>2>>>>>4$5667r778t888888*8888",
"8*88*888887777777%66$555566666665$55$4>>455556777*78*88888888888",
"8tt888888887*7t77rr666666677*7r66ww555555556$6r77tt888888888*8t8",
"8*t*8888888877*77*r*7777777777*77*e$6555566677*77*t*8888888888*8",
"88*88888888*877777*77777777*777777*67666667*777777*88888888*8888",
"88888t8888*8*88777777t7777*7*77777777r7777*7*77777888t8888*8*888",
"8888t*t8888**8888887t*t7888**8877777t*t7777**7777888t*t8888**888",
"8t88t***8888t8888t88t***8888t8888t77t***7777t7788t88t***8888t888",
"8*88**88*88888888*88**88*88888888*88**77*77888888*88**88*8888888",
"*88888**888t8888*88888**888t8888*88778**888t8888*88888**888t8888",
"8888888*88**88t88888888*88**88t88888888*88**88t88888888*88**88t8",
"888t*8888*8*88*8888t*8888*8*88*8888t*8888*8*88*8888t*8888*8*88*8",
"888*888888*88888888*888888*88888888*888888*88888888*888888*88888",
"8888888*888888888888888*888888888888888*888888888888888*88888888",
"*88888t88888**88*88888t88888**88*88888t88888**88*88888t88888**88",
"*88888*8888t8888*88888*8888t8888*88888*8888t8888*88888*8888t8888",
"t888t888888*8888t888t888888*8888t888t888888*8888t888t888888*8888",
"8*88*888888888888*88*888888888888*88*888888888888*88*88888888888"
};
