/* XPM */
static char *player_run_t_3[] = {
/* columns rows colors chars-per-pixel */
"64 64 30 1 ",
"  c #3A3737",
". c #5C7140",
"X c #627743",
"o c #677D47",
"O c #687E47",
"+ c #697F48",
"@ c #827C7C",
"# c #6E874C",
"$ c #6F884D",
"% c #738C4F",
"& c #7E964E",
"* c #80984F",
"= c #839C52",
"- c #8FAF46",
"; c #92B247",
": c #97B84A",
"> c #9DBF4C",
", c #87A054",
"< c #8BA556",
"1 c #8DA858",
"2 c #8EA858",
"3 c #8FAA59",
"4 c #93AF5C",
"5 c #94B05C",
"6 c #9FC24E",
"7 c #A2C54F",
"8 c #A5C951",
"9 c #AACF53",
"0 c #B7B3B2",
"q c #EFE9E7",
/* pixels */
"599555555555%595599555555555%595599555555555%595599555555555%595",
"5%9%5555555555%55%9%5555555555%55%9%5555555555%55%9%5555555555%5",
"55%55555555%555555%55555555%555555%55555555%555555%55555555%5555",
"5555595555%5%5555555595555%5%5555555595555%5%5555555595555%5%555",
"55559%95555%%55555559%95555%%55555559%95555%%55555559%95555%%555",
"59559%%%5555955559559%%%5555955559559%%%5555955559559%%%55559555",
"5%55%%55%55555555%55%%55%55555555%55%%55%55555555%55%%55%5555555",
"%55555%%55595555%55555%%55595555%55555%%55595555%55555%%55595555",
"5555555%55%%55955555555%55%%55955555555%55%%55955555555%55%%5595",
"5559%5555%5%55%55559%5555%5%55%55559%5555%5%55%55559%5555%5%55%5",
"555%555555%55555555%555555%55555555%555555%55555555%555555%55555",
"5555555%555555555555555%555555555555555%555555555555555%55555555",
"%55555955555%%55%55555955555%%55%55555955555%%55%55555955555%%55",
"%55555%555595555%55555%555595555%55555%555595555%55555%555595555",
"95559555555%555595559444444%445595549444444%455595559555555%5555",
"5%55%555555555555%44%444444444444%44%444444444455%55%55555555555",
"599555555555%595599444444444%494499444444444%494599555555555%595",
"5%9%5555555555%54%9%4444444444%44%9%4444444444%44%9%5555555555%5",
"55%55555555%555544%44443333#444444%43333334$444445%55555555%5555",
"5555595555%5%5554444483   #<#3343433373   #4$4444555595555%5%555",
"55559%95555%%55444448#7 0q ##<33333<7# q0 3#%44444559%95555%%555",
"59559%%%5555955449448## 0qq ><<<<6<<6 qq0 <3844449559%%%55559555",
"5%55%%55%55555544%44##< 0qq0 =,,<#,, 0qq0 <<34444%55%%55%5555555",
"%55555%%55595554%4433<# @qqq@ ==o== @qqq@ <73344%45555%%55595555",
"5555555%55%%559444433<<O 0qqq@ === @qqq0 =##33844455555%55%%5595",
"5559%5555%5%55%44448#<<= @qqq0     0qqq@ o<#<3%44459%5555%5%55%5",
"555%555555%55554444$3<,== 0qqq0@@@0qqq0 ==+<<344445%555555%55555",
"5555555%5555555544433<,o=& 0qq00000qq0 X==,<33444555555%55555555",
"%55555955555%%44%4443<>==&& 0q00000q0 -&==,<#%44%55555955555%%55",
"%55555%555595444%4433<#==& @q0000000q@ &==<63444%55555%555595555",
"95559555555%554494447<<=*  000qqqqq000  *=<#344495559555555%5555",
"5%55%555555555444%44#<,=*  00qqqqqqq00  &=,<34444%55%55555555555",
"599555555555%59549843<,= @ 0qqqqqqqqq0 @ =,<#484499555555555%595",
"5%9%5555555555%54%8#3<== 0 @qqqqqqqqq@ 0 ==<33%44%9%5555555555%5",
"55%55555555%555544%3<<= @00 00qqqqq00 00@ =#<34445%55555555%5555",
"5555595555%5%5544443<>= @0q0@0qqqqq0@0q0@ o<#3444455595555%5%555",
"55559%95555%%55444437#: 0qqqq0qqqqq0qqqq0 =+#34444559%95555%%555",
"59559%%%5555955448436#o 0qqqqqqqqqqqqqqq0 =,633449559%%%55559555",
"5%55%%55%55555544%43#+= qqqqqqqqqqqqqqqqq ==<3444%55%%55%5555555",
"%55555%%55595554%433<=o 0q@qqqqqqqqqqq@q0 =><334%45555%%55595555",
"5555555%55%%55944433<==  @ @qqqqqqqqq@ @  o+<3844455555%55%%5595",
"5559%5555%5%55%44437#,= 00  0q0@@@0q0  00 =#<3%44459%5555%5%55%5",
"555%555555%55554444#<<= qq  @@ 0q0 @@  qq o<<344445%555555%55555",
"5555555%555555544443<<=o  &   0qqq0   &  ==<<3444455555%55555555",
"%55555955555%%54%4433<>==&&&. @qqq@ %&-&==<<##44%45555955555%%55",
"%55555%555595554%4443<#===&-&&     &&&o===<73344%45555%555595555",
"95559555555%5555944483<<,==o&&&&-&&&;===,<<#344495559555555%5555",
"5%55%555555555554%44%33<<<======*o==o==<<<3344444%55%55555555555",
"599555555555%59549944433<<<,+=>==>>==<<<<334%494499555555555%595",
"5%9%5555555555%55%9%444433<<<<#<<#>#<<<3344444%45%9%5555555555%5",
"55%55555555%555554%44444443#3<<<<<#<3334444%444455%55555555%5555",
"5555595555%5%5555544494444%4#3333333384444%4%4455555595555%5%555",
"55559%95555%%55555559%94444%%44444448%94444%%55555559%95555%%555",
"59559%%%5555955559559%%%4444944449449%%%4455955559559%%%55559555",
"5%55%%55%55555555%55%%45%54444444%44%%44%55555555%55%%55%5555555",
"%55555%%55595555%55555%%44595544%44555%%55595555%55555%%55595555",
"5555555%55%%55955555555%55%%55955444555%55%%55955555555%55%%5595",
"5559%5555%5%55%55559%5555%5%55%55449%5555%5%55%55559%5555%5%55%5",
"555%555555%55555555%555555%55555554%555555%55555555%555555%55555",
"5555555%555555555555555%555555555555555%555555555555555%55555555",
"%55555955555%%55%55555955555%%55%55555955555%%55%55555955555%%55",
"%55555%555595555%55555%555595555%55555%555595555%55555%555595555",
"95559555555%555595559555555%555595559555555%555595559555555%5555",
"5%55%555555555555%55%555555555555%55%555555555555%55%55555555555"
};
