/* XPM */
static char *player_run_l_1[] = {
/* columns rows colors chars-per-pixel */
"64 64 40 1 ",
"  c #3A3737",
". c #5C6F3F",
"X c #5E7341",
"o c #607542",
"O c #657C46",
"+ c #687F48",
"@ c #827C7C",
"# c #6F874C",
"$ c #6F884D",
"% c #708546",
"& c #728847",
"* c #70884D",
"= c #738C4F",
"- c #788F4B",
"; c #7D954E",
": c #7F974F",
"> c #80984F",
", c #859E53",
"< c #8AA843",
"1 c #92B247",
"2 c #93B348",
"3 c #97B84A",
"4 c #9DBF4C",
"5 c #87A054",
"6 c #8CA757",
"7 c #8DA858",
"8 c #8FAA59",
"9 c #93AF5C",
"0 c #94B05C",
"q c #BC8B6D",
"w c #CDAE67",
"e c #9EC04D",
"r c #A0C34E",
"t c #A3C750",
"y c #A4C850",
"u c #A7CC52",
"i c #AACF53",
"p c #B7B3B2",
"a c #D6B39D",
"s c #EFE9E7",
/* pixels */
"0ii000000000=0i00ii000000000=0i00ii000000000=0i00ii000000000=0i0",
"0=i=0000000000=00=i=0000000000=00=i=0000000000=00=i=0000000000=0",
"00=00000000=000000=00000000=000000=00000000=000000=00000000=0000",
"00000i0000=0=00000000i0000=0=00000000i0000=0=00000000i0000=0=000",
"0000i=i0000==0000000i=i0000==0000000i=i0000==0000000i=i0000==000",
"0i00i===0000i0000i00i===0000i0000i00i===0000i0000i00i===0000i000",
"0=00==00=00000000=00==00=00000000=00==00=00000000=00==00=0000000",
"=00000==000i0000=00000==000i0000=00000==000i0000=00000==000i0000",
"0000000=00==00i00000000=00==00i00000000=00==00i00000000=00==00i0",
"000i=0000=0=00=0000i=0000=0=00=0000i=0000=0=00=0000i=0000=0=00=0",
"000=000000=00000000=000000=00000000=000000=00000000=000000=00000",
"0000000=000000000000000=000000000000000=000000000000000=00000000",
"=00000i00000==00=00000i09000==99=00000i00000==00=00000i00000==00",
"=00000=0000i0000=00000=0999i9999=99999=0000i0000=00000=0000i0000",
"i000i000000=0000i000i099999=9999i999i999000=0000i000i000000=0000",
"0=00=000000000000=00=999999999999=99=999900000000=00=00000000000",
"0ii000000000=0i00ii099999998#8u88uu999999999=0i00ii000000000=0i0",
"0=i=0000000000=00=i=9999998866#88#t#9999999900=00=i=0000000000=0",
"00=00000000=000000=99999988#  66   88999999=000000=00000000=0000",
"00000i0000=0=00000999u9886# s 5 @p 68u9999=0=00000000i0000=0=000",
"0000i=i0000==0000099i=u866 @s  pss 6r#u9999==0000000i=i0000==000",
"0i00i===0000i0000i99u=##65 ss  sss 6r##=9990i0000i00i===0000i000",
"0=00==00=00000000=99=#66# @ss psas ,##89=99000000=00==00=0000000",
"=00000==000i0000=99988##, psp@saas ,66##999i0000=00000==000i0000",
"0000000=00==00i99999866+, ps psaa ,,668#99==00i90000000=00==00i0",
"000i=0000=0=00=9999t#65,   @ saaa :2+6889=9=00=9000i=0000=0=00=0",
"000=000000=00099998#66, sspp@saaq :O,66899=99099000=000000=00000",
"0000000=0000099999866, pssss@saq -:,,66#899999000000000=00000000",
"=00000i00000==99=8665 @sssssssap   :,,468999==90=00000i00000==00",
"=00000=0000i9999=865, pss spsss@pss  ,+6689u9999=00000=0000i0000",
"i000i000000=9999u66, pssp  sssp@sssp@  5668=9999i000i000000=0000",
"0=00=000000999998#6 @sssssssssssssssssp 566899999=00=00000000000",
"0ii000000000=9u98e4 psssssssspsssssssssp 566#9u99ii000000000=0i0",
"0=i=0000000099=98#4 ww sssssp@ssssssssss@ 5668=99=i=0000000000=0",
"00=00000000=999986+, @ssssp @ssssssssssssp #668999=90000000=0000",
"00000i0000=0=999866,>  @p@ pssssssssssssss@ #68899990i0000=0=000",
"0000i=i0009==998866,2o<   psssssssssssssssp +6689999i=i0000==000",
"0i00i===0099i9998r6,2oX. psssssspsssssssss@s 5689u99i===0000i000",
"0=00==00=09999998#6,OO:= @pssssppppsssssssps ,688=99==00=0000000",
"=00000==009i9999=865,>o @ @pp@    @psssssspp ,66#99900==000i0000",
"0000000=00==09i99866,,: @ pppp  %  pppsssp@ ,,468999990=00==00i0",
"000i=0000=0=09=99864+, @  ppp  &&&&  ppssp o,,#6899i=9000=0=00=0",
"000=000000=00999986#, @ @sssp =====.=  @ppp ,,66899=999000=00000",
"0000000=0000099998665 @ ssss -::::::-- @sspp ,668999990=00000000",
"=00000i00000==99=8866       oo::o::::: psss  +66#99990i00000==00",
"=00000=0000i0099=98665O,,>:1>:,,O,,,::o     ,668$99900=0000i0000",
"i000i000000=0099u988r65,,,,O,,,,45,,3,,,,,,O,668u999i000000=0000",
"0=00=000000000999=98#6665,,,55666#66#,,,,,,566889=99=00000000000",
"0ii000000000=0i99uu886666666#6r68rr666555556#6t89ui900000000=0i0",
"0=i=0000000000=99=u=8886666668#88$t#8666666688#99=i=0000000000=0",
"00=00000000=000999=99988888#899999=88888888#899999=90000000=0000",
"00000i0000=0=00999999u9999=9=99999999u9988$9=99999990i0000=0=000",
"0000i=i0000==0009999i=i9999==9999999i=u9999==9999990i=i0000==000",
"0i00i===0000i0000i99i===9999i9999i99i===9999i9999i00i===0000i000",
"0=00==00=00000000=99==99=99990000=99==99=99999990=00==00=0000000",
"=00000==000i0000=09999==000i0000=09999==999i0000=00000==000i0000",
"0000000=00==00i00000000=00==00i00000000=00==00i00000000=00==00i0",
"000i=0000=0=00=0000i=0000=0=00=0000i=0000=0=00=0000i=0000=0=00=0",
"000=000000=00000000=000000=00000000=000000=00000000=000000=00000",
"0000000=000000000000000=000000000000000=000000000000000=00000000",
"=00000i00000==00=00000i00000==00=00000i00000==00=00000i00000==00",
"=00000=0000i0000=00000=0000i0000=00000=0000i0000=00000=0000i0000",
"i000i000000=0000i000i000000=0000i000i000000=0000i000i000000=0000",
"0=00=000000000000=00=000000000000=00=000000000000=00=00000000000"
};
