/* XPM */
static char *player_run_t_1[] = {
/* columns rows colors chars-per-pixel */
"64 64 31 1 ",
"  c #3A3737",
". c #5F7341",
"X c #617743",
"o c #677D47",
"O c #697F48",
"+ c #827C7C",
"@ c #6C834A",
"# c #6F874C",
"$ c #6F884D",
"% c #738C4F",
"& c #7C944D",
"* c #80984F",
"= c #859F53",
"- c #87A442",
"; c #91B047",
": c #96B749",
"> c #9DBF4C",
", c #87A054",
"< c #89A355",
"1 c #8CA757",
"2 c #8DA858",
"3 c #8FAA59",
"4 c #93AF5C",
"5 c #94B05C",
"6 c #9FC14D",
"7 c #A3C64F",
"8 c #A3C750",
"9 c #A7CB51",
"0 c #AACF53",
"q c #B7B3B2",
"w c #EFE9E7",
/* pixels */
"500555555555%505500555555555%505500555555555%505500555555555%505",
"5%0%5555555555%55%0%5555555555%55%0%5555555555%55%0%5555555555%5",
"55%55555555%555555%55555555%555555%55555555%555555%55555555%5555",
"5555505555%5%5555555505555%5%5555555505555%5%5555555505555%5%555",
"55550%05555%%55555550%05555%%55555550%05555%%55555550%05555%%555",
"50550%%%5555055550550%%%5555055550550%%%5555055550550%%%55550555",
"5%55%%55%55555555%55%%55%55555555%55%%55%55555555%55%%55%5555555",
"%55555%%55505555%55555%%55505555%55555%%55505555%55555%%55505555",
"5555555%55%%55055555555%55%%55055555555%55%%55055555555%55%%5505",
"5550%5555%5%55%55550%5555%5%55%55550%5555%5%55%55550%5555%5%55%5",
"555%555555%55555555%554455%55555555%555555%55555555%555555%55555",
"5555555%555555555555554%555555555555555%555555555555555%55555555",
"%55555055555%%55%55544044444%%55%55444044444%%55%55555055555%%55",
"%55555%555505555%54444%444404444%44444%444404445%55555%555505555",
"05550555555%555504440444444%444404449444444%444405550555555%5555",
"5%55%555555555554%44%444444444444%44%444444444444%55%55555555555",
"500555555555%505400444433333%494499443333344%404400555555555%505",
"5%0%5555555555%54%0%443   3333@33$9@333   3444%44%0%5555555555%5",
"55%55555555%555444%4433 qw @111333@111 wq 3@444444%55555555%5555",
"5555505555%5%5544444371 qww @11111111 wwq @3@4444455505555%5%555",
"55550%05555%%55444448@6 qwwq =,=,,,= qwwq 1@@44444550%05555%%555",
"50550%%%5555055440437@@ +www+ ===:= +www+ 11734440550%%%55550555",
"5%55%%55%55555544%43@@1= qwww+     +wwwq =1133444%55%%55%5555555",
"%55555%%55505554%44311@o +wwwq     qwww+ =,61344%45555%%55505555",
"5555555%55%%5504444331=o= qwwwq+++qwwwq ==O@33944455555%55%%5505",
"5550%5555%5%55%54449@1===X qwwqqqqqwwq &=o,@13%44550%5555%5%55%5",
"555%555555%55555444%311==&  qwqqqqqwq  &&=@13444455%555555%55555",
"5555555%555555554444311o=& +wqqqqqqqw+  *=1134444555555%55555555",
"%55555055555%%54%44431>==  qqqwwwwwqqq  ==,1@%44%55555055555%%55",
"%55555%555505554%44431@==  qqwwwwwwwqq  ==,73444%55555%555505555",
"05550555555%55540444911==  qwwwwwwwwwq  ==1@344405550555555%5555",
"5%55%555555555555%44$11== q+wwwwwwwww+q ==1134445%55%55555555555",
"500555555555%5055004331== q qqwwwwwqq q ==11@404500555555555%505",
"5%0%5555555555%55%0%331==& q+qwwwwwq+q+ ==1134%45%0%5555555555%5",
"55%55555555%555554%4331==&  qqwwwwwqq  &==1@344455%55555555%5555",
"5555505555%5%5555444371==& qqqwwwwwqqq &==@1@4445555505555%5%555",
"55550%05555%%55554448@6== +qqqwwwwwqqq+ ==1@@44455550%05555%%555",
"50550%%%5555055550448@@o= qqwwwwwwwwwqq ==11944450550%%%55550555",
"5%55%%55%55555555%44@@1= +qwwwwwwwwwwwq+ =1134445%55%%55%5555555",
"%55555%%55505555%44431@o +wwwwwwwwwwwww+ =,73444%55555%%55505555",
"5555555%55%%5505444411,o qwwwwwwwwwwwwwq =@@34944555555%55%%5505",
"5550%5555%5%55%54449@1,= wwwwwq+++qwwwww o=@34%44550%5555%5%55%5",
"555%555555%55555444@31,= qw+qw qwq wq+wq =O11444455%555555%55555",
"5555555%55555555444431,o& q  +qwwwq+  q &==114444555555%55555555",
"%55555055555%%55%44431>=  +   +www+   +  =,1@@44%55555055555%%55",
"%55555%555505555%44431@= qq+         +qq =171444%55555%555505555",
"05550555555%55550444811= w++ %%%-%%% ++w =1@344405550555555%5555",
"5%55%555555555554%44@11,=   &&&&&.&&X   ==1134444%55%55555555555",
"500555555555%50540043311====o&;&&;;&*====113$404400555555555%505",
"5%0%5555555555%54%0%43111=====o==o:o====,11344%44%0%5555555555%5",
"55%55555555%555554%44431111O=====,O,,111113%444455%55555555%5555",
"5555505555%5%5555444493311@1@1111111161113$4%4445555505555%5%555",
"55550%05555%%55554440%94333@@33333117@83344%%44455550%05555%%555",
"50550%%%5555055550440%%%4444944449449@%%4444044550550%%%55550555",
"5%55%%55%55555555%44%%44%44444444%44%%44%44444455%55%%55%5555555",
"%55555%%55505555%54444%%44404444%44444%%44404455%55555%%55505555",
"5555555%55%%55055555544%44%%44044444444%44%%55055555555%55%%5505",
"5550%5555%5%55%55550%5555%5%55%54440%5555%5%55%55550%5555%5%55%5",
"555%555555%55555555%555555%55555554%555555%55555555%555555%55555",
"5555555%555555555555555%555555555544555%555555555555555%55555555",
"%55555055555%%55%55555055555%%55%55555055555%%55%55555055555%%55",
"%55555%555505555%55555%555505555%55555%555505555%55555%555505555",
"05550555555%555505550555555%555505550555555%555505550555555%5555",
"5%55%555555555555%55%555555555555%55%555555555555%55%55555555555"
};
