/* XPM */
static char *player_run_t_5[] = {
/* columns rows colors chars-per-pixel */
"64 64 30 1 ",
"  c #3A3737",
". c #5F7441",
"X c #627743",
"o c #667C46",
"O c #687E47",
"+ c #697F48",
"@ c #827C7C",
"# c #6E874C",
"$ c #6F884D",
"% c #70884D",
"& c #738C4F",
"* c #7D944E",
"= c #80984F",
"- c #839C52",
"; c #91B147",
": c #93B348",
"> c #9DBF4C",
", c #87A054",
"< c #8BA556",
"1 c #8DA858",
"2 c #8EA858",
"3 c #8FAA59",
"4 c #93AF5C",
"5 c #94B05C",
"6 c #9EC04D",
"7 c #A2C54F",
"8 c #A5C951",
"9 c #AACF53",
"0 c #B7B3B2",
"q c #EFE9E7",
/* pixels */
"599555555555&595599555555555&595599555555555&595599555555555&595",
"5&9&5555555555&55&9&5555555555&55&9&5555555555&55&9&5555555555&5",
"55&55555555&555555&55555555&555555&55555555&555555&55555555&5555",
"5555595555&5&5555555595555&5&5555555595555&5&5555555595555&5&555",
"55559&95555&&55555559&95555&&55555559&95555&&55555559&95555&&555",
"59559&&&5555955559559&&&5555955559559&&&5555955559559&&&55559555",
"5&55&&55&55555555&55&&55&55555555&55&&55&55555555&55&&55&5555555",
"&55555&&55595555&55555&&55595555&55555&&55595555&55555&&55595555",
"5555555&55&&55955555555&55&&55955555555&55&&55955555555&55&&5595",
"5559&5555&5&55&55559&5555&5&55&55559&5555&5&55&55559&5555&5&55&5",
"555&555555&55555555&555555&55555555&555555&55555555&555555&55555",
"5555555&555555555555555&555555555555555&555555555555555&55555555",
"&55555955555&&55&55555955555&&55&55555955555&&55&55555955555&&55",
"&55555&555595555&55555&555595555&55555&555595555&55555&555595555",
"95559555555&555595559444444&445595549444444&455595559555555&5555",
"5&55&555555555555&44&444444444444&44&444444444455&55&55555555555",
"599555555555&595599444444444&494499444444444&494599555555555&595",
"5&9&5555555555&54&9&4444444444&44&9&4444444444&44&9&5555555555&5",
"55&55555555&555544&44443333#444444&43333334$444445&55555555&5555",
"5555595555&5&5554444483   #<#3344433373   #4$4444555595555&5&555",
"55559&95555&&55444448#7 0q ##<33333<7# q0 3#&44444559&95555&&555",
"59559&&&5555955449448## 0qq ><<<<6<<6 qq0 <3844449559&&&55559555",
"5&55&&55&55555544&44##< 0qq0 -,,<#,, 0qq0 <<34444&55&&55&5555555",
"&55555&&55595554&4433<# @qqq@ --o-- @qqq@ <73344&45555&&55595555",
"5555555&55&&559444433<<O 0qqq@ --- @qqq0 -##33844455555&55&&5595",
"5559&5555&5&55&44448#<,- @qqq0     0qqq@ o,#<3&44459&5555&5&55&5",
"555&555555&55554444$<<,-- 0qqq0@@@0qqq0 --+<<344445&555555&55555",
"5555555&5555555544433<,o=* 0qq00000qq0 X=-,<33444555555&55555555",
"&55555955555&&55&4433<>-=*  0q00000q0  *=--<#$44&55555955555&&55",
"&55555&555595555&4433<+-*  @q0000000q@  *-,63344&55555&555595555",
"95559555555&555594437<,-*  000qqqqq000  *-,#334495559555555&5555",
"5&55&555555555554&43#<-- @ @@qqqqqqq@@ @ --<33444&55&55555555555",
"599555555555&5954983<<-- 00q00qqqqq00q00 --<#384499555555555&595",
"5&9&5555555555&54&8#<<- @0qqq0qqqqq0qqq0@ -<<3&44&9&5555555555&5",
"55&55555555&555444$3<<- @qqqqqqqqqqqqqqq@ -#<34444&55555555&5555",
"5555595555&5&5544443<>- 0qqqqqqqqqqqqqqq0 o<#3444455595555&5&555",
"55559&95555&&55444436#: qqqqqqqqqqqqqqqqq -O#34444559&95555&&555",
"59559&&&5555955448436+o 0q@qqqqqqqqqqq@q0 --633449559&&&55559555",
"5&55&&55&55555544&43#+-* 0 0qqqqqqqqq0 0 *--<3444&55&&55&5555555",
"&55555&&55595554&443<,o  @ @qqqqqqqqq@ @  -><344&45555&&55595555",
"5555555&55&&5594444<<,- 00  0q0@@@0q0  00 o#<3844455555&55&&5595",
"5559&5555&5&55&44437#<- qq@ @@ 0q0 @@ @qq -#<3&44459&5555&5&55&5",
"555&555555&55554444#<<--      0qqq0      -+<<344445&555555&55555",
"5555555&5555555444433<<o=***& @qqq@ &**X--<<33444455555&55555555",
"&55555955555&&54&4443<6,--**..     ***;--,<<#&44&45555955555&&55",
"&55555&555595555&44433#<,--:****X****-o-,<<73444&55555&555595555",
"95559555555&55559444833<<<-o---=:=--:--<<<3#444495559555555&5555",
"5&55&555555555554&44&433<<<<-----o--+<<<<33444444&55&55555555555",
"599555555555&5955994444433<<#<><<>><<<<<3444&494599555555555&595",
"5&9&5555555555&55&9&444443333<#<<#7#3333444444&45&9&5555555555&5",
"55&55555555&555555&44444444&333333#33444444&444455&55555555&5555",
"5555595555&5&5555555494444&4&4444444484444&4&4445555595555&5&555",
"55559&95555&&55555559&94444&&44444449&94444&&55555559&95555&&555",
"59559&&&5555955559559&&&5544944449449&&&5555955559559&&&55559555",
"5&55&&55&55555555&55&&55&55555444&45&&45&55555555&55&&55&5555555",
"&55555&&55595555&55555&&55595555&55555&&55595555&55555&&55595555",
"5555555&55&&55955555555&55&&55955555555&55&&55955555555&55&&5595",
"5559&5555&5&55&55559&5555&5&55&55559&5555&5&55&55559&5555&5&55&5",
"555&555555&55555555&555555&55555555&555555&55555555&555555&55555",
"5555555&555555555555555&555555555555555&555555555555555&55555555",
"&55555955555&&55&55555955555&&55&55555955555&&55&55555955555&&55",
"&55555&555595555&55555&555595555&55555&555595555&55555&555595555",
"95559555555&555595559555555&555595559555555&555595559555555&5555",
"5&55&555555555555&55&555555555555&55&555555555555&55&55555555555"
};
