/* XPM */
static char *player_run_l_4[] = {
/* columns rows colors chars-per-pixel */
"64 64 36 1 ",
"  c #3A3737",
". c #5B6E3E",
"X c #5F7441",
"o c #617743",
"O c #677E47",
"+ c #697F48",
"@ c #827C7C",
"# c #6E874C",
"$ c #6F884D",
"% c #728747",
"& c #728847",
"* c #70884D",
"= c #738C4F",
"- c #788E4A",
"; c #7E964E",
": c #7F974F",
"> c #80984F",
", c #859E53",
"< c #91B147",
"1 c #95B549",
"2 c #9BBC4C",
"3 c #87A054",
"4 c #8CA757",
"5 c #8DA858",
"6 c #8EA958",
"7 c #93AF5C",
"8 c #94B05C",
"9 c #BC8B6D",
"0 c #CDAE67",
"q c #9FC14D",
"w c #A0C34E",
"e c #A7CC52",
"r c #AACF53",
"t c #B7B3B2",
"y c #D6B39D",
"u c #EFE9E7",
/* pixels */
"8rr888888888=8r88rr888888888=8r88rr888888888=8r88rr888888888=8r8",
"8=r=8888888888=88=r=8888888888=88=r=8888888888=88=r=8888888888=8",
"88=88888888=888888=88888888=888888=88888888=888888=88888888=8888",
"88888r8888=8=88888888r8888=8=88888888r8888=8=88888888r8888=8=888",
"8888r=r8888==8888888r=r8888==8888888r=r8888==8888888r=r8888==888",
"8r88r===8888r8888r88r===8888r8888r88r===8888r8888r88r===8888r888",
"8=88==88=88888888=88==88=88888888=88==88=88888888=88==88=8888888",
"=88888==888r8888=88888==888r8888=88888==888r8888=88888==888r8888",
"8888888=88==88r88888888=88==88r88888888=88==88r88888888=88==88r8",
"888r=8888=8=88=8888r=8888=8=88=8888r=8888=8=88=8888r=8888=8=88=8",
"888=888888=88888888=888888=88888888=888888=88888888=888888=88888",
"8888888=888888888888888=888888888888888=888888888888888=88888888",
"=88888r88888==88=88888r88888==88=88888r88888==88=88888r88888==88",
"=88888=8888r8888=88888=8888r8888=88888=8888r8888=88888=8888r8888",
"r888r888888=8888r888r888888=8877r888r888888=8888r888r888888=8888",
"8=88=888888888888=88=888777777777=77=788888888888=88=88888888888",
"8rr888888888=8r88rr878777777=7e77rr777778778=8r88rr888888888=8r8",
"8=r=8888888888=88=r=8777777777=77=e=7777788888=88=r=8888888888=8",
"88=88888888=888888=87777777=766667=77777778=888888=88888888=8888",
"88888r8888=8=88888877r7777$6#64666667e7777=8=88888888r8888=8=888",
"8888r=r8888==8888887r=e7766#  44   6e=e7778==8888888r=r8888==888",
"8r88r===8888r8888r77r==$644 u 3 @t 4w#==7778r8888r88r===8888r888",
"8=88==88=88888888=77==76#4 @u  tuu 4##67=77888888=88==88=8888888",
"=88888==888r8888=77777##43 uu  uuu 444#$777r8888=88888==888r8888",
"8888888=88==88r87777764#4 @uu tuyu ,446#77==77r78888888=88==88r8",
"888r=8888=8=88=8777e#644, tut@uyyu 1+4467=7=77=8888r=8888=8=88=8",
"888=888888=88887777=644,, tu tuyy ;O,34467=77777888=888888=88888",
"8888888=888888777776443O   @ uyyy ;;,,4#467777778888888=88888888",
"=88888r88888==77=766442 uutt@uyy9     244667==77=88888r88888==88",
"=88888=8888r8777=7644, tuuuu@uy9 tuut@  344w7777=78888=8888r8888",
"r888r888888=8777e6442 @uuuuuuuyt uuuuuut 44#6777r788r888888=8888",
"8=88=888888877777#44O tuu utuuu@tuuuuuuut 4466777=78=88888888888",
"8rr888888888=7r76wq3 tuut  uuut@uuuuuuuuu@ 4#6e77rr887888888=8r8",
"8=r=8888888877=76#2 @uuuuuuuuuuuuuuuuuuuut ,44#77=r=7788888888=8",
"88=88888888=777764+ tuuuuuuuutuuuuuuuuuuuu@ 346677=77888888=8888",
"88888r8888=8=777644 00 uuuuut@uuuuuuuuuuuut O44677777r8888=8=888",
"8888r=r8888==776643, @uuuut @uuuuuuuuuuuuu@u 3467777r=r8888==888",
"8r88r===8778r7766w4,1  @t@ tuuuutuuuuuuuuutu ,466e77r===8888r888",
"8=88==88=88877776#4,Oo;    @tuuuttuuuuuuuutt ,446=77==88=8888888",
"=88888==888r7777$644,,oX-=& @tttt tuuuutuu@ ,,44#77788==888r8888",
"8888888=88==77r776443,,o;-.   @tt@ @tt tut@ ,,q46777878=88==88r8",
"888r=8888=8=77=7766w#,,,;X- @  ttt    @ttt O,3#6677r=7888=8=88=8",
"888=888888=88777776#443,,; t @uuut  @uutt@ ,,446777=788888=88888",
"8888888=888887777776644+,, t uuuu % tuuu  ;,,4467777778=88888888",
"=88888r88888==77=77766w43,,      ===     ;,,+#66=77788r88888==88",
"=88888=8888r8887=77776#443,1;;;;X;;;;;o;>,,24466=77788=8888r8888",
"r888r888888=8888r777e766443O,,,;<;;;<;;,,,3#4667r778r888888=8888",
"8=88=888888888887=77=7766443,,,,,O,,O,,,,44466777=78=88888888888",
"8rr888888888=8r88rr777776644#423,22,33444446#7e77rr888888888=8r8",
"8=r=8888888888=88=r=7777776644#44#q#4444466777=77=r=8888888888=8",
"88=88888888=888888=87777777$666644#46666677=777778=88888888=8888",
"88888r8888=8=88888887r7777=7=77776777e7777=7=77788888r8888=8=888",
"8888r=r8888==8888888r=r7777==7777777e=e7777==7788888r=r8888==888",
"8r88r===8888r8888r88r===7777r7777r77r===7777r8888r88r===8888r888",
"8=88==88=88888888=88==88=88777777=77==77=88888888=88==88=8888888",
"=88888==888r8888=88888==888r8888=87777==888r8888=88888==888r8888",
"8888888=88==88r88888888=88==88r88887888=88==88r88888888=88==88r8",
"888r=8888=8=88=8888r=8888=8=88=8888r=8888=8=88=8888r=8888=8=88=8",
"888=888888=88888888=888888=88888888=888888=88888888=888888=88888",
"8888888=888888888888888=888888888888888=888888888888888=88888888",
"=88888r88888==88=88888r88888==88=88888r88888==88=88888r88888==88",
"=88888=8888r8888=88888=8888r8888=88888=8888r8888=88888=8888r8888",
"r888r888888=8888r888r888888=8888r888r888888=8888r888r888888=8888",
"8=88=888888888888=88=888888888888=88=888888888888=88=88888888888"
};
