/* XPM */
static char *player_run_l_5[] = {
/* columns rows colors chars-per-pixel */
"64 64 37 1 ",
"  c #3A3737",
". c #5B6F3F",
"X c #5C703F",
"o c #617643",
"O c #677D47",
"+ c #697F48",
"@ c #827C7C",
"# c #6F8545",
"$ c #6E874C",
"% c #6F884D",
"& c #728847",
"* c #70884D",
"= c #738C4F",
"- c #788E4A",
"; c #7F974F",
": c #80984F",
"> c #869F53",
", c #83A040",
"< c #93B348",
"1 c #9BBC4C",
"2 c #87A154",
"3 c #8CA657",
"4 c #8DA858",
"5 c #8EA858",
"6 c #8FAA59",
"7 c #93AF5C",
"8 c #94B05C",
"9 c #BC8B6D",
"0 c #CDAE67",
"q c #9DC04D",
"w c #A0C34E",
"e c #A3C750",
"r c #A7CC52",
"t c #AACF53",
"y c #B7B3B2",
"u c #D6B39D",
"i c #EFE9E7",
/* pixels */
"8tt888888888=8t88tt888888888=8t88tt888888888=8t88tt888888888=8t8",
"8=t=8888888888=88=t=8888888888=88=t=8888888888=88=t=8888888888=8",
"88=88888888=888888=88888888=888888=88888888=888888=88888888=8888",
"88888t8888=8=88888888t8888=8=88888888t8888=8=88888888t8888=8=888",
"8888t=t8888==8888888t=t8888==8888888t=t8888==8888888t=t8888==888",
"8t88t===8888t8888t88t===8888t8888t88t===8888t8888t88t===8888t888",
"8=88==88=88888888=88==88=88888888=88==88=88888888=88==88=8888888",
"=88888==888t8888=88888==888t8888=88888==888t8888=88888==888t8888",
"8888888=88==88t88888888=88==88t88888888=88==88t88888888=88==88t8",
"888t=8888=8=88=8888t=8888=8=88=8888t=8888=8=88=8888t=8888=8=88=8",
"888=888888=88888888=888888=88888888=888888=88888888=888888=88888",
"8888888=888888888888888=888888888888888=888888888888888=88888888",
"=88888t88888==88=88888t88888==88=88888t88888==88=88888t88888==88",
"=88888=8888t8888=88888=8888t8888=88888=8888t8888=88888=8888t8888",
"t888t888888=8888t888t888888=8888t888t888888=8888t888t888888=8888",
"8=88=888888888888=88=888888888777=88=888888888888=88=88888888888",
"8tt888888888=8t88tt888787777=7t77tt777888888=8t88tt888888888=8t8",
"8=t=8888888888=88=t=7777777777=77=t=7777888888=88=t=8888888888=8",
"88=88888888=888888=87777777=777777=77777788=888888=88888888=8888",
"88888t8888=8=88888887t7777=7=66667777r7777=8=88888888t8888=8=888",
"8888t=t8888==8888887t=t7776$$6336666r=r7777==8888888t=t8888==888",
"8t88t===8888t8888t87t===7663  33   6e===7777t8888t88t===8888t888",
"8=88==88=88888888=77==76$33 i > @y 3$$67=77777888=88==88=8888888",
"=88888==888t8888=87777=$33 @i  yii 333$$777t7778=88888==888t8888",
"8888888=88==88t87777776$32 ii  iii >233$67==77t77888888=88==88t8",
"888t=8888=8=88=8777r=6333 @ii yiui <O>333$6=77=7778t=8888=8=88=8",
"888=888888=88888777=6633> yiy@iuui     233$66777778=888888=88888",
"8888888=888888877776633+> yi yiuu yiiy@  33366777778888=88888888",
"=88888t88888==77=776331>   @ iuuu iiiiiiy 23$$67=77788t88888==88",
"=88888=8888t8877=76633O iiyy@iuu9 iiiiiiiy  3367=77788=8888t8888",
"t888t888888=7777r763q> yiiii@iu9 yiiiiiiii@ 2336r777t888888=8888",
"8=88=888888887777$33+ @iiiiiiiuy iiiiiiiiiy@ 3366=77=88888888888",
"8tt888888888=7t76eq3> yii iyiii@yiiiiiiiiiiy >q36rr777888888=8t8",
"8=t=8888888877=76$q+ yiiy  iiiy@iiiiiiiiiii@i $36=r=7788888888=8",
"88=88888888=777763$ @iiiiiiiiiiiiiiiiiiiiiiyi 2366=77778888=8888",
"88888t8888=8=777633 yiiiiiiiiyiiiiiiiiiiiiiyy >336777t8888=8=888",
"8888t=t8877==777632 00 iiiiiy@iiiyiiiiiiiii@ >>33677t=t8888==888",
"8t88t===8777t7776w3> @iiiiy @iiiiyyyiiiiyii@ >>33r77t===8888t888",
"8=88==88=87777776$3>O  @y@ y @yyyy  @yy yiy ;>>33%77==88=8888888",
"=88888==887t7777$33>>:o   &i   @yy@    @yyy ;>23$67778==888t8888",
"8888888=88==77t76332>>;o;-. y @iiiy # @iiyy >>136777778=88==88t8",
"888t=8888=8=77=7663q$>>:;o; y iiii ,. yiii O>>$3677t=7888=8=88=8",
"888=888888=87777766$33>>>;o;      =X==     >>333677=777788=88888",
"8888888=888887777766333+>>>;;;;;;;;;;;;o;:>>23367777778=88888888",
"=88888t88888==77=77766w32>>>OO;;o;;;;;<>>>>2$$66=77788t88888==88",
"=88888=8888t8877=77776$33321>>>>O>>>>>O>>23q3667=77788=8888t8888",
"t888t888888=8887t777r766633$323312221233333$6677t778t888888=8888",
"8=88=888888888887=77=777666333333$33$333366667777=78=88888888888",
"8tt888888888=8t88tt777777776$6e66ww666666677=7t77tt888888888=8t8",
"8=t=8888888888=88=t=8777777777=77=r=7777777777=77=t=8888888888=8",
"88=88888888=888888=88877777=777777=77777777=777788=88888888=8888",
"88888t8888=8=88888888t8877=7=77777777t7777=7=77788888t8888=8=888",
"8888t=t8888==8888888t=t8888==7777777t=t7777==8888888t=t8888==888",
"8t88t===8888t8888t88t===8888t8888t88t===8888t8888t88t===8888t888",
"8=88==88=88888888=88==88=88888888=88==78=88888888=88==88=8888888",
"=88888==888t8888=88888==888t8888=88887==888t8888=88888==888t8888",
"8888888=88==88t88888888=88==88t88888888=88==88t88888888=88==88t8",
"888t=8888=8=88=8888t=8888=8=88=8888t=8888=8=88=8888t=8888=8=88=8",
"888=888888=88888888=888888=88888888=888888=88888888=888888=88888",
"8888888=888888888888888=888888888888888=888888888888888=88888888",
"=88888t88888==88=88888t88888==88=88888t88888==88=88888t88888==88",
"=88888=8888t8888=88888=8888t8888=88888=8888t8888=88888=8888t8888",
"t888t888888=8888t888t888888=8888t888t888888=8888t888t888888=8888",
"8=88=888888888888=88=888888888888=88=888888888888=88=88888888888"
};
