/* XPM */
static char *player_run_l_2[] = {
/* columns rows colors chars-per-pixel */
"64 64 37 1 ",
"  c #3A3737",
". c #5C6F3F",
"X c #5E7341",
"o c #607442",
"O c #677D47",
"+ c #687E47",
"@ c #697F48",
"# c #827C7C",
"$ c #6E874C",
"% c #6F884D",
"& c #738C4F",
"* c #788F4B",
"= c #79904B",
"- c #80984F",
"; c #839B51",
": c #87A442",
"> c #89A643",
", c #91B047",
"< c #95B549",
"1 c #9CBE4C",
"2 c #87A154",
"3 c #8BA556",
"4 c #8CA757",
"5 c #8DA858",
"6 c #8FAA59",
"7 c #93AF5C",
"8 c #94B05C",
"9 c #BC8B6D",
"0 c #CDAE67",
"q c #9FC14D",
"w c #A1C44E",
"e c #A3C750",
"r c #A5C951",
"t c #AACF53",
"y c #B7B3B2",
"u c #D6B39D",
"i c #EFE9E7",
/* pixels */
"8tt888888888&8t88tt888888888&8t88tt888888888&8t88tt888888888&8t8",
"8&t&8888888888&88&t&8888888888&88&t&8888888888&88&t&8888888888&8",
"88&88888888&888888&88888888&888888&88888888&888888&88888888&8888",
"88888t8888&8&88888888t8888&8&88888888t8888&8&88888888t8888&8&888",
"8888t&t8888&&8888888t&t8888&&8888888t&t8888&&8888888t&t8888&&888",
"8t88t&&&8888t8888t88t&&&8888t8888t88t&&&8888t8888t88t&&&8888t888",
"8&88&&88&88888888&88&&88&88888888&88&&88&88888888&88&&88&8888888",
"&88888&&888t8888&88888&&888t8888&88888&&888t8888&88888&&888t8888",
"8888888&88&&88t88888888&88&&88t88888888&88&&88t88888888&88&&88t8",
"888t&8888&8&88&8888t&8888&8&88&8888t&8888&8&88&8888t&8888&8&88&8",
"888&888888&88888888&888888&88888888&888888&88888888&888888&88888",
"8888888&888888888888888&888888888888888&888888888888888&88888888",
"&88888t88888&&88&88888t87788&&78&88888t88888&&88&88888t88888&&88",
"&88888&8888t8888&88888&7777t7777&77788&8888t8888&88888&8888t8888",
"t888t888888&8888t888t777777&7777t777t788888&8888t888t888888&8888",
"8&88&888888888888&87&777777777777&77&778888888888&88&88888888888",
"8tt888888888&8t88tt777777676%6r77rr777778888&8t88tt888888888&8t8",
"8&t&8888888888&88&t&7777663366$66%r&7777888888&88&t&8888888888&8",
"88&88888888&888887&7777633  33   6%77777888&888888&88888888&8888",
"88888t8888&8&88877777r633 i @ #y 3667r7778&8&88888888t8888&8&888",
"8888t&t8888&&8887777r$w3 #i  yii 336r&t7788&&8888888t&t8888&&888",
"8t88t&&&8888t7877t77e$$+ ii  iii 136r&&&7888t8888t88t&&&8888t888",
"8&88&&88&88888877&76$$3 #ii yiui @33$&77&88888888&88&&88&8888888",
"&88888&&888t8877&76632O yiy#iuui ;3367&&788t8888&88888&&888t8888",
"8888888&88&&87t777633;; yi yiuu ;;33667&77&&88t78888888&88&&88t8",
"888t&8888&8&77&7763q@;   # iuuu =;;q$6777&7&88&7888t&8888&8&88&8",
"888&888888&87777663$; iiyy#iuu9 =;;$366777&77777888&888888&88888",
"8888888&88877777633; yiiii#iu9 ==-;2336%777777778888888&88888888",
"&88888t88877&&76$32 #iiiiiiiuy &X=;;23w66777&&77&88888t88888&&88",
"&88888&8777t7776$3; yii iyiii#y      2$3366r7777&88888&8888t8888",
"t888t888777&7766q2 yiiy  iiiy#iiiiiy#  3336$7777t788t888888&8888",
"8&88&888777777633 #iiiiiiiiiiiiiiiiiiiy  33367777&78&88888888888",
"8tt888888877&7w33 yiiiiiiiiyiiiiiiiiiiii# 33$6r77tt887888888&8t8",
"8&t&8888887777$33 00 iiiiiy#iiiiiiiiiiiiiy 336$77&t&7788888888&8",
"88&88888887&7663;; #iiiiy #iiiiiiiiiiiiiii# 336677&77888888&8888",
"88888t8887&7&633;;=  #y# yiiiiiiiiiiiiiiiiyi 33677777t8888&8&888",
"8888t&t8877&&633;;==:   yiiiiiiiiiiiiiiiii#i 3366777t&t8888&&888",
"8t88t&&&8777r633;<==:  yiiiiiiiiiiiiiiiiiiyy ;336r77t&&&8888t888",
"8&88&&88&7776633;O=    #yiiiyyiiiiiiiiiiiiy ;;336&77&&88&8888888",
"&88888&&777r6633O  ## #yyyy#       #yiiiii  =;;3$67777&&888t8888",
"8888888&77&&66q2 #   #yyy   &&:&&&&   yiyyyy ;133677778&88&&88t8",
"888t&8887&7&66$ y yiiyy# .&X*=X===*>.&  #yyy# O3336r&7888&8&88&8",
"888&888877&7633 y #yii# ==o========o=*&  #iii# 2336&777888&88888",
"8888888&7777633    yii o==--;;;;;;;====X  yiiiy 3667777&88888888",
"&88888t87777%$33+;;   ,=-;;;O@2;$;;;;-,=  #iiii $36777t88888&&88",
"&88888&8777r6633@;;;;;O;;;;13333$332;;O-=      3$66777&8888t8888",
"t888t888777&76331;;;1;;;233$3366w333q2;;;;;O;;;3w667t778888&8888",
"8&88&888777776633$33$233333666777%66$332;;;;;;333$77&77888888888",
"8tt888887777&7w33wq333336667&7r77rr663332222$3q33rr777778888&8t8",
"8&t&8888877777&66$w$3336677777&77&r&7663333333$36&r&7777888888&8",
"88&88888877&777777%66677777&777777&77776663$366677&77788888&8888",
"88888t8888&7&77777777r7777&7&77787777r7776$6$67777777t8888&8&888",
"8888t&t8888&&7777777t&t7777&&8888877t&t7777&&7777777t&t8888&&888",
"8t88t&&&8888t7777t77t&&&7788t8888t87t&&&7777t7777t77t&&&8888t888",
"8&88&&88&88888888&88&&77&88888888&88&&77&77777777&78&&88&8888888",
"&88888&&888t8888&88878&&888t8888&88888&&777t7778&88888&&888t8888",
"8888888&88&&88t88888888&88&&88t88888888&88&&88t88888888&88&&88t8",
"888t&8888&8&88&8888t&8888&8&88&8888t&8888&8&88&8888t&8888&8&88&8",
"888&888888&88888888&888888&88888888&888888&88888888&888888&88888",
"8888888&888888888888888&888888888888888&888888888888888&88888888",
"&88888t88888&&88&88888t88888&&88&88888t88888&&88&88888t88888&&88",
"&88888&8888t8888&88888&8888t8888&88888&8888t8888&88888&8888t8888",
"t888t888888&8888t888t888888&8888t888t888888&8888t888t888888&8888",
"8&88&888888888888&88&888888888888&88&888888888888&88&88888888888"
};
