/* XPM */
static char *player_run_r_6[] = {
/* columns rows colors chars-per-pixel */
"64 64 35 1 ",
"  c #3A3737",
". c #596C3D",
"X c #5C703F",
"o c #607442",
"O c #657C46",
"+ c #687F48",
"@ c #697F48",
"# c #827C7C",
"$ c #6B8249",
"% c #6F884D",
"& c #728847",
"* c #738C4F",
"= c #79904B",
"- c #7D954E",
"; c #80984F",
": c #869F53",
"> c #96B749",
", c #9ABC4B",
"< c #87A054",
"1 c #8CA757",
"2 c #8DA858",
"3 c #8EA858",
"4 c #8FAA59",
"5 c #93AF5C",
"6 c #94B05C",
"7 c #BC8B6D",
"8 c #CDAE67",
"9 c #9FC14D",
"0 c #A0C34E",
"q c #A3C750",
"w c #A5C951",
"e c #AACF53",
"r c #B7B3B2",
"t c #D6B39D",
"y c #EFE9E7",
/* pixels */
"6ee666666666*6e66ee666666666*6e66ee666666666*6e66ee666666666*6e6",
"6*e*6666666666*66*e*6666666666*66*e*6666666666*66*e*6666666666*6",
"66*66666666*666666*66666666*666666*66666666*666666*66666666*6666",
"66666e6666*6*66666666e6666*6*66666666e6666*6*66666666e6666*6*666",
"6666e*e6666**6666666e*e6666**6666666e*e6666**6666666e*e6666**666",
"6e66e***6666e6666e66e***6666e6666e66e***6666e6666e66e***6666e666",
"6*66**66*66666666*66**66*66666666*66**66*66666666*66**66*6666666",
"*66666**666e6666*66666**666e6666*66666**666e6666*66666**666e6666",
"6666666*66**66e66666666*66**66e66666666*66**66e66666666*66**66e6",
"666e*6666*6*66*6666e*6666*6*66*6666e*6666*6*66*6666e*6666*6*66*6",
"666*666666*66666666*666666*66666666*666666*66666666*666666*66666",
"6666666*666666666666666*666666666666666*666666666666666*66666666",
"*66666e66666**66*66666e66666**66*66666e66666**66*66666e66666**66",
"*66666*6666e6666*66666*6666e6666*66666*6666e6666*66666*6666e6666",
"e666e666666*6666e666e666666*6666e666e666666*6666e666e666666*6666",
"6*66*666666666666*66*666666666666*66*666666666666*66*66666666666",
"6ee666666666*6e66ee666666666*6e65ee666666666*6e66ee666666666*6e6",
"6*e*6666666666*66*e*5566666666*65*e*6666666666*66*e*6666666666*6",
"66*66666666*666666*65555666*555555*55555566*666666*66666666*6666",
"66666e6666*6*66666665e5555*5*55555555e5555*6*66666666e6666*6*666",
"6666e*e6666**6666666e*e5555**5555555w*e5555**6666666e*e6666**666",
"6e66e***6666e6666e55e***5555w4444w44w***5555e5666e66e***6666e666",
"6*66**66*66666666*55**55%54444111$11$$45*55555666*66**66*6666666",
"*66666**666e6665*55555*%441011   11  1$$555e5566*66666**666e6666",
"6666666*66**66e55555544$11$$<: r# : y 1$44**55e56666666*66**66e6",
"666e*6666*6*66*5555w$4111      yyr  y# 11$5*55*5666e*6666*6*66*6",
"666*666666*66555555$111  #ryy  yyy  yy <11$55555666*666666*66666",
"6666666*66665555544111 ryyyyyy ytyr yy# 111455556666666*66666666",
"*66666e66666**55*411  ryyyyyyy ytty#ryr :<14%*55*66666e66666**66",
"*66666*6666e5555$11< #yyyyyyyyr ttyr yr ::104555*56666*6666e6666",
"e666e666665*5554011 #ryyyyyyyyy ttty #   :<$1455e556e666666*6666",
"6*66*666555555541$: ryyyyyyyyyy 7tty#rryy :<14455*56*66666666666",
"6ee666666665*5w41, y#yyyyyyyyyyr 7ty#yyyyr :$1q55ee555666666*6e6",
"6*e*6666666555%41@ yryyyyyyyyyyy rtyyyyyyy# <1$45*e*5566666666*6",
"66*66666666*55411: rryyyyyyyyyyyr#yyyry yyr :11455*55556666*6666",
"66666e6666*5*5411:: #yyyyyyyyyyyy#ryyy  ryyr <1445555e5566*6*666",
"6666e*e6555**5411:: #yyryyyyyyryyyyyyyyyyyyy# 114555e*e6666**666",
"6e66e***5555e5411,:- ryr ryyrrryyy#ryyyyyyyyr 114w55e***6666e666",
"6*66**66*65555541$:- #rr# r#  rrrr #ryyyyy 88 114*55**66*6666666",
"*66666**665e5554$1::- ryy#   #rr#  ## ryyyy# :<1$55556**666e6666",
"6666666*66**55w411::; yyyr .& yyyy r   #r#  ::,14555556*66**66e6",
"666e*6666*6*55*5411,O     *X**       **   -O::$1455e*5666*6*66*6",
"666*666666*65555411@:::---o--------X------O::114455*555566*66666",
"6666666*6666555544111::O::;------------O::::<1145555555*66666666",
"*66666e66666**55*44111,:::::OO::O:::::>:::<1$$44*55556e66666**66",
"*66666*6666e6555*54411$1111,<:::@:::::@<<1104445*55566*6666e6666",
"e666e666666*6555e555w411111$11119111,111114$4555e555e666666*6666",
"6*66*666666666555*55*544444444414$14$444444555555*56*66666666666",
"6ee666666666*6e55ee555555555*5w44ww445555555*5e55ee666666666*6e6",
"6*e*6666666666*65*e*5555555555*55*w*5555555555*55*e*6666666666*6",
"66*66666666*666665*55555555*555555*55555555*555566*66666666*6666",
"66666e6666*6*66666666e5555*5*55555555e5556*6*65566666e6666*6*666",
"6666e*e6666**6666666e*e6666**6666666e*e5666**6666666e*e6666**666",
"6e66e***6666e6666e66e***6666e6666e66e***6666e6666e66e***6666e666",
"6*66**66*66666666*66**66*66666666*66**66*66666666*66**66*6666666",
"*66666**666e6666*66666**666e6666*66666**666e6666*66666**666e6666",
"6666666*66**66e66666666*66**66e66666666*66**66e66666666*66**66e6",
"666e*6666*6*66*6666e*6666*6*66*6666e*6666*6*66*6666e*6666*6*66*6",
"666*666666*66666666*666666*66666666*666666*66666666*666666*66666",
"6666666*666666666666666*666666666666666*666666666666666*66666666",
"*66666e66666**66*66666e66666**66*66666e66666**66*66666e66666**66",
"*66666*6666e6666*66666*6666e6666*66666*6666e6666*66666*6666e6666",
"e666e666666*6666e666e666666*6666e666e666666*6666e666e666666*6666",
"6*66*666666666666*66*666666666666*66*666666666666*66*66666666666"
};
