/* XPM */
static char *player_run_t_7[] = {
/* columns rows colors chars-per-pixel */
"64 64 31 1 ",
"  c #3A3737",
". c #617643",
"X c #657C46",
"o c #687E47",
"O c #697F48",
"+ c #827C7C",
"@ c #6E864C",
"# c #6F884D",
"$ c #70884D",
"% c #738C4F",
"& c #788F4B",
"* c #7F964F",
"= c #7F974F",
"- c #80984F",
"; c #869F53",
": c #97B74A",
"> c #98B94A",
", c #9BBC4C",
"< c #87A154",
"1 c #8CA757",
"2 c #8DA858",
"3 c #8FAA59",
"4 c #93AF5C",
"5 c #94B05C",
"6 c #9FC14D",
"7 c #A1C44E",
"8 c #A3C750",
"9 c #A7CC52",
"0 c #AACF53",
"q c #B7B3B2",
"w c #EFE9E7",
/* pixels */
"500555555555%505500555555555%505500555555555%505500555555555%505",
"5%0%5555555555%55%0%5555555555%55%0%5555555555%55%0%5555555555%5",
"55%55555555%555555%55555555%555555%55555555%555555%55555555%5555",
"5555505555%5%5555555505555%5%5555555505555%5%5555555505555%5%555",
"55550%05555%%55555550%05555%%55555550%05555%%55555550%05555%%555",
"50550%%%5555055550550%%%5555055550550%%%5555055550550%%%55550555",
"5%55%%55%55555555%55%%55%55555555%55%%55%55555555%55%%55%5555555",
"%55555%%55505555%55555%%55505555%55555%%55505555%55555%%55505555",
"5555555%55%%55055555555%55%%55055555555%55%%55055555555%55%%5505",
"5550%5555%5%55%55550%5555%5%55%55550%5555%5%55%55550%5555%5%55%5",
"555%555555%55555555%555555%55555555%555555%55555555%555555%55555",
"5555555%555555555555555%555555555555555%555555555555555%55555555",
"%55555055555%%55%55555055555%%55%55555055555%%55%55555055555%%55",
"%55555%555505555%55555%555505555%55555%555505555%55555%555505555",
"05550555555%555505550555555%555505550555555%555505550555555%5555",
"5%55%555555555555%55%555555555555%55%555555555555%55%55555555555",
"500555555555%505500544444444%404400444444444%505500555555555%505",
"5%0%5555555555%55%0%4444444444%44%0%4444444444%55%0%5555555555%5",
"55%55555555%555554%44444444%444444%44444444%444455%55555555%5555",
"5555505555%5%5554444494444%4%4444444494444%4%4444555505555%5%555",
"55550%05555%%55544449%93333@%44444449#93334%%44445550%05555%%555",
"50550%%%5555055540449%@   11833339338@@   34944440550%%%55550555",
"5%55%%55%55555544%44%@1 qw 111131@11@@ wq 1344444%55%%55%5555555",
"%55555%%55505554%44431@ qww <111@1111 wwq 173444%45555%%55505555",
"5555555%55%%55044444311 qwwq ;,<<<<; qwwq @@34944455555%55%%5505",
"5550%5555%5%55%44449@1< +www+ X;;;; +www+ 1@13%44450%5555%5%55%5",
"555%555555%55554444@11<; qwww+     +wwwq ;o11344445%555555%55555",
"5555555%55555554444311;X +wwwq     qwww+ ;;113444455555%55555555",
"%55555055555%%44%44311,;- qwwwq+++qwwwq -;;1@@44%45555055555%%55",
"%55555%555505444%44311X;*   qwqqqqqwq   *;;,1344%45555%555505555",
"05550555555%5544044371;;* +++qqqqqqq+++ *;;@134405550555555%5555",
"5%55%555555555444%43@1;; +qwqqwwwwwqqwq+ ;;113444%55%55555555555",
"500555555555%505409311;* qqwwqwwwwwqwwqq ;;1@394400555555555%505",
"5%0%5555555555%44%9@11; +qwwwwwwwwwwwwwq+ ;113#44%0%5555555555%5",
"55%55555555%555444#311; +wwwwwwwwwwwwwww+ ;@134444%55555555%5555",
"5555505555%5%55444411,; qwwwwwwwwwwwwwwwq X<@1344455505555%5%555",
"55550%05555%%55444416O: wwwwwwwwwwwwwwwww ;o@14444550%05555%%555",
"50550%%%5555055449416OX qw+qwwwwwwwwwq+wq ;;614440550%%%55550555",
"5%55%%55%55555544%41@O;* q +wwq+++qww+ q *;;11444%55%%55%5555555",
"%55555%%55505554%4431<X  +  qw qwq wq  +  ;,1144%45555%%55505555",
"5555555%55%%5504443111; qq  ++qwwwq++  qq X@11944455555%55%%5505",
"5550%5555%5%55%44437@1; ww+   +www+   +ww ;@13@44450%5555%5%55%5",
"555%555555%55554444@11<;   &%  qqq  %&   ;O11344445%555555%55555",
"5555555%555555544443311o;*****%   &&***X;;1113444455555%55555555",
"%55555055555%%54%444316<;;;*..**.*****:;;111@%44%45555055555%%55",
"%55555%555505555%44433@11;;:;-;*X-;;;;X;11183444%55555%555505555",
"05550555555%555504449331111@;;;;,;;;,<11113@444405550555555%5555",
"5%55%555555555554%44%433111111<1<@11@111134444444%55%55555555555",
"500555555555%505500444443333@171177111333444%404500555555555%505",
"5%0%5555555555%55%0%4444444433@33@9@3344444444%45%0%5555555555%5",
"55%55555555%555555%44444444%444444#44444444%444455%55555555%5555",
"5555505555%5%5555555404444%4%4444444404444%4%5445555505555%5%555",
"55550%05555%%55555550%04444%%44444440%04455%%55555550%05555%%555",
"50550%%%5555055550550%%%5555055550550%%%5555055550550%%%55550555",
"5%55%%55%55555555%55%%55%55555555%55%%44%55555555%55%%55%5555555",
"%55555%%55505555%55555%%55505555%55554%%55505555%55555%%55505555",
"5555555%55%%55055555555%55%%55055555555%55%%55055555555%55%%5505",
"5550%5555%5%55%55550%5555%5%55%55550%5555%5%55%55550%5555%5%55%5",
"555%555555%55555555%555555%55555555%555555%55555555%555555%55555",
"5555555%555555555555555%555555555555555%555555555555555%55555555",
"%55555055555%%55%55555055555%%55%55555055555%%55%55555055555%%55",
"%55555%555505555%55555%555505555%55555%555505555%55555%555505555",
"05550555555%555505550555555%555505550555555%555505550555555%5555",
"5%55%555555555555%55%555555555555%55%555555555555%55%55555555555"
};
