/* XPM */
static char *player_run_r_2[] = {
/* columns rows colors chars-per-pixel */
"64 64 38 1 ",
"  c #3A3737",
". c #5B6E3E",
"X c #5C703F",
"o c #5E7341",
"O c #627743",
"+ c #657A45",
"@ c #687F48",
"# c #697F48",
"$ c #827C7C",
"% c #6E864C",
"& c #6F884D",
"* c #738C4F",
"= c #788F4B",
"- c #7C944D",
"; c #80984F",
": c #859F53",
"> c #87A442",
", c #89A743",
"< c #8FAF46",
"1 c #93B348",
"2 c #9CBE4C",
"3 c #87A154",
"4 c #8CA657",
"5 c #8DA858",
"6 c #8EA858",
"7 c #8FAA59",
"8 c #93AF5C",
"9 c #94B05C",
"0 c #BC8B6D",
"q c #CDAE67",
"w c #9FC14D",
"e c #A0C34E",
"r c #A3C750",
"t c #A5C951",
"y c #AACF53",
"u c #B7B3B2",
"i c #D6B39D",
"p c #EFE9E7",
/* pixels */
"9yy999999999*9y99yy999999999*9y99yy999999999*9y99yy999999999*9y9",
"9*y*9999999999*99*y*9999999999*99*y*9999999999*99*y*9999999999*9",
"99*99999999*999999*99999999*999999*99999999*999999*99999999*9999",
"99999y9999*9*99999999y9999*9*99999999y9999*9*99999999y9999*9*999",
"9999y*y9999**9999999y*y9999**9999999y*y9999**9999999y*y9999**999",
"9y99y***9999y9999y99y***9999y9999y99y***9999y9999y99y***9999y999",
"9*99**99*99999999*99**99*99999999*99**99*99999999*99**99*9999999",
"*99999**999y9999*99999**999y9999*99999**999y9999*99999**999y9999",
"9999999*99**99y99999999*99**99y99999999*99**99y99999999*99**99y9",
"999y*9999*9*99*9999y*9999*9*99*9999y*9999*9*99*9999y*9999*9*99*9",
"999*999999*99999999*999999*99999998*999999*99999999*999999*99999",
"9999999*999999999999999*999999999888999*999999999999999*99999999",
"*99999y99999**99*99999y99999**99*88899y99999**99*99999y99999**99",
"*99999*9999y9999*99999*9999y8888*88888*8899y9999*99999*9999y9999",
"y999y999999*9999y999y999988*8888y888y888888*9999y999y999999*9999",
"9*99*999999999999*99*999888888888*88*888888899999*99*99999999999",
"9yy999999999*9y99yy999988888*8t87tt788888888*9y99yy999999999*9y9",
"9*y*9999999999*99*y*9998888887%77%e%7778888888*99*y*9999999999*9",
"99*99999999*999999*99998888*77   4%  477788*889999*99999999*9999",
"99999y9999*9*99999999y8888*7%4 u$ 3 p 4477*8*88999999y9999*9*999",
"9999y*y9999**9999999y*y8888%%4 ppu  p$ 4478**8889999y*y9999**999",
"9y99y***9999y9999y99y***8877e4 ppp  pp %4478t8889y99y***9999y999",
"9*99**99*99999999*99**88*87443 pipu pp$ %44788889*99**99*9999999",
"*99999**999y9999*99999**877e4: piip$upu :44e7888*99999**999y9999",
"9999999*99**99y99999888*87%%4:1 iipu pu ::%%78t88899999*99**99y9",
"999y*9999*9*99*9999y*8888%4%::O iiip $   +:%47*8888y*9999*9*99*9",
"999*999999*99999988*888877%4::- 0iip$uupp +44778888*999999*99999",
"9999999*999999998888888%744::--= 0ip$ppppu :44788888999*99999999",
"*99999y99999**88*88888t7443:+O-* uippppppp$ @%47*88899y99999**99",
"*99999*9999y8888*88877%443      u$pppup ppu :347*88889*9999y9999",
"y999y999999*8888y887e444  $uppppp$uppp  uppu :47t888y999999*9999",
"9*99*999999988888*74%4  uppppppppppppppppppp$ 447*88*99999999999",
"9yy999999999*8y88re44 $ppppppppppppuppppppppu 247tt888999999*9y9",
"9*y*9999999888*87%w% uppppppppppppp$uppppp qq %47*t*8899999999*9",
"99*99999999*888774% $ppppppppppppppp$ upppp$ ::477*88999999*9999",
"99999y9999*8*88744 puppppppppppppppppu $u$  O::447888y9999*9*999",
"9999y*y9888**87744 p$pppppppppppppppppu   *oO::44788y*y9999**999",
"9y99y***9888t87442 uuppppppppppppppppppu  *=<::34r88y***9999y999",
"9*99**99*88888744+: uppppppppppppuupppu$    -::34%88**99*9999999",
"*99999**988y8744@:-  pppppu$       $uuuu$ $$  :4%78888**999y9999",
"9999999*98**87e4:: uuuupu   **>****   uuu$   $ 34778888*99**99y9",
"999y*9999*8*87%4: $uuu$  .*X==o---=,.* $uuppu u 447t*8899*9*99*9",
"999*999988*87443 $ppp$  *=o--------O--= $ppu$ u 447&888999*99999",
"9999999*8888744 upppu  o----;::::::;---O ppu    4478888*99999999",
"*99999y98888%%4 pppp$  --;::+@33@:::::1--   ++:4%77888y99999**99",
"*99999*9888t7743      O-:::24444%444::+::::1::34%77888*9999y9999",
"y999y999888*77442:::1:::::4%4477e444233::::+:344e788y889999*9999",
"9*99*998888887444@::+:::444777878%74%444333444447&88*88999999999",
"9yy999998888*7e4422334444477*8t88tt877744444%4e77tt888899999*9y9",
"9*y*9999888888%74%w%4444778888*88*y*8877777747%78*t*8899999999*9",
"99*99999988*888774%44777888*888888*88888877&777888*88899999*9999",
"99999y9998*8*88877777t8888*8*88988888y8888*8*88888888y9999*9*999",
"9999y*y9988**8888888t*t8888**9999998y*y8888**8888888y*y9999**999",
"9y99y***9988y8888y88t***8888y9999y99y***8888y8888y99y***9999y999",
"9*99**99*99988888*88**88*89999999*99**88*99999999*99**99*9999999",
"*99999**999y9999*88888**999y9999*99998**999y9999*99999**999y9999",
"9999999*99**99y99888999*99**99y99999999*99**99y99999999*99**99y9",
"999y*9999*9*99*9989y*9999*9*99*9999y*9999*9*99*9999y*9999*9*99*9",
"999*999999*99999999*999999*99999999*999999*99999999*999999*99999",
"9999999*999999999999999*999999999999999*999999999999999*99999999",
"*99999y99999**99*99999y99999**99*99999y99999**99*99999y99999**99",
"*99999*9999y9999*99999*9999y9999*99999*9999y9999*99999*9999y9999",
"y999y999999*9999y999y999999*9999y999y999999*9999y999y999999*9999",
"9*99*999999999999*99*999999999999*99*999999999999*99*99999999999"
};
