/* XPM */
static char *player_run_r_5[] = {
/* columns rows colors chars-per-pixel */
"64 64 35 1 ",
"  c #3A3737",
". c #596C3D",
"X c #5D7140",
"o c #627743",
"O c #637844",
"+ c #687E47",
"@ c #827C7C",
"# c #6F8545",
"$ c #6B834A",
"% c #728847",
"& c #70884D",
"* c #738C4F",
"= c #788E4A",
"- c #7F974F",
"; c #80984F",
": c #839C52",
"> c #93B348",
", c #97B84A",
"< c #9BBD4C",
"1 c #87A054",
"2 c #88A254",
"3 c #8DA858",
"4 c #8EA858",
"5 c #93AF5C",
"6 c #94B05C",
"7 c #BC8B6D",
"8 c #CDAE67",
"9 c #9DC04D",
"0 c #A0C34E",
"q c #A3C750",
"w c #A6CA51",
"e c #AACF53",
"r c #B7B3B2",
"t c #D6B39D",
"y c #EFE9E7",
/* pixels */
"6ee666666666*6e66ee666666666*6e66ee666666666*6e66ee666666666*6e6",
"6*e*6666666666*66*e*6666666666*66*e*6666666666*66*e*6666666666*6",
"66*66666666*666666*66666666*666666*66666666*666666*66666666*6666",
"66666e6666*6*66666666e6666*6*66666666e6666*6*66666666e6666*6*666",
"6666e*e6666**6666666e*e6666**6666666e*e6666**6666666e*e6666**666",
"6e66e***6666e6666e66e***6666e6666e66e***6666e6666e66e***6666e666",
"6*66**66*66666666*66**66*66666666*66**66*66666666*66**66*6666666",
"*66666**666e6666*66666**666e6666*66666**666e6666*66666**666e6666",
"6666666*66**66e66666666*66**66e66666666*66**66e66666666*66**66e6",
"666e*6666*6*66*6666e*6666*6*66*6666e*6666*6*66*6666e*6666*6*66*6",
"666*666666*66666666*666666*66666666*666666*66666666*666666*66666",
"6666666*666666666666666*666666666666666*666666666666666*66666666",
"*66666e66666**66*66666e66666**66*66666e66666**66*66666e66666**66",
"*66666*6666e6666*66666*6666e6666*66666*6666e6666*66666*6666e6666",
"e666e666666*6666e666e666666*6666e666e666666*6666e666e666666*6666",
"6*66*666666666666*66*666666666665*56*666666666666*66*66666666666",
"6ee666666666*6e66ee666666665*5e56ee555555555*6e66ee666666666*6e6",
"6*e*6666666666*66*e*6666655555*55*e*5555555566*66*e*6666666666*6",
"66*66666666*666666*66666555*555555*55555555*666666*66666666*6666",
"66666e6666*6*66666666e6555*5*55533335w5555*5*66666666e6666*6*666",
"6666e*e6666**6666666e*e5555**33332230$w5555**5666666e*e6666**666",
"6e66e***6666e6666e66e***5555q3   92  $$$5555e5666e66e***6666e666",
"6*66**66*66666666*65**55*53322 r@ 2 y 22$35555566*66**66*6666666",
"*66666**666e6666*65555**533022 yyr  y@ $235w5556*66666**666e6666",
"6666666*66**66e65555555*32$$1: yyy  yy $22$*55e56666666*66**66e6",
"666e*6666*6*66*5555e*5332$2+:: ytyr yy@ 2$2$55*5666e*6666*6*66*6",
"666*666666*66665555*533221     ytty@ryr :2$33556566*666666*66666",
"6666666*666666555555322$  @ryyr ttyr yr ::2235555566666*66666666",
"*66666e66666**66*53322< ryyyyyy ttty @   :22$$55*55666e66666**66",
"*66666*6666e6665*5322  ryyyyyyy 7tty@rryy :<2335*55666*6666e6666",
"e666e666666*5555w322< @yyyyyyyyr 7ty@yyyyr +2235w555e666666*6666",
"6*66*666666655553$22 @ryyyyyyyyy rtyyyyyyy@ 12235*55*66666666666",
"6ee666666666*5w5309: ryyyyyyyyyyr@yyyry yyr O2035we555666666*6e6",
"6*e*6666666655*53$< y@yyyyyyyyyyy@ryyy  ryyr 1$33*e*5566666666*6",
"66*66666666*555332$ yryyyyyyyyyyyyyyyyyyyyyy@ 2235*55566666*6666",
"66666e6666*6*553321 rryyyyyyyyyyyyyryyyyyyyyr 2235555e6666*6*666",
"6666e*e6666**55322:: @yyyyyyyyyryyy@ryyyyy 88 223555e*e6666**666",
"6e66e***6666e55329:: @yyryyyyrrryyyy@ ryyyy@ :223w55e***6666e666",
"6*66**66*66655532$::o ryr rr@  rrrr@ r @r@  ::223*55**66*6666666",
"*66666**666e5553$21:- rrr@    @rr@   y.   ->::22$55556**666e6666",
"6666666*66**55w5322:: rryy@ # ryyy@ r *X--OO:2933555566*66**66e6",
"666e*6666*6*55*5322<O; yyyr %% yyyy r ---O:O22$3555e*6666*6*66*6",
"666*666666*65555332$::     =***      ---::+22233555*556666*66666",
"6666666*6666655553221::O--------------:O:12223355555556*66666666",
"*66666e66666**55*53222<::::;OO--o-;:::<:2223$*55*55566e66666**66",
"*66666*6666e6555*53332$1:::,::::O::::2$2223w5555*55666*6666e6666",
"e666e666666*6655e553w222222$2111<2229222335*5555e566e666666*6666",
"6*66*666666666555*55*533222222222$22$333555556655*66*66666666666",
"6ee666666666*6e55ee555533333$3033qq333555555*5e66ee666666666*6e6",
"6*e*6666666666*65*e*5555555555*55*w*5555555566*66*e*6666666666*6",
"66*66666666*666665*55555555*555555*55555555*666666*66666666*6666",
"66666e6666*6*66666555e5555*5*55555555e5556*6*66666666e6666*6*666",
"6666e*e6666**6666666e*e5555**5555555e*e6666**6666666e*e6666**666",
"6e66e***6666e6666e66e***6666e6666e66e***6666e6666e66e***6666e666",
"6*66**66*66666666*66**66*66666666*66**66*66666666*66**66*6666666",
"*66666**666e6666*66666**666e6666*66666**666e6666*66666**666e6666",
"6666666*66**66e66666666*66**66e66666666*66**66e66666666*66**66e6",
"666e*6666*6*66*6666e*6666*6*66*6666e*6666*6*66*6666e*6666*6*66*6",
"666*666666*66666666*666666*66666666*666666*66666666*666666*66666",
"6666666*666666666666666*666666666666666*666666666666666*66666666",
"*66666e66666**66*66666e66666**66*66666e66666**66*66666e66666**66",
"*66666*6666e6666*66666*6666e6666*66666*6666e6666*66666*6666e6666",
"e666e666666*6666e666e666666*6666e666e666666*6666e666e666666*6666",
"6*66*666666666666*66*666666666666*66*666666666666*66*66666666666"
};
