/* XPM */
static char *col[] = {
/* columns rows colors chars-per-pixel */
"64 64 44 1 ",
"  c #140C1C",
". c #506137",
"X c #54673A",
"o c #57693B",
"O c #5B6F3F",
"+ c #5E7341",
"@ c #617542",
"# c #677A40",
"$ c #667C46",
"% c #677E47",
"& c #687E47",
"* c #687F48",
"= c #76903A",
"- c #7E993E",
"; c #6E8244",
": c #6E854B",
"> c #6F884D",
", c #728747",
"< c #728847",
"1 c #738C4F",
"2 c #788E4A",
"3 c #7F964F",
"4 c #80984F",
"5 c #869F53",
"6 c #87A442",
"7 c #8AA843",
"8 c #8BAA44",
"9 c #95B649",
"0 c #9BBC4C",
"q c #87A154",
"w c #8CA757",
"e c #8DA858",
"r c #8FAA59",
"t c #93AF5B",
"y c #94B05C",
"u c #9FC24E",
"i c #A0C34E",
"p c #A3C750",
"a c #A6CA51",
"s c #AACF53",
"d c #6DC2CA",
"f c #8595A1",
"g c #D2AA99",
"h c #DEEED6",
/* pixels */
"yssyyyyyyyyy1ysyyssyyyyyyyyy1ysyyssyyyyyyyyy1ysyyssyyyyyyyyy1ysy",
"y1s1yyyyyyyyyy1yy1s1yyyyyyyyyy1yy1s1yyyyyyyyyy1yy1s1yyyyyyyyyy1y",
"yy1yyyyyyyy1yyyyyy1yyyyyyyy1yyyyyy1yyyyyyyy1yyyyyy1yyyyyyyy1yyyy",
"yyyyysyyyy1y1yyyyyyyysyyyy1y1yyyyyyyysyyyy1y1yyyyyyyysyyyy1y1yyy",
"yyyys1syyyy11yyyyyyys1syyyy11yyyyyyys1syyyy11yyyyyyys1syyyy11yyy",
"ysyys111yyyysyyyysyys111yyyysyyyysyys111yyyysyyyysyys111yyyysyyy",
"y1yy11yy1yyyyyyyy1yy11yy1yyyyyyyy1yy11yy1yyyyyyyy1yy11yy1yyyyyyy",
"1yyyyy11yyysyyyy1yyyyy11yyysyyyy1yyyyy11yyysyyyy1yyyyy11yyysyyyy",
"yyyyyyy1yy11yysyyyyyyyy1yy11yysyyyyyyyy1yy11yysyyyyyyyy1yy11yysy",
"yyys1yyyy1y1yy1yyyys1yyyy1y1yy1yyyys1yyyy1y1yy1yyyys1yyyy1y1yy1y",
"yyy1yyyyyy1yyyyyyyy1yyyyyy1yyyyyyyy1yyyyyy1yyyyyyyy1yyyyyy1yyyyy",
"yyyyyyy1yyyyyyyyyyyyyyy1yyyyyyyyyyyyyyy1yyyyyyyyyyyyyyy1yyyyyyyy",
"1yyyyysyyyyy11yy1yyyyysyyyyy11yy1yyyyysyyyyy11yy1yyyyysyyyyy11yy",
"1yyyyy1yyyysyyyy1yyyyy1yyyysyyyy1yyyyy1yyyysyyyy1yyyyy1yyyysyyyy",
"syyysyyyyyy1yyyysyyysyyyyyy1yyyysyyysyyyyyy1yyyysyyysyyyyyy1yyyy",
"y1yy1yyyyyyyyyyyy1yy1yytttttttttt1tt1ttttyyyyyyyy1yy1yyyyyyyyyyy",
"yssyyyyyyyyy1ysyyssytttttttt1tattaattttttttt1ysyyssyyyyyyyyy1ysy",
"y1s1yyyyyyyyyy1yy1s1tttttttttr>rr:a:tttttttttt1yy1s1yyyyyyyyyy1y",
"yy1yyyyyyyy1yyyyyt1ttttttrr:rwwwww:rrrrtttt1tttyyy1yyyyyyyy1yyyy",
"yyyyysyyyy1y1yyytttttatrrw:w:qqqwwwwwiwrrt1t1tttyyyyysyyyy1y1yyy",
"yyyys1syyyy11tyttttta>pwwwq&$55555550:uwwrr11ttttyyys1syyyy11yyy",
"ysyys111yyyysttttstta:::q55          $$*wwrrattttsyys111yyyysyyy",
"y1yy11yy1yyyytttt1tr::w5$  hhhhhhhhhh  5$wwwrtttt1ty11yy1yyyyyyy",
"1yyyyy11yyysyttt1trww5$$ fhfffffgdhhhhf 4550wrtt1ttyyy11yyysyyyy",
"yyyyyyy1yy11ttsttrww553 dhffgggddhhhhhgd 3$$wwptttttyyy1yy11yysy",
"yyys1yyyy1y1tt1trrw0$3 ddhfggddhhhhhhhgfd 3$qw:rttts1yyyy1y1yy1y",
"yyy1yyyyyy1yttttrww$3 hhddhhhhhhhhhhhgddfh 35wwrttt1yyyyyy1yyyyy",
"yyyyyyy1yyyttttrrw55 hhhgdddhhhhhhhhgddfhhh 55wrrttttyy1yyyyyyyy",
"1yyyyysyyyyt11tr:w5 hhhhdggdddddddddddhdhhhh $qw:ttttysyyyyy11yy",
"1yyyyy1yytystttr:q5 ghhddhgdhhhhhhhddhffdhhd 5qw:tttty1yyyysyyyy",
"syyysyyyttt1tttru553 dddhhhgdhhhhhdddfffddd 35qwptttsyyyyyy1yyyy",
"y1yy1yyytttttttrw*53O ddhhhdgdhhhddhddfhff 135qwr1tt1yyyyyyyyyyy",
"yssyyyyyyyyt1tarw0931; dhhdgggfhddhfhddhd ;1@50wrasttyyyyyyy1ysy",
"y1s1yyyyyyyttt1rw:9@2,; dddggggfdhfhhdfd ;,235:wr1s1ttyyyyyyyy1y",
"yy1yyyyyyyy1tttrrw$531;& dhhgggghffhdff &;1@55wrrt1tttyyyyy1yyyy",
"yyyyysyyyy1y1tttrwq5371;$ hhggggffhhdf $;1+3$wwrtttttsyyyy1y1yyy",
"yyyys1syyyy11tttrrw59@7,;$ hhgggffhdf =;,13$*wrrtttts1syyyy11yyy",
"ysyys111yyyysttttpww0$@+,;$ hgggfhhd .XO13550wrttstts111yyyysyyy",
"y1yy11yy1yyyytttt1rw:$53+,;$ hggfhd .X,1@55wwrttt1ty11yy1yyyyyyy",
"1yyyyy11yyysyttt1ttrww&$32<-& hgfh &;<+@55wirttt1ttyyy11yyysyyyy",
"yyyyyyy1yy11yystttttrww&43+O;& hf &;113$5w::ttstttyyyyy1yy11yysy",
"yyys1yyyy1y1yy1tttta1rww5$3+1,o  ;,6+355w:r>tt1ttyys1yyyy1y1yy1y",
"yyy1yyyyyy1yyyyyttt1ttrww5$33211111+355wwr1tttttyyy1yyyyyy1yyyyy",
"yyyyyyy1yyyyyyyyytttttt:wwq54333333555w:rtttttttyyyyyyy1yyyyyyyy",
"1yyyyysyyyyy11yy1yttttatrwww&$55$555wwirtttt11yy1yyyyysyyyyy11yy",
"1yyyyy1yyyysyyyy1yyttt1ttrriwwq5&qwwwr:ttttstyyy1yyyyy1yyyysyyyy",
"syyysyyyyyy1yyyysyyystttttr:rwwwuwwrprttttt1yyyysyyysyyyyyy1yyyy",
"y1yy1yyyyyyyyyyyy1ty1ttttttttrrrr:rt1ttttttyyyyyy1yy1yyyyyyyyyyy",
"yssyyyyyyyyy1ysyyssyyytttttt1tattaatttttttyy1ysyyssyyyyyyyyy1ysy",
"y1s1yyyyyyyyyy1yy1s1yyyttttttt1tt1s1tttttyyyyy1yy1s1yyyyyyyyyy1y",
"yy1yyyyyyyy1yyyyyy1yyyyyytt1tttttt1ttttyyyy1yyyyyy1yyyyyyyy1yyyy",
"yyyyysyyyy1y1yyyyyyyysyyyy1y1tttttttysyyyy1y1yyyyyyyysyyyy1y1yyy",
"yyyys1syyyy11yyyyyyys1syyyy11yyyyyyys1syyyy11yyyyyyys1syyyy11yyy",
"ysyys111yyyysyyyysyys111yyyysyyyysyys111yyyysyyyysyys111yyyysyyy",
"y1yy11yy1yyyyyyyy1yy11yy1yyyyyyyy1yy11yy1yyyyyyyy1yy11yy1yyyyyyy",
"1yyyyy11yyysyyyy1yyyyy11yyysyyyy1yyyyy11yyysyyyy1yyyyy11yyysyyyy",
"yyyyyyy1yy11yysyyyyyyyy1yy11yysyyyyyyyy1yy11yysyyyyyyyy1yy11yysy",
"yyys1yyyy1y1yy1yyyys1yyyy1y1yy1yyyys1yyyy1y1yy1yyyys1yyyy1y1yy1y",
"yyy1yyyyyy1yyyyyyyy1yyyyyy1yyyyyyyy1yyyyyy1yyyyyyyy1yyyyyy1yyyyy",
"yyyyyyy1yyyyyyyyyyyyyyy1yyyyyyyyyyyyyyy1yyyyyyyyyyyyyyy1yyyyyyyy",
"1yyyyysyyyyy11yy1yyyyysyyyyy11yy1yyyyysyyyyy11yy1yyyyysyyyyy11yy",
"1yyyyy1yyyysyyyy1yyyyy1yyyysyyyy1yyyyy1yyyysyyyy1yyyyy1yyyysyyyy",
"syyysyyyyyy1yyyysyyysyyyyyy1yyyysyyysyyyyyy1yyyysyyysyyyyyy1yyyy",
"y1yy1yyyyyyyyyyyy1yy1yyyyyyyyyyyy1yy1yyyyyyyyyyyy1yy1yyyyyyyyyyy"
};
