/* XPM */
static char *door_open[] = {
/* columns rows colors chars-per-pixel */
"64 64 74 1 ",
"  c #000100",
". c #29343F",
"X c #553322",
"o c #583524",
"O c #5E3A23",
"+ c #623E27",
"@ c #643F28",
"# c #6A3F2A",
"$ c #6A4427",
"% c #67422B",
"& c #6E4228",
"* c #71452A",
"= c #734B2E",
"- c #7E4B32",
"; c #5B6F3F",
": c #5E7240",
"> c #607542",
", c #677D47",
"< c #687E47",
"1 c #697F48",
"2 c #4D5466",
"3 c #525563",
"4 c #50586A",
"5 c #575E71",
"6 c #5A6174",
"7 c #5F677A",
"8 c #60687B",
"9 c #825232",
"0 c #8B5536",
"q c #8D5738",
"w c #8F593A",
"e c #945C38",
"r c #9E5F3D",
"t c #9D643F",
"y c #A0613E",
"u c #9F6641",
"i c #A46441",
"p c #6A8149",
"a c #738947",
"s c #738C4F",
"d c #7D944E",
"f c #80984F",
"g c #869F53",
"h c #8CAA44",
"j c #91B147",
"k c #94B448",
"l c #9BBD4C",
"z c #87A054",
"x c #8AA456",
"c c #8DA858",
"v c #93AF5C",
"b c #94B05C",
"n c #9FC14D",
"m c #A1C44F",
"M c #A7CC52",
"N c #AACF53",
"B c #5D6880",
"V c #676F82",
"C c #6A7285",
"Z c #657088",
"A c #6E7589",
"S c #69788A",
"D c #737A8E",
"F c #727690",
"G c #757C90",
"H c #787F93",
"J c #7B8296",
"K c #7F869A",
"L c #7B87A0",
"P c #82899D",
"I c #858CA0",
"U c #8D95A9",
"Y c #949FAD",
"T c #979FB3",
/* pixels */
"bNNbbbbbbbbbsbNbbNNbbbbbbbbbsbNbbNNbbbbbbbbbsbNbbNNbbbbbbbbbsbNb",
"bsNsbbbbbbbbbbsbbsNsbbbbbbbbbbsbbsNsbbbbbbbbbbsbbsNsbbbbbbbbbbsb",
"bbsbbbbbbbbsbbbbbbsbbbbbbbbsbbbbbbsbbbbbbbbsbbbbbbsbbbbbbbbsbbbb",
"bbbbbNbbbbsbsbbbbbbbbNbbbbsbsbbbbbbbbNbbbbsbsbbbbbbbbNbbbbsbsbbb",
"bbbbNsNbbbbssbbbbbbbNsNbbbbssbbbbbbbNsNbbbbssbbbbbbbNsNbbbbssbbb",
"bNbbNsssbbbbNbbbbNbbNsssbbbbNbbbbNbbNsssbbbbNbbbbNbbNsssbbbbNbbb",
"bsbbssbbsbbbbbbbbsbbssbbsbbbbbbbbsbbssbbsbbbbbbbbsbbssbbsbbbbbbb",
"sbbbbbssbbbNbbbbsbbbbbssbbbNbbbbsbbbbbssbbbNbbbbsbbbbbssbbbNbbbb",
"bbbbbbbsbbssbbNbbbbbbbvsbbssbbNbvvbbbbbsbbssbbNbbbbbbbbsbbssbbNb",
"bbbNsbbbbsbsbbsbbbbNsbvbbsbsbbsbbbbNsbbbbsbsbbsbbbbNsbbbbsbsbbsb",
"bbbsbbbbbbsbbbbbbbbsvvvvvvsvvvvvvvvsvvbbbbsbbbbbbbbsbbbbbbsbbbbb",
"bbbbbbbsbbbbbbbbbbvvvvvsvvvvvvvvvvvvvvvsbbbbbbbbbbbbbbbsbbbbbbbb",
"sbbbbbNbbbbbssbbsvvvvvNvvvvvssvvsvvvvvNvvbbbssbbsbbbbbNbbbbbssbb",
"sbbbbbsbbbbNbbbbsvvvvvsvcccmccccpcvvvvsvvbbNbbbbsbbbbbsbbbbNbbbb",
"NbbbNbbbbbbsbbbbNvvvMvccxxxpxxxxmxccMvvvvvbsbbbbNbbbNbbbbbbsbbbb",
"bsbbsbbbbbbbbbbbvsvvsccxxzggggggzpxcpvvvvvbbbbbbbsbbsbbbbbbbbbbb",
"bNNbbbbbbbbbsbNbvNNvccxx TUK &- J       vvbbsbNbbNNbbbbbbbbbsbNb",
"bsNsbbbbbbbbbbsbvsMscxzg LJ q*w J       vvbbbbsbbsNsbbbbbbbbbbsb",
"bbsbbbbbbbbsbbbbvvscxxgg I +e+0 G       vvbsbbbbbbsbbbbbbbbsbbbb",
"bbbbbNbbbbsbsbbbvvvcxlgd.T @e+e J       vvsbsbbbbbbbbNbbbbsbsbbb",
"bbbbNsNbbbbssbbbvvvcn<kdY. #r&y J       vvbssbbbbbbbNsNbbbbssbbb",
"bNbbNsssbbbbNbbbvMcxn,,:Y. *e*i I       vvbbNbbbbNbbNsssbbbbNbbb",
"bsbbssbbsbbbbbbbvscxp,dsY. @e+e K       svbbbbbbbsbbssbbsbbbbbbb",
"sbbbbbssbbbNbbbbsvcxzg>;Y. #r&e K       vvbNbbbbsbbbbbssbbbNbbbb",
"bbbbbbbsbbssbbNbvvcxzgd;.C +i* C.       vvssbbNbbbbbbbbsbbssbbNb",
"bbbNsbbbbsbsbbsbvvcn<gds A +i D.Y.      vsbsbbsbbbbNsbbbbsbsbbsb",
"bbbsbbbbbbsbbbbbvvcpggda D % DD.Y.      vvsbbbbbbbbsbbbbbbsbbbbb",
"bbbbbbbsbbbbbbbbvvcxgfd; C  IAJC.       vvbbbbbbbbbbbbbsbbbbbbbb",
"sbbbbbNbbbbbssbbsvcxzgha I CGZKC6       vvbbssbbsbbbbbNbbbbbssbb",
"sbbbbbsbbbbNbbbbsvcxzg:a PG8GDP V       vvbNbbbbsbbbbbsbbbbNbbbb",
"NbbbNbbbbbbsbbbbNvcxlgda DHS8Z  8       vvbsbbbbNbbbNbbbbbbsbbbb",
"bsbbsbbbbbbbbbbbvscx1gda FPJ8 e 8       vvbbbbbbbsbbsbbbbbbbbbbb",
"bNNbbbbbbbbbsbNbvMMxzgda VGG =9 8       vvbbsbNbbNNbbbbbbbbbsbNb",
"bsNsbbbbbbbbbbsbvsMpzgda 8C t%9 7       vvbbbbsbbsNsbbbbbbbbbbsb",
"bbsbbbbbbbbsbbbbvvpxzgda 8 ou@9 6       vvbsbbbbbbsbbbbbbbbsbbbb",
"bbbbbNbbbbsbsbbbvvcxzkda 8 ot$9 V       vvsbsbbbbbbbbNbbbbsbsbbb",
"bbbbNsNbbbbssbbbvvcxl,ha 7 Xt%9 C       vvbssbbbbbbbNsNbbbbssbbb",
"bNbbNsssbbbbNbbbvMcxl,:; C otO9 G       vvbbNbbbbNbbNsssbbbbNbbb",
"bsbbssbbsbbbbbbbvscx<,da C XeO9 C       svbbbbbbbsbbssbbsbbbbbbb",
"sbbbbbssbbbNbbbbsvcxgf:;.C Xi+ AB       vvbNbbbbsbbbbbssbbbNbbbb",
"bbbbbbbsbbssbbNbvvcxzgd;Y. oi V7        vvssbbNbbbbbbbbsbbssbbNb",
"bbbNsbbbbsbsbbsbvvcm1gdsY. + 88         vsbsbbsbbbbNsbbbbsbsbbsb",
"bbbsbbbbbbsbbbbbvvcpzgdsY.  6A          vvsbbbbbbbbsbbbbbbsbbbbb",
"bbbbbbbsbbbbbbbbvvcxxgd:Y. 5V           vvbbbbbbbbbbbbbsbbbbbbbb",
"sbbbbbNbbbbbssbbsvcxzgjd.683            vvbbssbbsbbbbbNbbbbbssbb",
"sbbbbbsbbbbNbbbbsvccxg,d 42             vvbNbbbbsbbbbbsbbbbNbbbb",
"NbbbNbbbbbbsbbbbNvccnzgd                vbbsbbbbNbbbNbbbbbbsbbbb",
"bsbbsbbbbbbbbbbbvsvcpxggddddddfggpxcsvvvvbbbbbbbbsbbsbbbbbbbbbbb",
"bNNbbbbbbbbbsbNbvNMccxzgggdd,glzxmMvvvvvbbbbsbNbbNNbbbbbbbbbsbNb",
"bsNsbbbbbbbbbbsbvsMscxxxgggggzpxxpMsvvvvbbbbbbsbbsNsbbbbbbbbbbsb",
"bbsbbbbbbbbsbbbbvvsvccxxxxxpxxxccvsvvvvbbbbsbbbbbbsbbbbbbbbsbbbb",
"bbbbbNbbbbsbsbbbvvvvvMccxxpxpcccvvvvvNvbbbsbsbbbbbbbbNbbbbsbsbbb",
"bbbbNsNbbbbssbbbvvvvMsMccccppvvvvvvvNsNbbbbssbbbbbbbNsNbbbbssbbb",
"bNbbNsssbbbbNbbbbNvvNsssvvvvMvvvvNvvNsssbbbbNbbbbNbbNsssbbbbNbbb",
"bsbbssbbsbbbbbbbbsvvssvvsvvvvvvvvsvbssbbsbbbbbbbbsbbssbbsbbbbbbb",
"sbbbbbssbbbNbbbbsbvvvvssvvvNvvvvsbbbbbssbbbNbbbbsbbbbbssbbbNbbbb",
"bbbbbbbsbbssbbNbbbbbvvvsvvssvvNbbbbbbbbsbbssbbNbbbbbbbbsbbssbbNb",
"bbbNsbbbbsbsbbsbbbbNsbbbbsbsbbsbbbbNsbbbbsbsbbsbbbbNsbbbbsbsbbsb",
"bbbsbbbbbbsbbbbbbbbsbbbbbbsbbbbbbbbsbbbbbbsbbbbbbbbsbbbbbbsbbbbb",
"bbbbbbbsbbbbbbbbbbbbbbbsbbbbbbbbbbbbbbbsbbbbbbbbbbbbbbbsbbbbbbbb",
"sbbbbbNbbbbbssbbsbbbbbNbbbbbssbbsbbbbbNbbbbbssbbsbbbbbNbbbbbssbb",
"sbbbbbsbbbbNbbbbsbbbbbsbbbbNbbbbsbbbbbsbbbbNbbbbsbbbbbsbbbbNbbbb",
"NbbbNbbbbbbsbbbbNbbbNbbbbbbsbbbbNbbbNbbbbbbsbbbbNbbbNbbbbbbsbbbb",
"bsbbsbbbbbbbbbbbbsbbsbbbbbbbbbbbbsbbsbbbbbbbbbbbbsbbsbbbbbbbbbbb"
};
