/* XPM */
static char *player[] = {
/* columns rows colors chars-per-pixel */
"64 64 36 1 ",
"  c #3A3737",
". c #5F7341",
"X c #607442",
"o c #667C46",
"O c #687E47",
"+ c #687F48",
"@ c #827C7C",
"# c #6E864C",
"$ c #6F884D",
"% c #718746",
"& c #70884D",
"* c #738C4F",
"= c #7D954E",
"- c #80984F",
"; c #849D52",
": c #91B147",
"> c #93B348",
", c #97B84A",
"< c #9DBF4C",
"1 c #87A154",
"2 c #8CA757",
"3 c #8DA858",
"4 c #8EA858",
"5 c #8FAA59",
"6 c #93AF5C",
"7 c #94B05C",
"8 c #BC8B6D",
"9 c #CDAE67",
"0 c #9FC24E",
"q c #A0C34E",
"w c #A3C750",
"e c #A6CA51",
"r c #AACF53",
"t c #B7B3B2",
"y c #D6B39D",
"u c #EFE9E7",
/* pixels */
"7rr777777777*7r77rr777777777*7r77rr777777777*7r77rr777777777*7r7",
"7*r*7777777777*77*r*7777777777*77*r*7777777777*77*r*7777777777*7",
"77*77777777*777777*77777777*777777*77777777*777777*77777777*7777",
"77777r7777*7*77777777r7777*7*77777777r7777*7*77777777r7777*7*777",
"7777r*r7777**7777777r*r7777**7777777r*r7777**7777777r*r7777**777",
"7r77r***7777r7777r77r***7777r7777r77r***7777r7777r77r***7777r777",
"7*77**77*77777777*77**77*77777777*77**77*77777777*77**77*7777777",
"*77777**777r7777*77777**777r7777*77777**777r7777*77777**777r7777",
"7777777*77**77r77777777*77**77r77777777*77**77r77777777*77**77r7",
"777r*7777*7*77*7777r*7777*7*77*7777r*7777*7*77*7777r*7777*7*77*7",
"777*777777*77777777*777777*77777777*777777*77777777*777777*77777",
"7777777*777777777777777*777777777777777*777777777777777*77777777",
"*77777r77777**77*77777r77777**77*77777r77777**77*77777r77777**77",
"*77777*7777r7777*77777*7777r7777*77777*7777r7777*77777*7777r7777",
"r777r777777*7777r777r777777*7777r777r777777*7777r777r777777*7777",
"7*77*777777777777*77*777777777777*77*777777777777*77*77777777777",
"7rr777777777*7r77rr666666666*6r67rr666666666*6r77rr777777777*7r7",
"7*r*7777777777*77*r*6666666666*66*r*6666666666*67*r*7777777777*7",
"77*77777777*777766*66666666*666666*66666666*666667*77777777*7777",
"77777r7777*7*77666666e6665$6*66666666e5566*6*66666777r7777*7*777",
"7777r*r7777**7766666e*e5555##5555555w#q5555**6666677r*r7777**777",
"7r77r***7777r7766r66e#    22q2222q22q##    5e6666r77r***7777r777",
"7*77**77*77777766*66## ut@  22122#22#  @tu 256666*77**77*7777777",
"*77777**777r7776*66522 uuuut  ;;O;;  tuuuu 05566*67777**777r7777",
"7777777*77**77r6666522 @8yuut@     @tuuy8@ #25e66667777*77**77r7",
"777r*7777*7*77*6665q#2; yyytut@   @tutyyy ;#22#6666r*7777*7*77*7",
"777*777777*77776666#22;; yyyuu ttt uuyyy ;o22256667*777777*77777",
"7777777*77777776666522;o= 8ytutuuututy8 =;;225566677777*77777777",
"*77777r77777**76*66221,-=   tuuuuuuut   ==;1##66*67777r77777**77",
"*77777*7777r7776*66221o- @tt@tuuuuut@tt@ =;<2566*67777*7777r7777",
"r777r777777*7766r65201;= ttt@ tuuut @ttt =;+2566r677r777777*7777",
"7*77*777777777666*52#1; @ut@t ttttt t@tu@ ;125666*77*77777777777",
"7rr777777777*7r66ee521; tu tu@tuuut@ut ut ;1#5e66rr777777777*7r7",
"7*r*7777777777*66*e#21; uu uutuuuuutuu uu ;125*66*r*7777777777*7",
"77*77777777*777666#221; uu tuu 999 uut uu ;+256666*77777777*7777",
"77777r7777*7*77666622<; tuu uuu   uuu uut o1#56666777r7777*7*777",
"7777r*r7777**77666520+> @tuu @tt tt@ uut@ ;+#5566677r*r7777**777",
"7r77r***7777r7766e650+oX ttuu   t   uutt =;;05566r77r***7777r777",
"7*77**77*77777766*65#+;=  ttutuuuuutut@  =;125566*77**77*7777777",
"*77777**777r7776*66521oX @@ u@ tut @u @ ==;<2556*67777**777r7777",
"7777777*77**77r6665521;  @  ttt@ @ttt @@ -o#25e66677777*77**77r7",
"777r*7777*7*77*6666w#2; tt tuuu   uuut tt ;#25*6667r*7777*7*77*7",
"777*777777*77776666#22; uu uuuu % uuuu uu +22566677*777777*77777",
"7777777*77777776666522;o       ***       ;2225666777777*77777777",
"*77777r77777**77*66522<;;;==X.==.=====:;;;22##66*77777r77777**77",
"*77777*7777r7777*66652#2;;;>====X===-;o;;22q5666*77777*7777r7777",
"r777r777777*7777r666e52221;o;;;;>;;;>;;1222#6666r777r777777*7777",
"7*77*777777777776*66*55222221;;;;O11+222225566666*77*77777777777",
"7rr777777777*7r76rr666555222#202200222225566*6r67rr777777777*7r7",
"7*r*7777777777*77*r*6666555552#55#q#2255566666*67*r*7777777777*7",
"77*77777777*777776*66666666*666666*66666666*666677*77777777*7777",
"77777r7777*7*77777666r6666*6*66666666e6666*6*66677777r7777*7*777",
"7777r*r7777**7777777r*r6666**6666666r*r6666**7777777r*r7777**777",
"7r77r***7777r7777r77r***6666r6666r66r***6677r7777r77r***7777r777",
"7*77**77*77777777*77**67*77777777*77**66*77777777*77**77*7777777",
"*77777**777r7777*77777**777r7777*77666**777r7777*77777**777r7777",
"7777777*77**77r77777777*77**77r77777777*77**77r77777777*77**77r7",
"777r*7777*7*77*7777r*7777*7*77*7777r*7777*7*77*7777r*7777*7*77*7",
"777*777777*77777777*777777*77777777*777777*77777777*777777*77777",
"7777777*777777777777777*777777777777777*777777777777777*77777777",
"*77777r77777**77*77777r77777**77*77777r77777**77*77777r77777**77",
"*77777*7777r7777*77777*7777r7777*77777*7777r7777*77777*7777r7777",
"r777r777777*7777r777r777777*7777r777r777777*7777r777r777777*7777",
"7*77*777777777777*77*777777777777*77*777777777777*77*77777777777"
};
